Data/LUTs/DELTA - Rec.709_32.cube
TITLE "DELTA - Rec.709_32"
LUT_3D_SIZE 8
DOMAIN_MIN 0.000000 0.000000 0.000000
DOMAIN_MAX 0.903226 0.903226 0.903226
0.0235 0.0235 0.0235
0.0254 0.0254 0.0254
0.0367 0.0367 0.0367
0.0542 0.0542 0.0542
0.0703 0.0703 0.0703
0.0934 0.0934 0.0934
0.1226 0.1226 0.1226
0.1570 0.1570 0.1570
0.0498 0.0498 0.0498
0.0599 0.0599 0.0599
0.0759 0.0759 0.0759
0.0935 0.0935 0.0935
0.1169 0.1169 0.1169
0.1457 0.1457 0.1457
0.1872 0.1872 0.1872
0.2404 0.2404 0.2404
0.0690 0.0690 0.0690
0.0872 0.0872 0.0872
0.0987 0.0987 0.0987
0.1288 0.1288 0.1288
0.1637 0.1637 0.1637
0.2093 0.2093 0.2093
0.2592 0.2592 0.2592
0.3084 0.3084 0.3084
0.1125 0.1125 0.1125
0.1323 0.1323 0.1323
0.1525 0.1525 0.1525
0.1759 0.1759 0.1759
0.2216 0.2216 0.2216
0.2751 0.2751 0.2751
0.3436 0.3436 0.3436
0.4343 0.4343 0.4343
0.1644 0.1644 0.1644
0.1868 0.1868 0.1868
0.2261 0.2261 0.2261
0.2551 0.2551 0.2551
0.2922 0.2922 0.2922
0.3550 0.3550 0.3550
0.4399 0.4399 0.4399
0.5461 0.5461 0.5461
0.2306 0.2306 0.2306
0.2531 0.2531 0.2531
0.2965 0.2965 0.2965
0.3533 0.3533 0.3533
0.4015 0.4015 0.4015
0.4678 0.4678 0.4678
0.5497 0.5497 0.5497
0.6427 0.6427 0.6427
0.3048 0.3048 0.3048
0.3327 0.3327 0.3327
0.3817 0.3817 0.3817
0.4790 0.4790 0.4790
0.5393 0.5393 0.5393
0.6014 0.6014 0.6014
0.6723 0.6723 0.6723
0.7427 0.7427 0.7427
0.4043 0.4043 0.4043
0.4446 0.4446 0.4446
0.4964 0.4964 0.4964
0.5965 0.5965 0.5965
0.6768 0.6768 0.6768
0.7286 0.7286 0.7286
0.7822 0.7822 0.7822
0.8219 0.8219 0.8219
0.0235 0.0235 0.0235
0.0312 0.0312 0.0312
0.0494 0.0494 0.0494
0.0645 0.0645 0.0645
0.0809 0.0809 0.0809
0.1064 0.1064 0.1064
0.1389 0.1389 0.1389
0.1804 0.1804 0.1804
0.0500 0.0500 0.0500
0.0666 0.0666 0.0666
0.0841 0.0841 0.0841
0.1055 0.1055 0.1055
0.1350 0.1350 0.1350
0.1746 0.1746 0.1746
0.2235 0.2235 0.2235
0.2793 0.2793 0.2793
0.0732 0.0732 0.0732
0.0988 0.0988 0.0988
0.1222 0.1222 0.1222
0.1530 0.1530 0.1530
0.1874 0.1874 0.1874
0.2260 0.2260 0.2260
0.2767 0.2767 0.2767
0.3685 0.3685 0.3685
0.1168 0.1168 0.1168
0.1317 0.1317 0.1317
0.1663 0.1663 0.1663
0.1984 0.1984 0.1984
0.2507 0.2507 0.2507
0.3025 0.3025 0.3025
0.3610 0.3610 0.3610
0.4392 0.4392 0.4392
0.1691 0.1691 0.1691
0.1833 0.1833 0.1833
0.2334 0.2334 0.2334
0.2751 0.2751 0.2751
0.3138 0.3138 0.3138
0.3883 0.3883 0.3883
0.4728 0.4728 0.4728
0.5653 0.5653 0.5653
0.2356 0.2356 0.2356
0.2517 0.2517 0.2517
0.2909 0.2909 0.2909
0.3730 0.3730 0.3730
0.4276 0.4276 0.4276
0.4897 0.4897 0.4897
0.5774 0.5774 0.5774
0.6645 0.6645 0.6645
0.3119 0.3119 0.3119
0.3363 0.3363 0.3363
0.3774 0.3774 0.3774
0.4698 0.4698 0.4698
0.5625 0.5625 0.5625
0.6196 0.6196 0.6196
0.6804 0.6804 0.6804
0.7537 0.7537 0.7537
0.4189 0.4189 0.4189
0.4536 0.4536 0.4536
0.5019 0.5019 0.5019
0.5739 0.5739 0.5739
0.6876 0.6876 0.6876
0.7440 0.7440 0.7440
0.7850 0.7850 0.7850
0.8241 0.8241 0.8241
0.0257 0.0257 0.0257
0.0474 0.0474 0.0474
0.0720 0.0720 0.0720
0.0902 0.0902 0.0902
0.1200 0.1200 0.1200
0.1383 0.1383 0.1383
0.1663 0.1663 0.1663
0.2082 0.2082 0.2082
0.0620 0.0620 0.0620
0.0842 0.0842 0.0842
0.1028 0.1028 0.1028
0.1336 0.1336 0.1336
0.1717 0.1717 0.1717
0.2105 0.2105 0.2105
0.2528 0.2528 0.2528
0.3114 0.3114 0.3114
0.0797 0.0797 0.0797
0.1139 0.1139 0.1139
0.1507 0.1507 0.1507
0.1768 0.1768 0.1768
0.2170 0.2170 0.2170
0.2637 0.2637 0.2637
0.3272 0.3272 0.3272
0.4268 0.4268 0.4268
0.1211 0.1211 0.1211
0.1460 0.1460 0.1460
0.2096 0.2096 0.2096
0.2539 0.2539 0.2539
0.2944 0.2944 0.2944
0.3461 0.3461 0.3461
0.4046 0.4046 0.4046
0.4846 0.4846 0.4846
0.1778 0.1778 0.1778
0.2014 0.2014 0.2014
0.2442 0.2442 0.2442
0.3154 0.3154 0.3154
0.3664 0.3664 0.3664
0.4403 0.4403 0.4403
0.5227 0.5227 0.5227
0.5994 0.5994 0.5994
0.2505 0.2505 0.2505
0.2684 0.2684 0.2684
0.3015 0.3015 0.3015
0.3931 0.3931 0.3931
0.4698 0.4698 0.4698
0.5250 0.5250 0.5250
0.6203 0.6203 0.6203
0.7078 0.7078 0.7078
0.3305 0.3305 0.3305
0.3563 0.3563 0.3563
0.4001 0.4001 0.4001
0.4821 0.4821 0.4821
0.5973 0.5973 0.5973
0.6517 0.6517 0.6517
0.7088 0.7088 0.7088
0.7805 0.7805 0.7805
0.4421 0.4421 0.4421
0.4762 0.4762 0.4762
0.5281 0.5281 0.5281
0.5893 0.5893 0.5893
0.6935 0.6935 0.6935
0.7638 0.7638 0.7638
0.8002 0.8002 0.8002
0.8350 0.8350 0.8350
0.0335 0.0335 0.0335
0.0582 0.0582 0.0582
0.1115 0.1115 0.1115
0.1401 0.1401 0.1401
0.1531 0.1531 0.1531
0.1942 0.1942 0.1942
0.2207 0.2207 0.2207
0.2427 0.2427 0.2427
0.0810 0.0810 0.0810
0.1127 0.1127 0.1127
0.1476 0.1476 0.1476
0.1847 0.1847 0.1847
0.2214 0.2214 0.2214
0.2726 0.2726 0.2726
0.3134 0.3134 0.3134
0.3536 0.3536 0.3536
0.1039 0.1039 0.1039
0.1479 0.1479 0.1479
0.1876 0.1876 0.1876
0.2183 0.2183 0.2183
0.2622 0.2622 0.2622
0.3108 0.3108 0.3108
0.3770 0.3770 0.3770
0.4633 0.4633 0.4633
0.1337 0.1337 0.1337
0.1749 0.1749 0.1749
0.2411 0.2411 0.2411
0.2967 0.2967 0.2967
0.3379 0.3379 0.3379
0.3898 0.3898 0.3898
0.4662 0.4662 0.4662
0.5615 0.5615 0.5615
0.1846 0.1846 0.1846
0.2232 0.2232 0.2232
0.2807 0.2807 0.2807
0.3905 0.3905 0.3905
0.4530 0.4530 0.4530
0.5032 0.5032 0.5032
0.5713 0.5713 0.5713
0.6414 0.6414 0.6414
0.2587 0.2587 0.2587
0.2903 0.2903 0.2903
0.3403 0.3403 0.3403
0.4304 0.4304 0.4304
0.5423 0.5423 0.5423
0.6030 0.6030 0.6030
0.6774 0.6774 0.6774
0.7499 0.7499 0.7499
0.3538 0.3538 0.3538
0.3898 0.3898 0.3898
0.4377 0.4377 0.4377
0.5020 0.5020 0.5020
0.6180 0.6180 0.6180
0.6919 0.6919 0.6919
0.7414 0.7414 0.7414
0.8078 0.8078 0.8078
0.4777 0.4777 0.4777
0.5144 0.5144 0.5144
0.5656 0.5656 0.5656
0.6332 0.6332 0.6332
0.7146 0.7146 0.7146
0.7888 0.7888 0.7888
0.8183 0.8183 0.8183
0.8454 0.8454 0.8454
0.0439 0.0439 0.0439
0.0700 0.0700 0.0700
0.1430 0.1430 0.1430
0.2062 0.2062 0.2062
0.2364 0.2364 0.2364
0.2347 0.2347 0.2347
0.2651 0.2651 0.2651
0.2992 0.2992 0.2992
0.1076 0.1076 0.1076
0.1435 0.1435 0.1435
0.1861 0.1861 0.1861
0.2550 0.2550 0.2550
0.2944 0.2944 0.2944
0.3096 0.3096 0.3096
0.3686 0.3686 0.3686
0.4287 0.4287 0.4287
0.1354 0.1354 0.1354
0.1896 0.1896 0.1896
0.2502 0.2502 0.2502
0.2887 0.2887 0.2887
0.3364 0.3364 0.3364
0.3910 0.3910 0.3910
0.4652 0.4652 0.4652
0.5405 0.5405 0.5405
0.1669 0.1669 0.1669
0.2291 0.2291 0.2291
0.3017 0.3017 0.3017
0.3477 0.3477 0.3477
0.3970 0.3970 0.3970
0.4579 0.4579 0.4579
0.5212 0.5212 0.5212
0.6011 0.6011 0.6011
0.2067 0.2067 0.2067
0.2609 0.2609 0.2609
0.3338 0.3338 0.3338
0.4351 0.4351 0.4351
0.5109 0.5109 0.5109
0.5627 0.5627 0.5627
0.6153 0.6153 0.6153
0.6893 0.6893 0.6893
0.2755 0.2755 0.2755
0.3137 0.3137 0.3137
0.3885 0.3885 0.3885
0.4988 0.4988 0.4988
0.6248 0.6248 0.6248
0.6757 0.6757 0.6757
0.7220 0.7220 0.7220
0.7709 0.7709 0.7709
0.3710 0.3710 0.3710
0.4146 0.4146 0.4146
0.4882 0.4882 0.4882
0.5638 0.5638 0.5638
0.6665 0.6665 0.6665
0.7543 0.7543 0.7543
0.7959 0.7959 0.7959
0.8358 0.8358 0.8358
0.4998 0.4998 0.4998
0.5480 0.5480 0.5480
0.6084 0.6084 0.6084
0.6709 0.6709 0.6709
0.7352 0.7352 0.7352
0.8040 0.8040 0.8040
0.8425 0.8425 0.8425
0.8636 0.8636 0.8636
0.0588 0.0588 0.0588
0.0867 0.0867 0.0867
0.1600 0.1600 0.1600
0.2452 0.2452 0.2452
0.2958 0.2958 0.2958
0.3253 0.3253 0.3253
0.3158 0.3158 0.3158
0.3392 0.3392 0.3392
0.1399 0.1399 0.1399
0.1786 0.1786 0.1786
0.2224 0.2224 0.2224
0.3092 0.3092 0.3092
0.3929 0.3929 0.3929
0.4289 0.4289 0.4289
0.4271 0.4271 0.4271
0.4850 0.4850 0.4850
0.1830 0.1830 0.1830
0.2484 0.2484 0.2484
0.3136 0.3136 0.3136
0.3548 0.3548 0.3548
0.4188 0.4188 0.4188
0.4938 0.4938 0.4938
0.5343 0.5343 0.5343
0.6005 0.6005 0.6005
0.2114 0.2114 0.2114
0.2822 0.2822 0.2822
0.3612 0.3612 0.3612
0.4468 0.4468 0.4468
0.4951 0.4951 0.4951
0.5530 0.5530 0.5530
0.6077 0.6077 0.6077
0.6792 0.6792 0.6792
0.2534 0.2534 0.2534
0.3216 0.3216 0.3216
0.4279 0.4279 0.4279
0.5156 0.5156 0.5156
0.5686 0.5686 0.5686
0.6179 0.6179 0.6179
0.6776 0.6776 0.6776
0.7326 0.7326 0.7326
0.3033 0.3033 0.3033
0.3638 0.3638 0.3638
0.4634 0.4634 0.4634
0.5658 0.5658 0.5658
0.6626 0.6626 0.6626
0.7195 0.7195 0.7195
0.7587 0.7587 0.7587
0.7942 0.7942 0.7942
0.4085 0.4085 0.4085
0.4523 0.4523 0.4523
0.5326 0.5326 0.5326
0.6257 0.6257 0.6257
0.7215 0.7215 0.7215
0.7972 0.7972 0.7972
0.8244 0.8244 0.8244
0.8494 0.8494 0.8494
0.5330 0.5330 0.5330
0.5784 0.5784 0.5784
0.6456 0.6456 0.6456
0.7246 0.7246 0.7246
0.7724 0.7724 0.7724
0.8267 0.8267 0.8267
0.8653 0.8653 0.8653
0.8844 0.8844 0.8844
0.0780 0.0780 0.0780
0.1099 0.1099 0.1099
0.1659 0.1659 0.1659
0.2729 0.2729 0.2729
0.3277 0.3277 0.3277
0.3820 0.3820 0.3820
0.4135 0.4135 0.4135
0.4048 0.4048 0.4048
0.1712 0.1712 0.1712
0.2147 0.2147 0.2147
0.2599 0.2599 0.2599
0.3485 0.3485 0.3485
0.4560 0.4560 0.4560
0.5245 0.5245 0.5245
0.5554 0.5554 0.5554
0.5547 0.5547 0.5547
0.2457 0.2457 0.2457
0.3099 0.3099 0.3099
0.3842 0.3842 0.3842
0.4093 0.4093 0.4093
0.4861 0.4861 0.4861
0.5814 0.5814 0.5814
0.6340 0.6340 0.6340
0.6540 0.6540 0.6540
0.2732 0.2732 0.2732
0.3526 0.3526 0.3526
0.4684 0.4684 0.4684
0.5313 0.5313 0.5313
0.5775 0.5775 0.5775
0.6265 0.6265 0.6265
0.6933 0.6933 0.6933
0.7489 0.7489 0.7489
0.2984 0.2984 0.2984
0.4008 0.4008 0.4008
0.5044 0.5044 0.5044
0.5879 0.5879 0.5879
0.6617 0.6617 0.6617
0.7016 0.7016 0.7016
0.7458 0.7458 0.7458
0.7858 0.7858 0.7858
0.3639 0.3639 0.3639
0.4443 0.4443 0.4443
0.5672 0.5672 0.5672
0.6573 0.6573 0.6573
0.7222 0.7222 0.7222
0.7579 0.7579 0.7579
0.7869 0.7869 0.7869
0.8229 0.8229 0.8229
0.4467 0.4467 0.4467
0.5068 0.5068 0.5068
0.6106 0.6106 0.6106
0.6928 0.6928 0.6928
0.7663 0.7663 0.7663
0.8157 0.8157 0.8157
0.8414 0.8414 0.8414
0.8615 0.8615 0.8615
0.5791 0.5791 0.5791
0.6289 0.6289 0.6289
0.6909 0.6909 0.6909
0.7573 0.7573 0.7573
0.8090 0.8090 0.8090
0.8492 0.8492 0.8492
0.8815 0.8815 0.8815
0.8968 0.8968 0.8968
0.1022 0.1022 0.1022
0.1363 0.1363 0.1363
0.1824 0.1824 0.1824
0.2856 0.2856 0.2856
0.3506 0.3506 0.3506
0.4054 0.4054 0.4054
0.4607 0.4607 0.4607
0.4918 0.4918 0.4918
0.2032 0.2032 0.2032
0.2516 0.2516 0.2516
0.3004 0.3004 0.3004
0.3838 0.3838 0.3838
0.4903 0.4903 0.4903
0.5550 0.5550 0.5550
0.6126 0.6126 0.6126
0.6447 0.6447 0.6447
0.3119 0.3119 0.3119
0.3843 0.3843 0.3843
0.4631 0.4631 0.4631
0.4817 0.4817 0.4817
0.5308 0.5308 0.5308
0.6462 0.6462 0.6462
0.7241 0.7241 0.7241
0.7607 0.7607 0.7607
0.3431 0.3431 0.3431
0.4457 0.4457 0.4457
0.5728 0.5728 0.5728
0.6167 0.6167 0.6167
0.6233 0.6233 0.6233
0.6724 0.6724 0.6724
0.7457 0.7457 0.7457
0.7888 0.7888 0.7888
0.3532 0.3532 0.3532
0.4894 0.4894 0.4894
0.6050 0.6050 0.6050
0.6872 0.6872 0.6872
0.7299 0.7299 0.7299
0.7623 0.7623 0.7623
0.7933 0.7933 0.7933
0.8258 0.8258 0.8258
0.4233 0.4233 0.4233
0.5218 0.5218 0.5218
0.6569 0.6569 0.6569
0.7201 0.7201 0.7201
0.7712 0.7712 0.7712
0.8093 0.8093 0.8093
0.8269 0.8269 0.8269
0.8478 0.8478 0.8478
0.5216 0.5216 0.5216
0.5953 0.5953 0.5953
0.6926 0.6926 0.6926
0.7675 0.7675 0.7675
0.8152 0.8152 0.8152
0.8426 0.8426 0.8426
0.8560 0.8560 0.8560
0.8690 0.8690 0.8690
0.6137 0.6137 0.6137
0.6768 0.6768 0.6768
0.7436 0.7436 0.7436
0.8003 0.8003 0.8003
0.8379 0.8379 0.8379
0.8637 0.8637 0.8637
0.8882 0.8882 0.8882
0.9063 0.9063 0.9063
