Data/LUTs/DELTA - Rec.709_32.cube
TITLE "DELTA - Rec.709_32"
LUT_3D_SIZE 5
DOMAIN_MIN 0.000000 0.000000 0.000000
DOMAIN_MAX 0.903226 0.903226 0.903226
0.0235 0.0235 0.0235
0.0327 0.0327 0.0327
0.0618 0.0618 0.0618
0.1002 0.1002 0.1002
0.1570 0.1570 0.1570
0.0609 0.0609 0.0609
0.0867 0.0867 0.0867
0.1354 0.1354 0.1354
0.2036 0.2036 0.2036
0.2852 0.2852 0.2852
0.1370 0.1370 0.1370
0.1815 0.1815 0.1815
0.2312 0.2312 0.2312
0.3283 0.3283 0.3283
0.4932 0.4932 0.4932
0.2481 0.2481 0.2481
0.2991 0.2991 0.2991
0.4085 0.4085 0.4085
0.5194 0.5194 0.5194
0.6674 0.6674 0.6674
0.4043 0.4043 0.4043
0.4824 0.4824 0.4824
0.6447 0.6447 0.6447
0.7419 0.7419 0.7419
0.8219 0.8219 0.8219
0.0237 0.0237 0.0237
0.0603 0.0603 0.0603
0.0976 0.0976 0.0976
0.1330 0.1330 0.1330
0.2010 0.2010 0.2010
0.0696 0.0696 0.0696
0.1249 0.1249 0.1249
0.1713 0.1713 0.1713
0.2535 0.2535 0.2535
0.3942 0.3942 0.3942
0.1459 0.1459 0.1459
0.1991 0.1991 0.1991
0.2896 0.2896 0.2896
0.3999 0.3999 0.3999
0.5238 0.5238 0.5238
0.2639 0.2639 0.2639
0.3048 0.3048 0.3048
0.4616 0.4616 0.4616
0.5630 0.5630 0.5630
0.7181 0.7181 0.7181
0.4341 0.4341 0.4341
0.5061 0.5061 0.5061
0.6289 0.6289 0.6289
0.7676 0.7676 0.7676
0.8313 0.8313 0.8313
0.0383 0.0383 0.0383
0.1121 0.1121 0.1121
0.1868 0.1868 0.1868
0.2204 0.2204 0.2204
0.2701 0.2701 0.2701
0.1120 0.1120 0.1120
0.1967 0.1967 0.1967
0.2646 0.2646 0.2646
0.3544 0.3544 0.3544
0.4763 0.4763 0.4763
0.1664 0.1664 0.1664
0.2658 0.2658 0.2658
0.3983 0.3983 0.3983
0.4874 0.4874 0.4874
0.6222 0.6222 0.6222
0.2854 0.2854 0.2854
0.3695 0.3695 0.3695
0.5441 0.5441 0.5441
0.6799 0.6799 0.6799
0.7829 0.7829 0.7829
0.4886 0.4886 0.4886
0.5714 0.5714 0.5714
0.6840 0.6840 0.6840
0.8087 0.8087 0.8087
0.8534 0.8534 0.8534
0.0631 0.0631 0.0631
0.1357 0.1357 0.1357
0.2789 0.2789 0.2789
0.3479 0.3479 0.3479
0.3489 0.3489 0.3489
0.1905 0.1905 0.1905
0.2974 0.2974 0.2974
0.3840 0.3840 0.3840
0.5153 0.5153 0.5153
0.5863 0.5863 0.5863
0.2423 0.2423 0.2423
0.3875 0.3875 0.3875
0.5364 0.5364 0.5364
0.6235 0.6235 0.6235
0.7201 0.7201 0.7201
0.3335 0.3335 0.3335
0.4776 0.4776 0.4776
0.6482 0.6482 0.6482
0.7598 0.7598 0.7598
0.8147 0.8147 0.8147
0.5453 0.5453 0.5453
0.6356 0.6356 0.6356
0.7616 0.7616 0.7616
0.8466 0.8466 0.8466
0.8877 0.8877 0.8877
0.1022 0.1022 0.1022
0.1682 0.1682 0.1682
0.3230 0.3230 0.3230
0.4194 0.4194 0.4194
0.4918 0.4918 0.4918
0.2916 0.2916 0.2916
0.4076 0.4076 0.4076
0.4768 0.4768 0.4768
0.6601 0.6601 0.6601
0.7434 0.7434 0.7434
0.3533 0.3533 0.3533
0.5593 0.5593 0.5593
0.6800 0.6800 0.6800
0.7303 0.7303 0.7303
0.8104 0.8104 0.8104
0.4523 0.4523 0.4523
0.6383 0.6383 0.6383
0.7606 0.7606 0.7606
0.8230 0.8230 0.8230
0.8529 0.8529 0.8529
0.6137 0.6137 0.6137
0.7277 0.7277 0.7277
0.8218 0.8218 0.8218
0.8702 0.8702 0.8702
0.9063 0.9063 0.9063
