Data/LUTs/DELTA - Rec.709_32.cube
TITLE "DELTA - Rec.709_32"
LUT_3D_SIZE 32
0.0235 0.0235 0.0235
0.0235 0.0235 0.0235
0.0235 0.0235 0.0235
0.0238 0.0238 0.0238
0.0254 0.0254 0.0254
0.0273 0.0273 0.0273
0.0296 0.0296 0.0296
0.0327 0.0327 0.0327
0.0367 0.0367 0.0367
0.0412 0.0412 0.0412
0.0458 0.0458 0.0458
0.0502 0.0502 0.0502
0.0542 0.0542 0.0542
0.0580 0.0580 0.0580
0.0618 0.0618 0.0618
0.0659 0.0659 0.0659
0.0703 0.0703 0.0703
0.0754 0.0754 0.0754
0.0809 0.0809 0.0809
0.0869 0.0869 0.0869
0.0934 0.0934 0.0934
0.1002 0.1002 0.1002
0.1073 0.1073 0.1073
0.1148 0.1148 0.1148
0.1226 0.1226 0.1226
0.1306 0.1306 0.1306
0.1389 0.1389 0.1389
0.1477 0.1477 0.1477
0.1570 0.1570 0.1570
0.1671 0.1671 0.1671
0.1762 0.1762 0.1762
0.1804 0.1804 0.1804
0.0262 0.0262 0.0262
0.0286 0.0286 0.0286
0.0315 0.0315 0.0315
0.0336 0.0336 0.0336
0.0354 0.0354 0.0354
0.0375 0.0375 0.0375
0.0402 0.0402 0.0402
0.0435 0.0435 0.0435
0.0479 0.0479 0.0479
0.0529 0.0529 0.0529
0.0580 0.0580 0.0580
0.0629 0.0629 0.0629
0.0674 0.0674 0.0674
0.0716 0.0716 0.0716
0.0758 0.0758 0.0758
0.0804 0.0804 0.0804
0.0852 0.0852 0.0852
0.0907 0.0907 0.0907
0.0967 0.0967 0.0967
0.1030 0.1030 0.1030
0.1097 0.1097 0.1097
0.1168 0.1168 0.1168
0.1243 0.1243 0.1243
0.1322 0.1322 0.1322
0.1405 0.1405 0.1405
0.1491 0.1491 0.1491
0.1581 0.1581 0.1581
0.1676 0.1676 0.1676
0.1778 0.1778 0.1778
0.1884 0.1884 0.1884
0.1980 0.1980 0.1980
0.2021 0.2021 0.2021
0.0371 0.0371 0.0371
0.0397 0.0397 0.0397
0.0416 0.0416 0.0416
0.0444 0.0444 0.0444
0.0467 0.0467 0.0467
0.0490 0.0490 0.0490
0.0517 0.0517 0.0517
0.0550 0.0550 0.0550
0.0590 0.0590 0.0590
0.0638 0.0638 0.0638
0.0689 0.0689 0.0689
0.0740 0.0740 0.0740
0.0790 0.0790 0.0790
0.0837 0.0837 0.0837
0.0886 0.0886 0.0886
0.0935 0.0935 0.0935
0.0987 0.0987 0.0987
0.1045 0.1045 0.1045
0.1107 0.1107 0.1107
0.1176 0.1176 0.1176
0.1249 0.1249 0.1249
0.1328 0.1328 0.1328
0.1414 0.1414 0.1414
0.1506 0.1506 0.1506
0.1604 0.1604 0.1604
0.1706 0.1706 0.1706
0.1812 0.1812 0.1812
0.1923 0.1923 0.1923
0.2037 0.2037 0.2037
0.2153 0.2153 0.2153
0.2255 0.2255 0.2255
0.2298 0.2298 0.2298
0.0450 0.0450 0.0450
0.0479 0.0479 0.0479
0.0500 0.0500 0.0500
0.0512 0.0512 0.0512
0.0550 0.0550 0.0550
0.0582 0.0582 0.0582
0.0612 0.0612 0.0612
0.0643 0.0643 0.0643
0.0678 0.0678 0.0678
0.0718 0.0718 0.0718
0.0762 0.0762 0.0762
0.0810 0.0810 0.0810
0.0860 0.0860 0.0860
0.0912 0.0912 0.0912
0.0964 0.0964 0.0964
0.1019 0.1019 0.1019
0.1076 0.1076 0.1076
0.1136 0.1136 0.1136
0.1203 0.1203 0.1203
0.1274 0.1274 0.1274
0.1352 0.1352 0.1352
0.1438 0.1438 0.1438
0.1533 0.1533 0.1533
0.1637 0.1637 0.1637
0.1749 0.1749 0.1749
0.1868 0.1868 0.1868
0.1991 0.1991 0.1991
0.2119 0.2119 0.2119
0.2248 0.2248 0.2248
0.2374 0.2374 0.2374
0.2481 0.2481 0.2481
0.2526 0.2526 0.2526
0.0498 0.0498 0.0498
0.0531 0.0531 0.0531
0.0560 0.0560 0.0560
0.0581 0.0581 0.0581
0.0599 0.0599 0.0599
0.0645 0.0645 0.0645
0.0688 0.0688 0.0688
0.0725 0.0725 0.0725
0.0759 0.0759 0.0759
0.0797 0.0797 0.0797
0.0838 0.0838 0.0838
0.0884 0.0884 0.0884
0.0935 0.0935 0.0935
0.0989 0.0989 0.0989
0.1046 0.1046 0.1046
0.1107 0.1107 0.1107
0.1169 0.1169 0.1169
0.1234 0.1234 0.1234
0.1303 0.1303 0.1303
0.1377 0.1377 0.1377
0.1457 0.1457 0.1457
0.1546 0.1546 0.1546
0.1645 0.1645 0.1645
0.1754 0.1754 0.1754
0.1872 0.1872 0.1872
0.1999 0.1999 0.1999
0.2132 0.2132 0.2132
0.2269 0.2269 0.2269
0.2404 0.2404 0.2404
0.2540 0.2540 0.2540
0.2656 0.2656 0.2656
0.2704 0.2704 0.2704
0.0524 0.0524 0.0524
0.0563 0.0563 0.0563
0.0602 0.0602 0.0602
0.0634 0.0634 0.0634
0.0662 0.0662 0.0662
0.0686 0.0686 0.0686
0.0735 0.0735 0.0735
0.0783 0.0783 0.0783
0.0826 0.0826 0.0826
0.0869 0.0869 0.0869
0.0916 0.0916 0.0916
0.0965 0.0965 0.0965
0.1021 0.1021 0.1021
0.1080 0.1080 0.1080
0.1143 0.1143 0.1143
0.1209 0.1209 0.1209
0.1277 0.1277 0.1277
0.1350 0.1350 0.1350
0.1425 0.1425 0.1425
0.1504 0.1504 0.1504
0.1588 0.1588 0.1588
0.1680 0.1680 0.1680
0.1780 0.1780 0.1780
0.1889 0.1889 0.1889
0.2006 0.2006 0.2006
0.2132 0.2132 0.2132
0.2264 0.2264 0.2264
0.2396 0.2396 0.2396
0.2534 0.2534 0.2534
0.2673 0.2673 0.2673
0.2795 0.2795 0.2795
0.2845 0.2845 0.2845
0.0554 0.0554 0.0554
0.0598 0.0598 0.0598
0.0646 0.0646 0.0646
0.0686 0.0686 0.0686
0.0721 0.0721 0.0721
0.0749 0.0749 0.0749
0.0772 0.0772 0.0772
0.0823 0.0823 0.0823
0.0875 0.0875 0.0875
0.0928 0.0928 0.0928
0.0986 0.0986 0.0986
0.1049 0.1049 0.1049
0.1113 0.1113 0.1113
0.1180 0.1180 0.1180
0.1249 0.1249 0.1249
0.1321 0.1321 0.1321
0.1397 0.1397 0.1397
0.1478 0.1478 0.1478
0.1563 0.1563 0.1563
0.1653 0.1653 0.1653
0.1749 0.1749 0.1749
0.1849 0.1849 0.1849
0.1953 0.1953 0.1953
0.2063 0.2063 0.2063
0.2176 0.2176 0.2176
0.2295 0.2295 0.2295
0.2415 0.2415 0.2415
0.2540 0.2540 0.2540
0.2671 0.2671 0.2671
0.2808 0.2808 0.2808
0.2929 0.2929 0.2929
0.2980 0.2980 0.2980
0.0609 0.0609 0.0609
0.0655 0.0655 0.0655
0.0707 0.0707 0.0707
0.0751 0.0751 0.0751
0.0788 0.0788 0.0788
0.0818 0.0818 0.0818
0.0840 0.0840 0.0840
0.0867 0.0867 0.0867
0.0923 0.0923 0.0923
0.0984 0.0984 0.0984
0.1054 0.1054 0.1054
0.1126 0.1126 0.1126
0.1202 0.1202 0.1202
0.1277 0.1277 0.1277
0.1354 0.1354 0.1354
0.1433 0.1433 0.1433
0.1518 0.1518 0.1518
0.1608 0.1608 0.1608
0.1706 0.1706 0.1706
0.1811 0.1811 0.1811
0.1922 0.1922 0.1922
0.2036 0.2036 0.2036
0.2151 0.2151 0.2151
0.2265 0.2265 0.2265
0.2377 0.2377 0.2377
0.2490 0.2490 0.2490
0.2605 0.2605 0.2605
0.2725 0.2725 0.2725
0.2852 0.2852 0.2852
0.2984 0.2984 0.2984
0.3102 0.3102 0.3102
0.3154 0.3154 0.3154
0.0690 0.0690 0.0690
0.0738 0.0738 0.0738
0.0791 0.0791 0.0791
0.0835 0.0835 0.0835
0.0872 0.0872 0.0872
0.0902 0.0902 0.0902
0.0927 0.0927 0.0927
0.0953 0.0953 0.0953
0.0987 0.0987 0.0987
0.1052 0.1052 0.1052
0.1125 0.1125 0.1125
0.1205 0.1205 0.1205
0.1288 0.1288 0.1288
0.1372 0.1372 0.1372
0.1457 0.1457 0.1457
0.1545 0.1545 0.1545
0.1637 0.1637 0.1637
0.1738 0.1738 0.1738
0.1849 0.1849 0.1849
0.1967 0.1967 0.1967
0.2093 0.2093 0.2093
0.2221 0.2221 0.2221
0.2349 0.2349 0.2349
0.2472 0.2472 0.2472
0.2592 0.2592 0.2592
0.2710 0.2710 0.2710
0.2830 0.2830 0.2830
0.2954 0.2954 0.2954
0.3084 0.3084 0.3084
0.3220 0.3220 0.3220
0.3344 0.3344 0.3344
0.3398 0.3398 0.3398
0.0790 0.0790 0.0790
0.0839 0.0839 0.0839
0.0893 0.0893 0.0893
0.0935 0.0935 0.0935
0.0972 0.0972 0.0972
0.1003 0.1003 0.1003
0.1031 0.1031 0.1031
0.1061 0.1061 0.1061
0.1096 0.1096 0.1096
0.1138 0.1138 0.1138
0.1212 0.1212 0.1212
0.1293 0.1293 0.1293
0.1381 0.1381 0.1381
0.1471 0.1471 0.1471
0.1564 0.1564 0.1564
0.1661 0.1661 0.1661
0.1764 0.1764 0.1764
0.1874 0.1874 0.1874
0.1995 0.1995 0.1995
0.2123 0.2123 0.2123
0.2258 0.2258 0.2258
0.2394 0.2394 0.2394
0.2531 0.2531 0.2531
0.2669 0.2669 0.2669
0.2806 0.2806 0.2806
0.2942 0.2942 0.2942
0.3080 0.3080 0.3080
0.3221 0.3221 0.3221
0.3369 0.3369 0.3369
0.3521 0.3521 0.3521
0.3656 0.3656 0.3656
0.3716 0.3716 0.3716
0.0898 0.0898 0.0898
0.0948 0.0948 0.0948
0.1000 0.1000 0.1000
0.1044 0.1044 0.1044
0.1083 0.1083 0.1083
0.1119 0.1119 0.1119
0.1153 0.1153 0.1153
0.1186 0.1186 0.1186
0.1223 0.1223 0.1223
0.1268 0.1268 0.1268
0.1317 0.1317 0.1317
0.1398 0.1398 0.1398
0.1488 0.1488 0.1488
0.1583 0.1583 0.1583
0.1684 0.1684 0.1684
0.1789 0.1789 0.1789
0.1900 0.1900 0.1900
0.2021 0.2021 0.2021
0.2150 0.2150 0.2150
0.2283 0.2283 0.2283
0.2420 0.2420 0.2420
0.2560 0.2560 0.2560
0.2705 0.2705 0.2705
0.2857 0.2857 0.2857
0.3014 0.3014 0.3014
0.3177 0.3177 0.3177
0.3344 0.3344 0.3344
0.3515 0.3515 0.3515
0.3691 0.3691 0.3691
0.3865 0.3865 0.3865
0.4014 0.4014 0.4014
0.4078 0.4078 0.4078
0.1009 0.1009 0.1009
0.1059 0.1059 0.1059
0.1111 0.1111 0.1111
0.1157 0.1157 0.1157
0.1201 0.1201 0.1201
0.1244 0.1244 0.1244
0.1286 0.1286 0.1286
0.1326 0.1326 0.1326
0.1366 0.1366 0.1366
0.1412 0.1412 0.1412
0.1465 0.1465 0.1465
0.1523 0.1523 0.1523
0.1614 0.1614 0.1614
0.1715 0.1715 0.1715
0.1822 0.1822 0.1822
0.1934 0.1934 0.1934
0.2052 0.2052 0.2052
0.2178 0.2178 0.2178
0.2309 0.2309 0.2309
0.2444 0.2444 0.2444
0.2583 0.2583 0.2583
0.2728 0.2728 0.2728
0.2881 0.2881 0.2881
0.3045 0.3045 0.3045
0.3222 0.3222 0.3222
0.3412 0.3412 0.3412
0.3613 0.3613 0.3613
0.3818 0.3818 0.3818
0.4023 0.4023 0.4023
0.4218 0.4218 0.4218
0.4379 0.4379 0.4379
0.4446 0.4446 0.4446
0.1125 0.1125 0.1125
0.1173 0.1173 0.1173
0.1226 0.1226 0.1226
0.1274 0.1274 0.1274
0.1323 0.1323 0.1323
0.1376 0.1376 0.1376
0.1429 0.1429 0.1429
0.1478 0.1478 0.1478
0.1525 0.1525 0.1525
0.1573 0.1573 0.1573
0.1626 0.1626 0.1626
0.1688 0.1688 0.1688
0.1759 0.1759 0.1759
0.1864 0.1864 0.1864
0.1976 0.1976 0.1976
0.2094 0.2094 0.2094
0.2216 0.2216 0.2216
0.2341 0.2341 0.2341
0.2472 0.2472 0.2472
0.2607 0.2607 0.2607
0.2751 0.2751 0.2751
0.2903 0.2903 0.2903
0.3066 0.3066 0.3066
0.3241 0.3241 0.3241
0.3436 0.3436 0.3436
0.3650 0.3650 0.3650
0.3879 0.3879 0.3879
0.4113 0.4113 0.4113
0.4343 0.4343 0.4343
0.4557 0.4557 0.4557
0.4729 0.4729 0.4729
0.4800 0.4800 0.4800
0.1245 0.1245 0.1245
0.1289 0.1289 0.1289
0.1344 0.1344 0.1344
0.1394 0.1394 0.1394
0.1449 0.1449 0.1449
0.1513 0.1513 0.1513
0.1579 0.1579 0.1579
0.1642 0.1642 0.1642
0.1698 0.1698 0.1698
0.1751 0.1751 0.1751
0.1807 0.1807 0.1807
0.1870 0.1870 0.1870
0.1943 0.1943 0.1943
0.2025 0.2025 0.2025
0.2143 0.2143 0.2143
0.2264 0.2264 0.2264
0.2386 0.2386 0.2386
0.2510 0.2510 0.2510
0.2640 0.2640 0.2640
0.2777 0.2777 0.2777
0.2925 0.2925 0.2925
0.3087 0.3087 0.3087
0.3263 0.3263 0.3263
0.3454 0.3454 0.3454
0.3664 0.3664 0.3664
0.3894 0.3894 0.3894
0.4141 0.4141 0.4141
0.4396 0.4396 0.4396
0.4646 0.4646 0.4646
0.4880 0.4880 0.4880
0.5065 0.5065 0.5065
0.5141 0.5141 0.5141
0.1370 0.1370 0.1370
0.1413 0.1413 0.1413
0.1469 0.1469 0.1469
0.1522 0.1522 0.1522
0.1581 0.1581 0.1581
0.1653 0.1653 0.1653
0.1735 0.1735 0.1735
0.1815 0.1815 0.1815
0.1884 0.1884 0.1884
0.1944 0.1944 0.1944
0.2002 0.2002 0.2002
0.2067 0.2067 0.2067
0.2140 0.2140 0.2140
0.2222 0.2222 0.2222
0.2312 0.2312 0.2312
0.2436 0.2436 0.2436
0.2560 0.2560 0.2560
0.2687 0.2687 0.2687
0.2818 0.2818 0.2818
0.2958 0.2958 0.2958
0.3111 0.3111 0.3111
0.3283 0.3283 0.3283
0.3473 0.3473 0.3473
0.3680 0.3680 0.3680
0.3904 0.3904 0.3904
0.4145 0.4145 0.4145
0.4400 0.4400 0.4400
0.4665 0.4665 0.4665
0.4932 0.4932 0.4932
0.5186 0.5186 0.5186
0.5389 0.5389 0.5389
0.5468 0.5468 0.5468
0.1502 0.1502 0.1502
0.1545 0.1545 0.1545
0.1603 0.1603 0.1603
0.1657 0.1657 0.1657
0.1721 0.1721 0.1721
0.1798 0.1798 0.1798
0.1893 0.1893 0.1893
0.1989 0.1989 0.1989
0.2073 0.2073 0.2073
0.2145 0.2145 0.2145
0.2208 0.2208 0.2208
0.2273 0.2273 0.2273
0.2344 0.2344 0.2344
0.2423 0.2423 0.2423
0.2511 0.2511 0.2511
0.2607 0.2607 0.2607
0.2739 0.2739 0.2739
0.2873 0.2873 0.2873
0.3011 0.3011 0.3011
0.3157 0.3157 0.3157
0.3318 0.3318 0.3318
0.3497 0.3497 0.3497
0.3697 0.3697 0.3697
0.3918 0.3918 0.3918
0.4151 0.4151 0.4151
0.4397 0.4397 0.4397
0.4656 0.4656 0.4656
0.4927 0.4927 0.4927
0.5203 0.5203 0.5203
0.5474 0.5474 0.5474
0.5691 0.5691 0.5691
0.5775 0.5775 0.5775
0.1644 0.1644 0.1644
0.1686 0.1686 0.1686
0.1746 0.1746 0.1746
0.1803 0.1803 0.1803
0.1868 0.1868 0.1868
0.1949 0.1949 0.1949
0.2050 0.2050 0.2050
0.2160 0.2160 0.2160
0.2261 0.2261 0.2261
0.2344 0.2344 0.2344
0.2414 0.2414 0.2414
0.2481 0.2481 0.2481
0.2551 0.2551 0.2551
0.2630 0.2630 0.2630
0.2718 0.2718 0.2718
0.2815 0.2815 0.2815
0.2922 0.2922 0.2922
0.3070 0.3070 0.3070
0.3223 0.3223 0.3223
0.3381 0.3381 0.3381
0.3550 0.3550 0.3550
0.3737 0.3737 0.3737
0.3940 0.3940 0.3940
0.4163 0.4163 0.4163
0.4399 0.4399 0.4399
0.4648 0.4648 0.4648
0.4908 0.4908 0.4908
0.5180 0.5180 0.5180
0.5461 0.5461 0.5461
0.5740 0.5740 0.5740
0.5963 0.5963 0.5963
0.6050 0.6050 0.6050
0.1797 0.1797 0.1797
0.1839 0.1839 0.1839
0.1901 0.1901 0.1901
0.1959 0.1959 0.1959
0.2025 0.2025 0.2025
0.2106 0.2106 0.2106
0.2209 0.2209 0.2209
0.2327 0.2327 0.2327
0.2441 0.2441 0.2441
0.2539 0.2539 0.2539
0.2621 0.2621 0.2621
0.2695 0.2695 0.2695
0.2769 0.2769 0.2769
0.2849 0.2849 0.2849
0.2939 0.2939 0.2939
0.3039 0.3039 0.3039
0.3154 0.3154 0.3154
0.3280 0.3280 0.3280
0.3451 0.3451 0.3451
0.3632 0.3632 0.3632
0.3813 0.3813 0.3813
0.4003 0.4003 0.4003
0.4204 0.4204 0.4204
0.4421 0.4421 0.4421
0.4652 0.4652 0.4652
0.4898 0.4898 0.4898
0.5156 0.5156 0.5156
0.5428 0.5428 0.5428
0.5707 0.5707 0.5707
0.5984 0.5984 0.5984
0.6206 0.6206 0.6206
0.6291 0.6291 0.6291
0.1959 0.1959 0.1959
0.2002 0.2002 0.2002
0.2066 0.2066 0.2066
0.2125 0.2125 0.2125
0.2190 0.2190 0.2190
0.2268 0.2268 0.2268
0.2367 0.2367 0.2367
0.2486 0.2486 0.2486
0.2614 0.2614 0.2614
0.2733 0.2733 0.2733
0.2834 0.2834 0.2834
0.2919 0.2919 0.2919
0.3001 0.3001 0.3001
0.3086 0.3086 0.3086
0.3182 0.3182 0.3182
0.3287 0.3287 0.3287
0.3411 0.3411 0.3411
0.3548 0.3548 0.3548
0.3700 0.3700 0.3700
0.3897 0.3897 0.3897
0.4097 0.4097 0.4097
0.4291 0.4291 0.4291
0.4489 0.4489 0.4489
0.4696 0.4696 0.4696
0.4917 0.4917 0.4917
0.5153 0.5153 0.5153
0.5406 0.5406 0.5406
0.5674 0.5674 0.5674
0.5948 0.5948 0.5948
0.6215 0.6215 0.6215
0.6431 0.6431 0.6431
0.6514 0.6514 0.6514
0.2130 0.2130 0.2130
0.2171 0.2171 0.2171
0.2238 0.2238 0.2238
0.2296 0.2296 0.2296
0.2359 0.2359 0.2359
0.2432 0.2432 0.2432
0.2526 0.2526 0.2526
0.2647 0.2647 0.2647
0.2788 0.2788 0.2788
0.2929 0.2929 0.2929
0.3054 0.3054 0.3054
0.3159 0.3159 0.3159
0.3253 0.3253 0.3253
0.3350 0.3350 0.3350
0.3453 0.3453 0.3453
0.3568 0.3568 0.3568
0.3698 0.3698 0.3698
0.3845 0.3845 0.3845
0.4005 0.4005 0.4005
0.4175 0.4175 0.4175
0.4384 0.4384 0.4384
0.4592 0.4592 0.4592
0.4790 0.4790 0.4790
0.4990 0.4990 0.4990
0.5197 0.5197 0.5197
0.5420 0.5420 0.5420
0.5664 0.5664 0.5664
0.5922 0.5922 0.5922
0.6185 0.6185 0.6185
0.6443 0.6443 0.6443
0.6650 0.6650 0.6650
0.6733 0.6733 0.6733
0.2306 0.2306 0.2306
0.2344 0.2344 0.2344
0.2410 0.2410 0.2410
0.2469 0.2469 0.2469
0.2531 0.2531 0.2531
0.2601 0.2601 0.2601
0.2693 0.2693 0.2693
0.2813 0.2813 0.2813
0.2965 0.2965 0.2965
0.3130 0.3130 0.3130
0.3286 0.3286 0.3286
0.3419 0.3419 0.3419
0.3533 0.3533 0.3533
0.3642 0.3642 0.3642
0.3756 0.3756 0.3756
0.3879 0.3879 0.3879
0.4015 0.4015 0.4015
0.4164 0.4164 0.4164
0.4327 0.4327 0.4327
0.4500 0.4500 0.4500
0.4678 0.4678 0.4678
0.4891 0.4891 0.4891
0.5098 0.5098 0.5098
0.5297 0.5297 0.5297
0.5497 0.5497 0.5497
0.5708 0.5708 0.5708
0.5936 0.5936 0.5936
0.6177 0.6177 0.6177
0.6427 0.6427 0.6427
0.6674 0.6674 0.6674
0.6876 0.6876 0.6876
0.6956 0.6956 0.6956
0.2481 0.2481 0.2481
0.2519 0.2519 0.2519
0.2586 0.2586 0.2586
0.2647 0.2647 0.2647
0.2711 0.2711 0.2711
0.2781 0.2781 0.2781
0.2871 0.2871 0.2871
0.2991 0.2991 0.2991
0.3151 0.3151 0.3151
0.3342 0.3342 0.3342
0.3533 0.3533 0.3533
0.3699 0.3699 0.3699
0.3837 0.3837 0.3837
0.3962 0.3962 0.3962
0.4085 0.4085 0.4085
0.4213 0.4213 0.4213
0.4350 0.4350 0.4350
0.4499 0.4499 0.4499
0.4660 0.4660 0.4660
0.4833 0.4833 0.4833
0.5012 0.5012 0.5012
0.5194 0.5194 0.5194
0.5406 0.5406 0.5406
0.5613 0.5613 0.5613
0.5810 0.5810 0.5810
0.6011 0.6011 0.6011
0.6220 0.6220 0.6220
0.6442 0.6442 0.6442
0.6674 0.6674 0.6674
0.6910 0.6910 0.6910
0.7100 0.7100 0.7100
0.7174 0.7174 0.7174
0.2662 0.2662 0.2662
0.2699 0.2699 0.2699
0.2769 0.2769 0.2769
0.2833 0.2833 0.2833
0.2900 0.2900 0.2900
0.2974 0.2974 0.2974
0.3064 0.3064 0.3064
0.3185 0.3185 0.3185
0.3353 0.3353 0.3353
0.3565 0.3565 0.3565
0.3789 0.3789 0.3789
0.3991 0.3991 0.3991
0.4155 0.4155 0.4155
0.4294 0.4294 0.4294
0.4425 0.4425 0.4425
0.4557 0.4557 0.4557
0.4694 0.4694 0.4694
0.4841 0.4841 0.4841
0.5000 0.5000 0.5000
0.5170 0.5170 0.5170
0.5348 0.5348 0.5348
0.5528 0.5528 0.5528
0.5713 0.5713 0.5713
0.5925 0.5925 0.5925
0.6128 0.6128 0.6128
0.6321 0.6321 0.6321
0.6512 0.6512 0.6512
0.6715 0.6715 0.6715
0.6930 0.6930 0.6930
0.7142 0.7142 0.7142
0.7311 0.7311 0.7311
0.7378 0.7378 0.7378
0.2850 0.2850 0.2850
0.2888 0.2888 0.2888
0.2961 0.2961 0.2961
0.3032 0.3032 0.3032
0.3104 0.3104 0.3104
0.3184 0.3184 0.3184
0.3278 0.3278 0.3278
0.3403 0.3403 0.3403
0.3574 0.3574 0.3574
0.3799 0.3799 0.3799
0.4050 0.4050 0.4050
0.4285 0.4285 0.4285
0.4476 0.4476 0.4476
0.4631 0.4631 0.4631
0.4771 0.4771 0.4771
0.4905 0.4905 0.4905
0.5044 0.5044 0.5044
0.5189 0.5189 0.5189
0.5342 0.5342 0.5342
0.5508 0.5508 0.5508
0.5683 0.5683 0.5683
0.5868 0.5868 0.5868
0.6052 0.6052 0.6052
0.6229 0.6229 0.6229
0.6432 0.6432 0.6432
0.6625 0.6625 0.6625
0.6812 0.6812 0.6812
0.6998 0.6998 0.6998
0.7184 0.7184 0.7184
0.7364 0.7364 0.7364
0.7510 0.7510 0.7510
0.7569 0.7569 0.7569
0.3048 0.3048 0.3048
0.3087 0.3087 0.3087
0.3168 0.3168 0.3168
0.3245 0.3245 0.3245
0.3327 0.3327 0.3327
0.3416 0.3416 0.3416
0.3518 0.3518 0.3518
0.3646 0.3646 0.3646
0.3817 0.3817 0.3817
0.4044 0.4044 0.4044
0.4309 0.4309 0.4309
0.4570 0.4570 0.4570
0.4790 0.4790 0.4790
0.4966 0.4966 0.4966
0.5115 0.5115 0.5115
0.5254 0.5254 0.5254
0.5393 0.5393 0.5393
0.5535 0.5535 0.5535
0.5685 0.5685 0.5685
0.5842 0.5842 0.5842
0.6014 0.6014 0.6014
0.6198 0.6198 0.6198
0.6381 0.6381 0.6381
0.6556 0.6556 0.6556
0.6723 0.6723 0.6723
0.6918 0.6918 0.6918
0.7102 0.7102 0.7102
0.7268 0.7268 0.7268
0.7427 0.7427 0.7427
0.7575 0.7575 0.7575
0.7697 0.7697 0.7697
0.7746 0.7746 0.7746
0.3261 0.3261 0.3261
0.3303 0.3303 0.3303
0.3393 0.3393 0.3393
0.3482 0.3482 0.3482
0.3573 0.3573 0.3573
0.3674 0.3674 0.3674
0.3784 0.3784 0.3784
0.3912 0.3912 0.3912
0.4079 0.4079 0.4079
0.4299 0.4299 0.4299
0.4568 0.4568 0.4568
0.4847 0.4847 0.4847
0.5094 0.5094 0.5094
0.5294 0.5294 0.5294
0.5457 0.5457 0.5457
0.5599 0.5599 0.5599
0.5739 0.5739 0.5739
0.5878 0.5878 0.5878
0.6020 0.6020 0.6020
0.6174 0.6174 0.6174
0.6341 0.6341 0.6341
0.6518 0.6518 0.6518
0.6697 0.6697 0.6697
0.6874 0.6874 0.6874
0.7039 0.7039 0.7039
0.7191 0.7191 0.7191
0.7360 0.7360 0.7360
0.7517 0.7517 0.7517
0.7653 0.7653 0.7653
0.7776 0.7776 0.7776
0.7875 0.7875 0.7875
0.7917 0.7917 0.7917
0.3496 0.3496 0.3496
0.3541 0.3541 0.3541
0.3644 0.3644 0.3644
0.3742 0.3742 0.3742
0.3846 0.3846 0.3846
0.3955 0.3955 0.3955
0.4072 0.4072 0.4072
0.4201 0.4201 0.4201
0.4359 0.4359 0.4359
0.4567 0.4567 0.4567
0.4829 0.4829 0.4829
0.5120 0.5120 0.5120
0.5392 0.5392 0.5392
0.5615 0.5615 0.5615
0.5793 0.5793 0.5793
0.5942 0.5942 0.5942
0.6080 0.6080 0.6080
0.6216 0.6216 0.6216
0.6357 0.6357 0.6357
0.6505 0.6505 0.6505
0.6663 0.6663 0.6663
0.6832 0.6832 0.6832
0.7006 0.7006 0.7006
0.7174 0.7174 0.7174
0.7330 0.7330 0.7330
0.7470 0.7470 0.7470
0.7597 0.7597 0.7597
0.7735 0.7735 0.7735
0.7862 0.7862 0.7862
0.7967 0.7967 0.7967
0.8051 0.8051 0.8051
0.8088 0.8088 0.8088
0.3757 0.3757 0.3757
0.3807 0.3807 0.3807
0.3918 0.3918 0.3918
0.4027 0.4027 0.4027
0.4138 0.4138 0.4138
0.4256 0.4256 0.4256
0.4378 0.4378 0.4378
0.4507 0.4507 0.4507
0.4655 0.4655 0.4655
0.4847 0.4847 0.4847
0.5099 0.5099 0.5099
0.5391 0.5391 0.5391
0.5682 0.5682 0.5682
0.5929 0.5929 0.5929
0.6123 0.6123 0.6123
0.6279 0.6279 0.6279
0.6422 0.6422 0.6422
0.6559 0.6559 0.6559
0.6695 0.6695 0.6695
0.6835 0.6835 0.6835
0.6983 0.6983 0.6983
0.7136 0.7136 0.7136
0.7293 0.7293 0.7293
0.7448 0.7448 0.7448
0.7591 0.7591 0.7591
0.7719 0.7719 0.7719
0.7832 0.7832 0.7832
0.7932 0.7932 0.7932
0.8047 0.8047 0.8047
0.8150 0.8150 0.8150
0.8224 0.8224 0.8224
0.8255 0.8255 0.8255
0.4043 0.4043 0.4043
0.4094 0.4094 0.4094
0.4213 0.4213 0.4213
0.4330 0.4330 0.4330
