Data/LUTs/DK79_Rec.709_32.cube
TITLE "DK79_Rec.709_32"
LUT_3D_SIZE 32
0.0549 0.0678 0.0887
0.0730 0.0752 0.0846
0.1203 0.0869 0.0810
0.1753 0.0977 0.0795
0.2323 0.1090 0.0795
0.2806 0.1200 0.0795
0.3225 0.1311 0.0795
0.3613 0.1425 0.0795
0.3910 0.1519 0.0795
0.4189 0.1615 0.0795
0.4429 0.1703 0.0795
0.4625 0.1779 0.0795
0.4805 0.1849 0.0795
0.4969 0.1916 0.0795
0.5107 0.1975 0.0795
0.5253 0.2040 0.0795
0.5400 0.2106 0.0795
0.5540 0.2171 0.0795
0.5666 0.2229 0.0795
0.5774 0.2281 0.0795
0.5882 0.2333 0.0795
0.5991 0.2389 0.0795
0.6094 0.2444 0.0795
0.6215 0.2508 0.0795
0.6317 0.2563 0.0795
0.6430 0.2625 0.0795
0.6556 0.2703 0.0795
0.6681 0.2783 0.0795
0.6777 0.2843 0.0795
0.6881 0.2920 0.0795
0.6998 0.3005 0.0795
0.7134 0.3130 0.0795
0.0549 0.0761 0.0988
0.0637 0.0787 0.0934
0.0983 0.0834 0.0835
0.1412 0.0924 0.0808
0.1919 0.1023 0.0795
0.2406 0.1125 0.0795
0.2885 0.1241 0.0795
0.3308 0.1359 0.0795
0.3656 0.1467 0.0795
0.3973 0.1573 0.0795
0.4264 0.1676 0.0795
0.4506 0.1767 0.0795
0.4729 0.1855 0.0795
0.4950 0.1945 0.0795
0.5126 0.2020 0.0795
0.5287 0.2093 0.0795
0.5479 0.2178 0.0795
0.5642 0.2253 0.0795
0.5791 0.2324 0.0795
0.5922 0.2386 0.0795
0.6046 0.2447 0.0795
0.6168 0.2511 0.0795
0.6286 0.2571 0.0795
0.6409 0.2635 0.0795
0.6518 0.2693 0.0795
0.6631 0.2760 0.0795
0.6763 0.2835 0.0795
0.6893 0.2911 0.0795
0.6987 0.2973 0.0795
0.7075 0.3029 0.0795
0.7180 0.3108 0.0795
0.7289 0.3212 0.0795
0.0549 0.0896 0.1147
0.0556 0.0930 0.1163
0.0814 0.0982 0.1040
0.1164 0.0978 0.0907
0.1628 0.1029 0.0840
0.2108 0.1105 0.0801
0.2605 0.1204 0.0795
0.3068 0.1321 0.0795
0.3437 0.1426 0.0795
0.3792 0.1538 0.0795
0.4123 0.1653 0.0795
0.4403 0.1757 0.0795
0.4659 0.1856 0.0795
0.4903 0.1957 0.0795
0.5114 0.2046 0.0795
0.5296 0.2126 0.0795
0.5517 0.2226 0.0795
0.5711 0.2314 0.0795
0.5901 0.2405 0.0795
0.6048 0.2476 0.0795
0.6188 0.2546 0.0795
0.6318 0.2612 0.0795
0.6447 0.2678 0.0795
0.6575 0.2745 0.0795
0.6683 0.2805 0.0795
0.6796 0.2868 0.0795
0.6925 0.2942 0.0795
0.7049 0.3016 0.0795
0.7151 0.3080 0.0795
0.7241 0.3138 0.0795
0.7332 0.3210 0.0795
0.7433 0.3293 0.0795
0.0549 0.1033 0.1292
0.0550 0.1052 0.1310
0.0742 0.1132 0.1227
0.1006 0.1163 0.1114
0.1420 0.1155 0.0975
0.1901 0.1174 0.0879
0.2416 0.1246 0.0826
0.2918 0.1335 0.0796
0.3312 0.1431 0.0795
0.3687 0.1537 0.0795
0.4040 0.1655 0.0795
0.4333 0.1760 0.0795
0.4613 0.1867 0.0795
0.4875 0.1973 0.0795
0.5100 0.2066 0.0795
0.5319 0.2161 0.0795
0.5549 0.2265 0.0795
0.5763 0.2363 0.0795
0.5962 0.2459 0.0795
0.6136 0.2544 0.0795
0.6288 0.2619 0.0795
0.6434 0.2693 0.0795
0.6562 0.2761 0.0795
0.6691 0.2826 0.0795
0.6800 0.2888 0.0795
0.6915 0.2952 0.0795
0.7041 0.3024 0.0795
0.7159 0.3097 0.0795
0.7273 0.3167 0.0795
0.7361 0.3227 0.0795
0.7447 0.3285 0.0795
0.7538 0.3360 0.0795
0.0560 0.1188 0.1438
0.0562 0.1200 0.1449
0.0656 0.1272 0.1433
0.0918 0.1355 0.1324
0.1250 0.1380 0.1203
0.1699 0.1368 0.1056
0.2230 0.1374 0.0936
0.2769 0.1424 0.0856
0.3185 0.1500 0.0816
0.3595 0.1592 0.0796
0.3969 0.1692 0.0795
0.4286 0.1795 0.0795
0.4587 0.1901 0.0795
0.4861 0.2006 0.0795
0.5104 0.2105 0.0795
0.5330 0.2200 0.0795
0.5585 0.2314 0.0795
0.5824 0.2423 0.0795
0.6027 0.2520 0.0795
0.6213 0.2610 0.0795
0.6372 0.2688 0.0795
0.6527 0.2766 0.0795
0.6663 0.2837 0.0795
0.6797 0.2908 0.0795
0.6911 0.2969 0.0795
0.7025 0.3034 0.0795
0.7147 0.3106 0.0795
0.7260 0.3176 0.0795
0.7374 0.3247 0.0795
0.7469 0.3308 0.0795
0.7554 0.3366 0.0795
0.7646 0.3434 0.0795
0.0582 0.1352 0.1581
0.0583 0.1351 0.1580
0.0612 0.1414 0.1611
0.0815 0.1504 0.1521
0.1172 0.1616 0.1427
0.1551 0.1630 0.1299
0.2079 0.1624 0.1137
0.2628 0.1628 0.1003
0.3081 0.1657 0.0916
0.3507 0.1714 0.0855
0.3903 0.1795 0.0813
0.4237 0.1887 0.0796
0.4553 0.1974 0.0795
0.4859 0.2072 0.0795
0.5105 0.2164 0.0795
0.5346 0.2260 0.0795
0.5619 0.2376 0.0795
0.5865 0.2485 0.0795
0.6094 0.2590 0.0795
0.6289 0.2684 0.0795
0.6472 0.2773 0.0795
0.6625 0.2848 0.0795
0.6763 0.2918 0.0795
0.6900 0.2991 0.0795
0.7014 0.3052 0.0795
0.7129 0.3117 0.0795
0.7246 0.3187 0.0795
0.7353 0.3257 0.0795
0.7468 0.3328 0.0795
0.7565 0.3391 0.0795
0.7644 0.3449 0.0795
0.7734 0.3521 0.0795
0.0610 0.1540 0.1733
0.0607 0.1520 0.1718
0.0620 0.1579 0.1760
0.0749 0.1667 0.1719
0.1025 0.1792 0.1648
0.1486 0.1915 0.1552
0.1941 0.1927 0.1404
0.2509 0.1913 0.1223
0.2956 0.1921 0.1103
0.3416 0.1940 0.0994
0.3836 0.1974 0.0912
0.4187 0.2034 0.0861
0.4528 0.2110 0.0820
0.4845 0.2195 0.0797
0.5110 0.2281 0.0795
0.5371 0.2369 0.0795
0.5647 0.2466 0.0795
0.5910 0.2573 0.0795
0.6145 0.2672 0.0795
0.6356 0.2770 0.0795
0.6552 0.2860 0.0795
0.6721 0.2945 0.0795
0.6863 0.3013 0.0795
0.7003 0.3085 0.0795
0.7118 0.3144 0.0795
0.7233 0.3210 0.0795
0.7344 0.3279 0.0795
0.7453 0.3348 0.0795
0.7566 0.3420 0.0795
0.7663 0.3488 0.0795
0.7743 0.3547 0.0795
0.7831 0.3619 0.0795
0.0646 0.1759 0.1900
0.0641 0.1728 0.1877
0.0648 0.1769 0.1907
0.0724 0.1863 0.1919
0.0927 0.1987 0.1876
0.1317 0.2119 0.1794
0.1893 0.2256 0.1688
0.2379 0.2242 0.1511
0.2865 0.2233 0.1347
0.3316 0.2232 0.1205
0.3758 0.2249 0.1086
0.4131 0.2277 0.0998
0.4481 0.2318 0.0928
0.4823 0.2376 0.0872
0.5100 0.2441 0.0835
0.5379 0.2516 0.0805
0.5680 0.2611 0.0795
0.5958 0.2710 0.0795
0.6222 0.2816 0.0795
0.6432 0.2898 0.0795
0.6627 0.2979 0.0795
0.6804 0.3059 0.0795
0.6958 0.3130 0.0795
0.7104 0.3205 0.0795
0.7221 0.3264 0.0795
0.7334 0.3325 0.0795
0.7440 0.3386 0.0795
0.7544 0.3453 0.0795
0.7645 0.3524 0.0795
0.7750 0.3597 0.0795
0.7833 0.3656 0.0795
0.7932 0.3725 0.0795
0.0686 0.1973 0.2054
0.0677 0.1928 0.2022
0.0684 0.1959 0.2044
0.0726 0.2042 0.2080
0.0887 0.2162 0.2059
0.1208 0.2294 0.1996
0.1755 0.2438 0.1894
0.2318 0.2517 0.1758
0.2778 0.2524 0.1604
0.3267 0.2516 0.1429
0.3698 0.2516 0.1284
0.4077 0.2533 0.1172
0.4443 0.2559 0.1074
0.4790 0.2589 0.0989
0.5088 0.2632 0.0929
0.5377 0.2684 0.0878
0.5690 0.2759 0.0834
0.5984 0.2850 0.0805
0.6257 0.2947 0.0795
0.6487 0.3031 0.0795
0.6689 0.3109 0.0795
0.6884 0.3192 0.0795
0.7039 0.3263 0.0795
0.7184 0.3337 0.0795
0.7306 0.3395 0.0795
0.7414 0.3440 0.0795
0.7522 0.3500 0.0795
0.7627 0.3565 0.0795
0.7719 0.3634 0.0795
0.7830 0.3705 0.0795
0.7902 0.3759 0.0795
0.8006 0.3831 0.0795
0.0731 0.2193 0.2211
0.0722 0.2147 0.2178
0.0728 0.2174 0.2197
0.0749 0.2235 0.2232
0.0868 0.2355 0.2245
0.1141 0.2490 0.2205
0.1609 0.2632 0.2125
0.2285 0.2778 0.2001
0.2732 0.2816 0.1872
0.3192 0.2820 0.1705
0.3652 0.2814 0.1530
0.4030 0.2809 0.1388
0.4399 0.2834 0.1275
0.4760 0.2853 0.1163
0.5068 0.2883 0.1080
0.5358 0.2920 0.1010
0.5695 0.2972 0.0938
0.5993 0.3040 0.0887
0.6274 0.3118 0.0847
0.6518 0.3188 0.0816
0.6743 0.3264 0.0799
0.6946 0.3338 0.0795
0.7107 0.3403 0.0795
0.7265 0.3467 0.0795
0.7385 0.3519 0.0795
0.7494 0.3568 0.0795
0.7605 0.3626 0.0795
0.7703 0.3687 0.0795
0.7798 0.3750 0.0795
0.7905 0.3817 0.0795
0.7980 0.3879 0.0795
0.8083 0.3950 0.0795
0.0780 0.2419 0.2371
0.0772 0.2379 0.2340
0.0779 0.2384 0.2340
0.0803 0.2446 0.2377
0.0874 0.2543 0.2410
0.1088 0.2679 0.2404
0.1529 0.2828 0.2338
0.2153 0.2979 0.2237
0.2746 0.3106 0.2135
0.3168 0.3129 0.1994
0.3607 0.3129 0.1822
0.4007 0.3118 0.1653
0.4371 0.3118 0.1509
0.4730 0.3133 0.1381
0.5054 0.3157 0.1277
0.5341 0.3182 0.1187
0.5687 0.3219 0.1088
0.6002 0.3272 0.1013
0.6293 0.3342 0.0958
0.6555 0.3402 0.0909
0.6784 0.3459 0.0869
0.6989 0.3518 0.0839
0.7166 0.3572 0.0814
0.7331 0.3625 0.0800
0.7456 0.3675 0.0797
0.7573 0.3723 0.0795
0.7677 0.3772 0.0795
0.7768 0.3825 0.0795
0.7855 0.3880 0.0795
0.7961 0.3955 0.0795
0.8045 0.4008 0.0795
0.8153 0.4081 0.0797
0.0834 0.2626 0.2515
0.0826 0.2582 0.2480
0.0828 0.2568 0.2466
0.0855 0.2634 0.2506
0.0905 0.2721 0.2550
0.1069 0.2853 0.2574
0.1455 0.3004 0.2534
0.2050 0.3166 0.2453
0.2664 0.3292 0.2344
0.3234 0.3428 0.2254
0.3595 0.3401 0.2083
0.3977 0.3398 0.1922
0.4357 0.3400 0.1764
0.4714 0.3400 0.1613
0.5037 0.3414 0.1491
0.5339 0.3442 0.1388
0.5689 0.3473 0.1269
0.6020 0.3503 0.1161
0.6313 0.3564 0.1091
0.6588 0.3623 0.1028
0.6815 0.3665 0.0973
0.7031 0.3710 0.0926
0.7217 0.3756 0.0891
0.7389 0.3804 0.0863
0.7519 0.3843 0.0844
0.7636 0.3890 0.0834
0.7738 0.3932 0.0826
0.7826 0.3974 0.0821
0.7909 0.4026 0.0823
0.8005 0.4090 0.0828
0.8095 0.4138 0.0827
0.8207 0.4208 0.0831
0.0895 0.2831 0.2658
0.0885 0.2783 0.2620
0.0889 0.2777 0.2612
0.0909 0.2820 0.2639
0.0962 0.2915 0.2691
0.1079 0.3025 0.2728
0.1403 0.3181 0.2721
0.1964 0.3349 0.2660
0.2577 0.3481 0.2561
0.3169 0.3614 0.2464
0.3631 0.3682 0.2344
0.3977 0.3682 0.2199
0.4342 0.3687 0.2046
0.4708 0.3696 0.1892
0.5026 0.3688 0.1742
0.5333 0.3704 0.1618
0.5688 0.3731 0.1482
0.6026 0.3758 0.1356
0.6334 0.3803 0.1259
0.6605 0.3858 0.1186
0.6848 0.3898 0.1114
0.7068 0.3929 0.1047
0.7266 0.3964 0.0995
0.7437 0.3999 0.0955
0.7571 0.4037 0.0932
0.7683 0.4076 0.0917
0.7793 0.4107 0.0899
0.7880 0.4144 0.0892
0.7961 0.4187 0.0891
0.8058 0.4248 0.0895
0.8145 0.4284 0.0888
0.8257 0.4346 0.0890
0.0965 0.3041 0.2806
0.0954 0.2992 0.2768
0.0962 0.2995 0.2765
0.0975 0.3022 0.2782
0.1022 0.3113 0.2839
0.1117 0.3222 0.2891
0.1379 0.3358 0.2898
0.1871 0.3527 0.2864
0.2470 0.3674 0.2788
0.3102 0.3808 0.2683
0.3645 0.3939 0.2597
0.3995 0.3960 0.2472
0.4345 0.3977 0.2337
0.4703 0.3991 0.2188
0.5037 0.3987 0.2029
0.5341 0.3983 0.1881
0.5695 0.3995 0.1722
0.6035 0.4022 0.1585
0.6344 0.4065 0.1476
0.6621 0.4102 0.1377
0.6872 0.4139 0.1291
0.7107 0.4165 0.1205
0.7308 0.4193 0.1138
0.7485 0.4225 0.1087
0.7626 0.4260 0.1055
0.7737 0.4288 0.1032
0.7845 0.4316 0.1010
0.7937 0.4341 0.0993
0.8011 0.4370 0.0985
0.8102 0.4416 0.0983
0.8195 0.4446 0.0970
0.8306 0.4500 0.0967
0.1036 0.3234 0.2943
0.1026 0.3190 0.2908
0.1034 0.3194 0.2908
0.1051 0.3226 0.2929
0.1083 0.3294 0.2975
0.1169 0.3409 0.3039
0.1385 0.3535 0.3062
0.1829 0.3698 0.3044
0.2380 0.3851 0.2993
0.3042 0.4000 0.2896
0.3608 0.4132 0.2807
0.4065 0.4241 0.2730
0.4373 0.4241 0.2597
0.4715 0.4263 0.2466
0.5043 0.4255 0.2304
0.5362 0.4258 0.2151
0.5707 0.4251 0.1973
0.6053 0.4269 0.1815
0.6359 0.4306 0.1696
0.6644 0.4338 0.1580
0.6901 0.4368 0.1477
0.7141 0.4396 0.1382
0.7341 0.4419 0.1304
0.7533 0.4447 0.1238
0.7673 0.4482 0.1203
0.7788 0.4506 0.1172
0.7897 0.4528 0.1142
0.7990 0.4540 0.1112
0.8064 0.4558 0.1097
0.8148 0.4591 0.1088
0.8235 0.4619 0.1075
0.8355 0.4655 0.1056
0.1114 0.3427 0.3082
0.1106 0.3393 0.3055
0.1114 0.3395 0.3052
0.1137 0.3436 0.3079
0.1169 0.3499 0.3122
0.1226 0.3593 0.3185
0.1380 0.3714 0.3232
0.1825 0.3892 0.3231
0.2342 0.4045 0.3196
0.2943 0.4191 0.3122
0.3573 0.4331 0.3022
0.4045 0.4439 0.2941
0.4478 0.4548 0.2871
0.4752 0.4525 0.2724
0.5068 0.4535 0.2589
0.5381 0.4534 0.2436
0.5731 0.4534 0.2260
0.6072 0.4533 0.2079
0.6392 0.4552 0.1928
0.6668 0.4575 0.1802
0.6937 0.4607 0.1689
0.7176 0.4635 0.1588
0.7393 0.4653 0.1491
0.7585 0.4678 0.1416
0.7729 0.4701 0.1364
0.7849 0.4721 0.1325
0.7958 0.4741 0.1291
0.8052 0.4750 0.1256
0.8119 0.4765 0.1239
0.8198 0.4782 0.1219
0.8280 0.4798 0.1197
0.8394 0.4816 0.1165
0.1219 0.3664 0.3255
0.1215 0.3643 0.3237
0.1222 0.3640 0.3231
0.1245 0.3674 0.3253
0.1277 0.3732 0.3293
0.1324 0.3823 0.3358
0.1420 0.3941 0.3432
0.1764 0.4119 0.3471
0.2318 0.4279 0.3431
0.2911 0.4426 0.3368
0.3510 0.4565 0.3284
0.4052 0.4688 0.3196
0.4499 0.4793 0.3118
0.4897 0.4902 0.3059
0.5123 0.4866 0.2915
0.5419 0.4873 0.2783
0.5764 0.4876 0.2614
0.6110 0.4868 0.2425
0.6424 0.4869 0.2255
0.6713 0.4881 0.2106
0.6974 0.4904 0.1981
0.7227 0.4936 0.1870
0.7451 0.4956 0.1765
0.7648 0.4970 0.1670
0.7796 0.4989 0.1610
0.7924 0.5000 0.1552
0.8037 0.5012 0.1506
0.8129 0.5010 0.1459
0.8192 0.5013 0.1431
0.8263 0.5026 0.1408
0.8342 0.5033 0.1379
0.8443 0.5020 0.1320
0.1340 0.3915 0.3438
0.1331 0.3884 0.3413
0.1338 0.3880 0.3407
0.1363 0.3915 0.3430
0.1402 0.3980 0.3474
0.1457 0.4078 0.3547
0.1528 0.4187 0.3623
0.1761 0.4345 0.3690
0.2217 0.4504 0.3686
0.2916 0.4667 0.3606
0.3477 0.4805 0.3541
0.4023 0.4924 0.3451
0.4522 0.5041 0.3369
0.4927 0.5143 0.3302
0.5275 0.5235 0.3243
0.5481 0.5190 0.3098
0.5813 0.5203 0.2951
0.6154 0.5198 0.2769
0.6472 0.5196 0.2596
0.6759 0.5202 0.2441
0.7025 0.5209 0.2294
0.7274 0.5233 0.2174
0.7498 0.5251 0.2063
0.7705 0.5265 0.1957
0.7860 0.5277 0.1882
0.7994 0.5280 0.1811
0.8116 0.5297 0.1762
0.8203 0.5285 0.1702
0.8266 0.5272 0.1655
0.8331 0.5272 0.1623
0.8408 0.5266 0.1577
0.8501 0.5235 0.1500
0.1467 0.4156 0.3617
0.1455 0.4121 0.3589
0.1463 0.4122 0.3586
0.1491 0.4160 0.3611
0.1538 0.4233 0.3663
0.1595 0.4328 0.3733
0.1669 0.4436 0.3810
0.1847 0.4575 0.3882
0.2260 0.4727 0.3891
0.2879 0.4883 0.3836
0.3500 0.5037 0.3769
0.4025 0.5154 0.3689
0.4521 0.5268 0.3608
0.4959 0.5375 0.3536
0.5317 0.5469 0.3476
0.5615 0.5519 0.3394
0.5882 0.5503 0.3247
0.6211 0.5512 0.3091
0.6525 0.5514 0.2927
0.6808 0.5506 0.2761
0.7078 0.5511 0.2612
0.7325 0.5515 0.2470
0.7551 0.5526 0.2350
0.7759 0.5532 0.2232
0.7921 0.5539 0.2148
0.8061 0.5539 0.2068
0.8187 0.5554 0.2013
0.8270 0.5541 0.1953
0.8331 0.5529 0.1905
0.8393 0.5521 0.1862
0.8472 0.5515 0.1813
0.8548 0.5452 0.1705
0.1590 0.4379 0.3784
0.1576 0.4344 0.3755
0.1592 0.4355 0.3760
0.1627 0.4403 0.3793
0.1673 0.4470 0.3841
0.1722 0.4546 0.3898
0.1787 0.4647 0.3972
0.1982 0.4800 0.4056
0.2354 0.4949 0.4078
0.2936 0.5103 0.4037
0.3540 0.5248 0.3970
0.4055 0.5375 0.3908
0.4576 0.5491 0.3821
0.5004 0.5599 0.3756
0.5371 0.5693 0.3696
0.5714 0.5787 0.3641
0.5967 0.5775 0.3508
0.6283 0.5808 0.3386
0.6589 0.5812 0.3232
0.6862 0.5809 0.3079
0.7126 0.5805 0.2925
0.7375 0.5801 0.2778
0.7599 0.5794 0.2637
0.7815 0.5797 0.2516
0.7972 0.5795 0.2422
0.8123 0.5791 0.2331
0.8248 0.5785 0.2252
0.8331 0.5778 0.2196
0.8397 0.5763 0.2141
0.8461 0.5747 0.2089
0.8533 0.5745 0.2047
0.8595 0.5665 0.1921
0.1701 0.4570 0.3928
0.1705 0.4568 0.3924
0.1725 0.4586 0.3934
0.1756 0.4623 0.3960
0.1800 0.4685 0.4004
0.1858 0.4772 0.4069
0.1927 0.4871 0.4143
0.2091 0.5017 0.4231
0.2449 0.5166 0.4263
0.3051 0.5327 0.4223
0.3637 0.5477 0.4169
0.4114 0.5601 0.4120
0.4620 0.5719 0.4045
0.5065 0.5827 0.3975
0.5427 0.5918 0.3915
0.5772 0.6011 0.3861
0.6149 0.6119 0.3803
0.6360 0.6074 0.3648
0.6667 0.6104 0.3523
0.6926 0.6105 0.3385
0.7184 0.6101 0.3238
0.7428 0.6091 0.3090
0.7651 0.6079 0.2948
0.7858 0.6057 0.2803
0.8025 0.6050 0.2701
0.8174 0.6043 0.2607
0.8302 0.6029 0.2518
0.8398 0.6017 0.2451
0.8459 0.5996 0.2391
0.8525 0.5983 0.2340
0.8598 0.5961 0.2273
0.8650 0.5879 0.2144
0.1825 0.4773 0.4082
0.1830 0.4773 0.4079
0.1859 0.4807 0.4103
0.1893 0.4848 0.4132
0.1943 0.4912 0.4177
0.2001 0.4994 0.4238
0.2073 0.5096 0.4315
0.2232 0.5231 0.4397
0.2603 0.5392 0.4438
0.3143 0.5553 0.4420
0.3704 0.5702 0.4377
0.4210 0.5827 0.4320
0.4679 0.5941 0.4257
0.5123 0.6045 0.4186
0.5501 0.6140 0.4126
0.5845 0.6227 0.4067
0.6209 0.6332 0.4011
0.6522 0.6401 0.3935
0.6733 0.6366 0.3787
0.7001 0.6383 0.3666
0.7244 0.6374 0.3524
0.7486 0.6359 0.3373
0.7700 0.6339 0.3230
0.7916 0.6305 0.3069
0.8075 0.6298 0.2972
0.8218 0.6278 0.2868
0.8355 0.6260 0.2772
0.8461 0.6229 0.2677
0.8527 0.6213 0.2622
0.8596 0.6221 0.2595
0.8658 0.6214 0.2553
0.8710 0.6101 0.2386
0.1947 0.4969 0.4231
0.1958 0.4978 0.4237
0.1992 0.5017 0.4264
0.2032 0.5068 0.4301
0.2072 0.5113 0.4332
0.2125 0.5185 0.4386
0.2188 0.5273 0.4453
0.2374 0.5435 0.4555
0.2719 0.5585 0.4594
0.3264 0.5743 0.4573
0.3814 0.5889 0.4530
0.4282 0.6014 0.4488
0.4757 0.6129 0.4426
0.5192 0.6232 0.4358
0.5558 0.6328 0.4306
0.5901 0.6420 0.4255
0.6271 0.6522 0.4196
0.6608 0.6619 0.4140
0.6814 0.6582 0.3994
0.7045 0.6595 0.3889
0.7295 0.6601 0.3762
0.7523 0.6589 0.3624
0.7747 0.6563 0.3471
0.7945 0.6530 0.3324
0.8111 0.6504 0.3202
0.8257 0.6483 0.3098
0.8394 0.6458 0.2994
0.8505 0.6429 0.2900
0.8585 0.6414 0.2839
0.8652 0.6413 0.2804
0.8714 0.6410 0.2768
0.8754 0.6337 0.2656
0.2055 0.5136 0.4361
0.2075 0.5160 0.4377
0.2113 0.5205 0.4410
0.2145 0.5240 0.4434
0.2189 0.5294 0.4472
0.2255 0.5378 0.4536
0.2338 0.5486 0.4617
0.2493 0.5620 0.4701
0.2853 0.5776 0.4743
0.3372 0.5930 0.4728
0.3901 0.6077 0.4696
0.4379 0.6199 0.4647
0.4818 0.6308 0.4594
0.5247 0.6413 0.4532
0.5613 0.6506 0.4479
0.5957 0.6597 0.4425
0.6321 0.6699 0.4370
0.6666 0.6802 0.4320
0.6959 0.6869 0.4249
0.7109 0.6807 0.4100
0.7342 0.6810 0.3982
0.7573 0.6806 0.3854
0.7783 0.6784 0.3716
0.7989 0.6755 0.3571
0.8144 0.6720 0.3446
0.8293 0.6686 0.3326
0.8430 0.6653 0.3214
0.8549 0.6629 0.3123
0.8627 0.6606 0.3055
0.8702 0.6601 0.3011
0.8757 0.6602 0.2984
0.8804 0.6545 0.2889
0.2153 0.5283 0.4474
0.2173 0.5309 0.4493
0.2211 0.5355 0.4526
0.2250 0.5401 0.4560
0.2300 0.5459 0.4602
0.2363 0.5539 0.4662
0.2432 0.5632 0.4733
0.2607 0.5780 0.4827
0.2955 0.5928 0.4865
0.3466 0.6081 0.4851
0.3989 0.6222 0.4815
0.4433 0.6342 0.4778
0.4884 0.6461 0.4732
0.5298 0.6562 0.4674
0.5651 0.6648 0.4618
0.5995 0.6737 0.4564
0.6348 0.6838 0.4515
0.6681 0.6930 0.4458
0.6997 0.7017 0.4399
0.7159 0.6976 0.4271
0.7372 0.6982 0.4166
0.7593 0.6976 0.4043
0.7810 0.6956 0.3906
0.8004 0.6934 0.3778
0.8177 0.6906 0.3652
0.8317 0.6860 0.3526
0.8457 0.6818 0.3402
0.8579 0.6783 0.3298
0.8662 0.6781 0.3253
0.8744 0.6775 0.3205
0.8806 0.6764 0.3160
0.8845 0.6723 0.3090
0.2237 0.5409 0.4572
0.2269 0.5451 0.4603
0.2307 0.5497 0.4637
0.2342 0.5535 0.4664
0.2394 0.5597 0.4709
0.2455 0.5674 0.4768
0.2534 0.5771 0.4839
0.2687 0.5904 0.4925
0.3024 0.6048 0.4964
0.3522 0.6199 0.4954
0.4014 0.6336 0.4926
0.4465 0.6452 0.4883
0.4887 0.6559 0.4836
0.5276 0.6660 0.4789
0.5644 0.6751 0.4734
0.5980 0.6835 0.4679
0.6341 0.6933 0.4624
0.6680 0.7024 0.4566
0.6997 0.7107 0.4504
0.7258 0.7177 0.4451
0.7383 0.7103 0.4302
0.7613 0.7113 0.4193
0.7815 0.7097 0.4070
0.8007 0.7065 0.3932
0.8171 0.7041 0.3819
0.8326 0.7006 0.3698
0.8482 0.6970 0.3576
0.8599 0.6943 0.3485
0.8685 0.6927 0.3421
0.8772 0.6914 0.3362
0.8841 0.6908 0.3322
0.8891 0.6889 0.3273
0.2328 0.5546 0.4678
0.2355 0.5580 0.4705
0.2396 0.5629 0.4741
0.2428 0.5664 0.4765
0.2484 0.5730 0.4814
0.2546 0.5806 0.4871
0.2609 0.5889 0.4935
0.2767 0.6025 0.5023
0.3083 0.6164 0.5064
0.3535 0.6307 0.5062
0.4038 0.6447 0.5033
0.4450 0.6553 0.4997
0.4870 0.6660 0.4951
0.5251 0.6761 0.4908
0.5596 0.6845 0.4858
0.5938 0.6928 0.4803
0.6305 0.7024 0.4744
0.6641 0.7111 0.4682
0.6965 0.7197 0.4622
0.7233 0.7277 0.4578
0.7419 0.7271 0.4476
0.7598 0.7248 0.4358
0.7799 0.7243 0.4250
0.8003 0.7218 0.4115
0.8176 0.7194 0.4000
0.8336 0.7153 0.3870
0.8495 0.7118 0.3748
0.8619 0.7083 0.3645
0.8712 0.7064 0.3577
0.8797 0.7056 0.3526
0.8874 0.7057 0.3489
0.8943 0.7041 0.3437
0.2399 0.5651 0.4761
0.2434 0.5696 0.4797
0.2477 0.5749 0.4836
0.2508 0.5780 0.4858
0.2557 0.5836 0.4898
0.2618 0.5912 0.4955
0.2684 0.5997 0.5020
0.2824 0.6118 0.5099
0.3113 0.6248 0.5140
0.3548 0.6380 0.5133
0.3977 0.6505 0.5117
0.4385 0.6612 0.5082
0.4797 0.6716 0.5039
0.5162 0.6809 0.4997
0.5495 0.6895 0.4955
0.5835 0.6973 0.4897
0.6208 0.7068 0.4837
0.6551 0.7161 0.4782
0.6877 0.7252 0.4727
0.7163 0.7333 0.4677
0.7429 0.7414 0.4634
0.7565 0.7347 0.4490
0.7775 0.7349 0.4384
0.7984 0.7336 0.4264
0.8157 0.7307 0.4143
0.8322 0.7281 0.4029
0.8481 0.7248 0.3912
0.8623 0.7219 0.3808
0.8730 0.7200 0.3734
0.8818 0.7183 0.3670
0.8896 0.7171 0.3620
0.8975 0.7158 0.3566
0.2466 0.5750 0.4840
0.2502 0.5795 0.4874
0.2535 0.5833 0.4902
0.2569 0.5870 0.4928
