Data/LUTs/DK79_Rec.709_32.cube
TITLE "DK79_Rec.709_32"
LUT_3D_SIZE 5
DOMAIN_MIN 0.000000 0.000000 0.000000
DOMAIN_MAX 0.903226 0.903226 0.903226
0.0549 0.0678 0.0887
0.3613 0.1425 0.0795
0.5107 0.1975 0.0795
0.5991 0.2389 0.0795
0.6777 0.2843 0.0795
0.0646 0.1759 0.1900
0.2379 0.2242 0.1511
0.5100 0.2441 0.0835
0.6804 0.3059 0.0795
0.7645 0.3524 0.0795
0.1036 0.3234 0.2943
0.1829 0.3698 0.3044
0.5043 0.4255 0.2304
0.7141 0.4396 0.1382
0.8064 0.4558 0.1097
0.1825 0.4773 0.4082
0.2232 0.5231 0.4397
0.5501 0.6140 0.4126
0.7486 0.6359 0.3373
0.8527 0.6213 0.2622
0.2466 0.5750 0.4840
0.2877 0.6197 0.5163
0.5374 0.6924 0.5037
0.7582 0.7490 0.4644
0.8732 0.7294 0.3846
0.0549 0.0681 0.0891
0.3908 0.1480 0.0795
0.5436 0.2053 0.0795
0.6213 0.2430 0.0795
0.6759 0.2773 0.0795
0.0826 0.2610 0.2506
0.2344 0.2585 0.1808
0.4926 0.2815 0.1083
0.6747 0.3254 0.0797
0.7445 0.3575 0.0795
0.1327 0.3973 0.3499
0.1300 0.3803 0.3350
0.4954 0.4368 0.2465
0.7240 0.4220 0.1188
0.8258 0.4328 0.0880
0.2152 0.5369 0.4560
0.2253 0.5428 0.4586
0.4659 0.6113 0.4449
0.7477 0.6303 0.3311
0.8910 0.6129 0.2316
0.2672 0.6104 0.5133
0.2873 0.6306 0.5276
0.4704 0.6962 0.5338
0.7453 0.7642 0.4878
0.9118 0.7535 0.3956
0.0555 0.1147 0.1401
0.3679 0.1409 0.0795
0.5487 0.2075 0.0795
0.6363 0.2476 0.0795
0.6905 0.2801 0.0795
0.0983 0.3146 0.2892
0.1343 0.2426 0.2050
0.5146 0.2685 0.0941
0.6785 0.3095 0.0795
0.7329 0.3361 0.0795
0.1494 0.4300 0.3743
0.1494 0.4299 0.3742
0.4492 0.4649 0.2971
0.6757 0.4665 0.1847
0.7861 0.4700 0.1301
0.2305 0.5615 0.4755
0.2446 0.5823 0.4920
0.3472 0.6110 0.4879
0.7230 0.6605 0.3802
0.8850 0.6209 0.2446
0.2843 0.6398 0.5378
0.2989 0.6551 0.5490
0.4066 0.7007 0.5613
0.7120 0.7762 0.5171
0.9149 0.7793 0.4243
0.0570 0.1257 0.1500
0.3758 0.1433 0.0795
0.5369 0.2025 0.0795
0.6383 0.2487 0.0795
0.6936 0.2766 0.0795
0.1140 0.3560 0.3194
0.0958 0.2334 0.2165
0.4400 0.2456 0.1025
0.6868 0.3062 0.0795
0.7659 0.3509 0.0795
0.1621 0.4528 0.3915
0.1560 0.4421 0.3835
0.3489 0.4360 0.3085
0.6966 0.4470 0.1539
0.7953 0.4487 0.1088
0.2441 0.5818 0.4915
0.2748 0.6266 0.5274
0.2947 0.6383 0.5331
0.6845 0.6899 0.4343
0.8399 0.6540 0.3092
0.3063 0.6735 0.5656
0.3226 0.6980 0.5858
0.3407 0.7173 0.6000
0.6305 0.7869 0.5655
0.9038 0.8243 0.4784
0.0755 0.2306 0.2290
0.4433 0.1658 0.0795
0.5627 0.2136 0.0795
0.6455 0.2521 0.0795
0.6992 0.2787 0.0795
0.1323 0.3966 0.3494
0.1321 0.2208 0.1867
0.4318 0.2296 0.0959
0.6490 0.2899 0.0795
0.7646 0.3448 0.0795
0.1761 0.4768 0.4099
0.1483 0.4280 0.3728
0.2907 0.3815 0.2764
0.6197 0.3977 0.1467
0.8011 0.4205 0.0887
0.2463 0.5847 0.4938
0.2532 0.5951 0.5021
0.2554 0.5908 0.4972
0.6074 0.6228 0.3960
0.8441 0.6138 0.2576
0.3215 0.6962 0.5843
0.3419 0.7275 0.6102
0.3608 0.7574 0.6345
0.5045 0.8105 0.6384
0.8732 0.8791 0.5450
