Data/LUTs/DK79_Rec.709_32.cube
TITLE "DK79_Rec.709_32"
LUT_3D_SIZE 8
DOMAIN_MIN 0.000000 0.000000 0.000000
DOMAIN_MAX 0.903226 0.903226 0.903226
0.0549 0.0678 0.0887
0.2323 0.1090 0.0795
0.3910 0.1519 0.0795
0.4805 0.1849 0.0795
0.5400 0.2106 0.0795
0.5882 0.2333 0.0795
0.6317 0.2563 0.0795
0.6777 0.2843 0.0795
0.0560 0.1188 0.1438
0.1250 0.1380 0.1203
0.3185 0.1500 0.0816
0.4587 0.1901 0.0795
0.5585 0.2314 0.0795
0.6372 0.2688 0.0795
0.6911 0.2969 0.0795
0.7374 0.3247 0.0795
0.0686 0.1973 0.2054
0.0887 0.2162 0.2059
0.2778 0.2524 0.1604
0.4443 0.2559 0.1074
0.5690 0.2759 0.0834
0.6689 0.3109 0.0795
0.7306 0.3395 0.0795
0.7719 0.3634 0.0795
0.0895 0.2831 0.2658
0.0962 0.2915 0.2691
0.2577 0.3481 0.2561
0.4342 0.3687 0.2046
0.5688 0.3731 0.1482
0.6848 0.3898 0.1114
0.7571 0.4037 0.0932
0.7961 0.4187 0.0891
0.1219 0.3664 0.3255
0.1277 0.3732 0.3293
0.2318 0.4279 0.3431
0.4499 0.4793 0.3118
0.5764 0.4876 0.2614
0.6974 0.4904 0.1981
0.7796 0.4989 0.1610
0.8192 0.5013 0.1431
0.1701 0.4570 0.3928
0.1800 0.4685 0.4004
0.2449 0.5166 0.4263
0.4620 0.5719 0.4045
0.6149 0.6119 0.3803
0.7184 0.6101 0.3238
0.8025 0.6050 0.2701
0.8459 0.5996 0.2391
0.2153 0.5283 0.4474
0.2300 0.5459 0.4602
0.2955 0.5928 0.4865
0.4884 0.6461 0.4732
0.6348 0.6838 0.4515
0.7372 0.6982 0.4166
0.8177 0.6906 0.3652
0.8662 0.6781 0.3253
0.2466 0.5750 0.4840
0.2620 0.5927 0.4970
0.3100 0.6306 0.5204
0.4692 0.6749 0.5115
0.6073 0.7093 0.4925
0.7335 0.7445 0.4717
0.8127 0.7413 0.4282
0.8732 0.7294 0.3846
0.0549 0.0678 0.0887
0.2469 0.1097 0.0795
0.4157 0.1563 0.0795
0.5024 0.1896 0.0795
0.5574 0.2141 0.0795
0.6001 0.2345 0.0795
0.6323 0.2504 0.0795
0.6650 0.2734 0.0795
0.0604 0.1502 0.1703
0.1289 0.1573 0.1346
0.3210 0.1758 0.0942
0.4649 0.2126 0.0803
0.5643 0.2448 0.0795
0.6379 0.2742 0.0795
0.6818 0.2951 0.0795
0.7232 0.3252 0.0795
0.0786 0.2446 0.2390
0.0811 0.2325 0.2260
0.2967 0.2695 0.1681
0.4602 0.2700 0.1113
0.5821 0.2844 0.0840
0.6802 0.3138 0.0795
0.7384 0.3349 0.0795
0.7738 0.3594 0.0795
0.1045 0.3321 0.3019
0.0975 0.3123 0.2875
0.2312 0.3561 0.2735
0.4428 0.3725 0.2045
0.5780 0.3613 0.1342
0.6979 0.3670 0.0921
0.7748 0.3798 0.0795
0.8148 0.4014 0.0795
0.1424 0.4167 0.3644
0.1378 0.4011 0.3514
0.1969 0.4308 0.3580
0.4293 0.4774 0.3185
0.5765 0.4755 0.2481
0.7062 0.4611 0.1626
0.7983 0.4630 0.1187
0.8458 0.4763 0.1098
0.1935 0.5006 0.4272
0.1958 0.4987 0.4246
0.2235 0.5187 0.4353
0.4152 0.5692 0.4200
0.5965 0.6058 0.3822
0.7227 0.5975 0.3067
0.8224 0.5868 0.2366
0.8783 0.5890 0.2088
0.2352 0.5616 0.4743
0.2426 0.5684 0.4786
0.2707 0.5934 0.4950
0.4294 0.6436 0.4931
0.6055 0.6851 0.4664
0.7363 0.7034 0.4232
0.8383 0.6978 0.3636
0.9002 0.6869 0.3195
0.2606 0.5983 0.5031
0.2698 0.6074 0.5094
0.2965 0.6313 0.5254
0.4211 0.6743 0.5284
0.5691 0.7118 0.5117
0.7216 0.7499 0.4837
0.8268 0.7519 0.4335
0.9009 0.7426 0.3875
0.0549 0.0748 0.0971
0.2260 0.1055 0.0795
0.4226 0.1585 0.0795
0.5164 0.1939 0.0795
0.5730 0.2182 0.0795
0.6162 0.2397 0.0795
0.6465 0.2551 0.0795
0.6784 0.2779 0.0795
0.0685 0.1967 0.2050
0.0932 0.1479 0.1425
0.3505 0.1720 0.0859
0.4764 0.2029 0.0795
0.5642 0.2343 0.0795
0.6328 0.2633 0.0795
0.6706 0.2820 0.0795
0.7033 0.3058 0.0795
0.0907 0.2907 0.2720
0.0817 0.2572 0.2479
0.2654 0.2892 0.1971
0.4203 0.2832 0.1344
0.5476 0.3169 0.1129
0.6571 0.3379 0.0892
0.7192 0.3522 0.0797
0.7509 0.3688 0.0795
0.1188 0.3671 0.3276
0.1107 0.3480 0.3135
0.1714 0.3621 0.3013
0.4229 0.3915 0.2325
0.5606 0.3857 0.1635
0.6838 0.3941 0.1150
0.7645 0.4002 0.0888
0.7993 0.4113 0.0843
0.1568 0.4435 0.3845
0.1544 0.4392 0.3812
0.1591 0.4331 0.3737
0.3697 0.4800 0.3451
0.5611 0.4922 0.2743
0.6970 0.4732 0.1799
0.7961 0.4663 0.1223
0.8439 0.4736 0.1085
0.2052 0.5232 0.4456
0.2114 0.5296 0.4499
0.2173 0.5294 0.4479
0.3489 0.5677 0.4427
0.5561 0.6073 0.4025
0.7094 0.6046 0.3224
0.8200 0.5805 0.2303
0.8822 0.5828 0.1995
0.2480 0.5840 0.4927
0.2549 0.5907 0.4972
0.2677 0.6028 0.5054
0.3743 0.6440 0.5129
0.5585 0.6877 0.4898
0.7288 0.7226 0.4492
0.8380 0.7044 0.3716
0.9092 0.6935 0.3234
0.2702 0.6153 0.5173
0.2789 0.6243 0.5237
0.2961 0.6403 0.5346
0.3889 0.6776 0.5431
0.5395 0.7162 0.5286
0.7050 0.7562 0.4988
0.8265 0.7661 0.4499
0.9132 0.7575 0.3997
0.0549 0.1048 0.1306
0.2215 0.1046 0.0795
0.4096 0.1542 0.0795
0.5157 0.1936 0.0795
0.5797 0.2212 0.0795
0.6253 0.2424 0.0795
0.6549 0.2569 0.0795
0.6872 0.2798 0.0795
0.0772 0.2385 0.2347
0.0765 0.1456 0.1514
0.3025 0.1598 0.0897
0.4851 0.2031 0.0795
0.5784 0.2396 0.0795
0.6475 0.2696 0.0795
0.6859 0.2893 0.0795
0.7121 0.3099 0.0795
0.1013 0.3231 0.2954
0.0863 0.2755 0.2610
0.2007 0.2784 0.2110
0.4367 0.2892 0.1330
0.5573 0.3004 0.0992
0.6530 0.3139 0.0799
0.7094 0.3296 0.0795
0.7339 0.3437 0.0795
0.1297 0.3912 0.3454
0.1273 0.3859 0.3415
0.1397 0.3770 0.3278
0.3932 0.4096 0.2637
0.5244 0.3935 0.1880
0.6486 0.4201 0.1530
0.7381 0.4295 0.1184
0.7743 0.4310 0.1043
0.1652 0.4582 0.3957
0.1744 0.4739 0.4076
0.1652 0.4580 0.3955
0.3117 0.4869 0.3737
0.5416 0.5146 0.3080
0.6837 0.4958 0.2120
0.7842 0.4932 0.1527
0.8282 0.4919 0.1301
0.2140 0.5367 0.4561
0.2250 0.5533 0.4691
0.2244 0.5503 0.4663
0.2846 0.5676 0.4645
0.5040 0.6117 0.4298
0.6949 0.6242 0.3532
0.8129 0.5958 0.2529
0.8780 0.5886 0.2085
0.2561 0.5991 0.5053
0.2662 0.6113 0.5144
0.2739 0.6182 0.5191
0.3187 0.6442 0.5315
0.4971 0.6870 0.5139
0.6974 0.7278 0.4708
0.8268 0.7170 0.3925
0.9084 0.6998 0.3317
0.2804 0.6329 0.5319
0.2886 0.6417 0.5384
0.2984 0.6510 0.5449
0.3608 0.6811 0.5561
0.5094 0.7206 0.5452
0.6834 0.7627 0.5161
0.8194 0.7852 0.4746
0.9152 0.7724 0.4162
0.0563 0.1210 0.1458
0.2300 0.1063 0.0795
0.4008 0.1512 0.0795
0.5115 0.1919 0.0795
0.5785 0.2207 0.0795
0.6292 0.2442 0.0795
0.6615 0.2599 0.0795
0.6918 0.2791 0.0795
0.0848 0.2699 0.2570
0.0704 0.1505 0.1610
0.2771 0.1511 0.0903
0.4504 0.1891 0.0795
0.5764 0.2362 0.0795
0.6566 0.2728 0.0795
0.6985 0.2945 0.0795
0.7270 0.3165 0.0795
0.1089 0.3436 0.3104
0.0933 0.2992 0.2781
0.1465 0.2712 0.2256
0.3915 0.2806 0.1427
0.5679 0.2975 0.0943
0.6700 0.3211 0.0796
0.7248 0.3371 0.0795
0.7454 0.3499 0.0795
0.1366 0.4053 0.3559
0.1361 0.4045 0.3553
0.1281 0.3776 0.3333
0.3375 0.3962 0.2729
0.5374 0.4011 0.1893
0.6559 0.4036 0.1349
0.7321 0.3992 0.0993
0.7613 0.3998 0.0896
0.1717 0.4694 0.4042
0.1884 0.4967 0.4250
0.1832 0.4883 0.4186
0.2666 0.4968 0.3994
0.5128 0.5243 0.3319
0.6432 0.5117 0.2529
0.7520 0.5195 0.1987
0.7993 0.5144 0.1664
0.2217 0.5483 0.4651
0.2389 0.5739 0.4853
0.2423 0.5789 0.4893
0.2574 0.5846 0.4903
0.4468 0.6180 0.4593
0.6791 0.6456 0.3861
0.8048 0.6195 0.2862
0.8712 0.6008 0.2270
0.2659 0.6137 0.5170
0.2778 0.6313 0.5311
0.2860 0.6413 0.5388
0.2990 0.6537 0.5476
0.4298 0.6874 0.5391
0.6552 0.7314 0.4952
0.8135 0.7363 0.4219
0.9045 0.7117 0.3483
0.2887 0.6473 0.5442
0.2989 0.6602 0.5541
0.3061 0.6669 0.5588
0.3288 0.6856 0.5711
0.4685 0.7232 0.5631
0.6526 0.7683 0.5364
0.8133 0.8083 0.5023
0.9132 0.7887 0.4357
0.0577 0.1315 0.1549
0.2499 0.1103 0.0795
0.4008 0.1512 0.0795
0.4994 0.1870 0.0795
0.5764 0.2197 0.0795
0.6290 0.2441 0.0795
0.6634 0.2608 0.0795
0.6943 0.2774 0.0795
0.0942 0.3021 0.2801
0.0692 0.1563 0.1674
0.2639 0.1416 0.0877
0.4184 0.1750 0.0795
0.5481 0.2216 0.0795
0.6519 0.2682 0.0795
0.7049 0.2957 0.0795
0.7410 0.3219 0.0795
0.1172 0.3636 0.3250
0.1010 0.3221 0.2947
0.1174 0.2619 0.2304
0.3576 0.2684 0.1453
0.5210 0.2833 0.1005
0.6712 0.3144 0.0795
0.7389 0.3400 0.0795
0.7672 0.3602 0.0795
0.1457 0.4229 0.3690
0.1436 0.4191 0.3662
0.1238 0.3783 0.3359
0.2758 0.3813 0.2818
0.4911 0.3880 0.1981
0.6715 0.4004 0.1252
0.7548 0.4052 0.0949
0.7830 0.4109 0.0889
0.1790 0.4816 0.4135
0.1913 0.5014 0.4287
0.1875 0.4955 0.4241
0.2070 0.4856 0.4081
0.4584 0.5085 0.3389
0.6641 0.5095 0.2386
0.7554 0.5006 0.1760
0.7917 0.4887 0.1445
0.2285 0.5585 0.4731
0.2494 0.5893 0.4976
0.2603 0.6055 0.5105
0.2604 0.6048 0.5097
0.4002 0.6300 0.4892
0.6512 0.6580 0.4144
0.7677 0.6423 0.3343
0.8311 0.6216 0.2743
0.2788 0.6327 0.5323
0.2934 0.6543 0.5498
0.3032 0.6688 0.5618
0.3094 0.6781 0.5694
0.3695 0.6994 0.5723
0.6000 0.7393 0.5285
0.7970 0.7641 0.4619
0.8982 0.7339 0.3784
0.3022 0.6673 0.5604
0.3123 0.6825 0.5729
0.3200 0.6935 0.5820
0.3282 0.7027 0.5889
0.3848 0.7253 0.5942
0.5966 0.7732 0.5658
0.7826 0.8198 0.5285
0.9064 0.8151 0.4675
0.0549 0.1068 0.1325
0.2864 0.1185 0.0795
0.4246 0.1593 0.0795
0.5062 0.1898 0.0795
0.5705 0.2171 0.0795
0.6306 0.2450 0.0795
0.6645 0.2614 0.0795
0.6940 0.2762 0.0795
0.1042 0.3312 0.3013
0.0779 0.1465 0.1512
0.2733 0.1356 0.0828
0.4060 0.1679 0.0795
0.5217 0.2089 0.0795
0.6318 0.2573 0.0795
0.6985 0.2903 0.0795
0.7415 0.3201 0.0795
0.1266 0.3844 0.3404
0.1032 0.3285 0.2993
0.1089 0.2478 0.2220
0.3340 0.2520 0.1407
0.4854 0.2661 0.1012
0.6399 0.2969 0.0795
0.7335 0.3310 0.0795
0.7757 0.3606 0.0795
0.1531 0.4367 0.3794
0.1489 0.4289 0.3735
0.1227 0.3760 0.3341
0.2320 0.3571 0.2742
0.4545 0.3654 0.1924
0.6231 0.3746 0.1258
0.7525 0.3862 0.0851
0.7994 0.4105 0.0838
0.1855 0.4921 0.4215
0.1916 0.5019 0.4291
0.1819 0.4864 0.4171
0.1895 0.4660 0.3948
0.4112 0.4806 0.3293
0.6136 0.4808 0.2345
0.7652 0.4821 0.1518
0.8184 0.4907 0.1335
0.2314 0.5628 0.4766
0.2461 0.5845 0.4937
0.2548 0.5973 0.5039
0.2526 0.5941 0.5014
0.3492 0.6090 0.4852
0.6056 0.6325 0.4076
0.7783 0.6262 0.3091
0.8333 0.6084 0.2569
0.2848 0.6415 0.5395
0.3020 0.6670 0.5602
0.3161 0.6881 0.5776
0.3242 0.7003 0.5877
0.3543 0.7164 0.5949
0.5570 0.7522 0.5601
0.7733 0.7818 0.4932
0.8695 0.7593 0.4216
0.3170 0.6894 0.5788
0.3294 0.7083 0.5943
0.3385 0.7223 0.6059
0.3458 0.7336 0.6151
0.3610 0.7485 0.6255
0.5153 0.7855 0.6101
0.7298 0.8319 0.5655
0.8923 0.8555 0.5145
0.0755 0.2306 0.2290
0.3271 0.1291 0.0795
0.4680 0.1749 0.0795
0.5366 0.2024 0.0795
0.5884 0.2252 0.0795
0.6362 0.2476 0.0795
0.6761 0.2671 0.0795
0.6992 0.2787 0.0795
0.1146 0.3576 0.3206
0.0934 0.1402 0.1357
0.3219 0.1462 0.0798
0.4360 0.1794 0.0795
0.5311 0.2160 0.0795
0.6265 0.2581 0.0795
0.6941 0.2892 0.0795
0.7406 0.3188 0.0795
0.1376 0.4072 0.3573
0.1072 0.3390 0.3070
0.1449 0.2448 0.2025
0.3541 0.2421 0.1267
0.4783 0.2589 0.0992
0.6151 0.2899 0.0796
0.7174 0.3225 0.0795
0.7706 0.3530 0.0795
0.1627 0.4539 0.3924
0.1473 0.4259 0.3713
0.1160 0.3608 0.3229
0.2307 0.3336 0.2520
0.4332 0.3402 0.1776
0.5892 0.3560 0.1254
0.7268 0.3681 0.0837
0.7921 0.3936 0.0795
0.1930 0.5042 0.4309
0.1850 0.4912 0.4209
0.1683 0.4636 0.3998
0.1590 0.4255 0.3665
0.3700 0.4379 0.3021
0.5749 0.4427 0.2135
0.7263 0.4461 0.1381
0.8105 0.4596 0.1109
0.2346 0.5676 0.4803
0.2370 0.5711 0.4831
0.2371 0.5713 0.4832
0.2293 0.5596 0.4741
0.3015 0.5601 0.4513
0.5593 0.5811 0.3724
0.7288 0.5756 0.2775
0.8365 0.5764 0.2162
0.2850 0.6418 0.5397
0.2918 0.6518 0.5478
0.3044 0.6705 0.5631
0.3117 0.6815 0.5722
0.3310 0.6952 0.5804
0.5142 0.7241 0.5470
0.7361 0.7501 0.4766
0.8678 0.7413 0.4014
0.3215 0.6962 0.5843
0.3328 0.7134 0.5985
0.3445 0.7315 0.6134
0.3550 0.7481 0.6270
0.3669 0.7676 0.6427
0.4400 0.7984 0.6492
0.6871 0.8460 0.5986
0.8732 0.8791 0.5450
