Data/LUTs/JUGO_Rec.709_32.cube
TITLE "JUGO_Rec.709_32"
LUT_3D_SIZE 8
DOMAIN_MIN 0.000000 0.000000 0.000000
DOMAIN_MAX 0.903226 0.903226 0.903226
0.0036 0.0036 0.0181
0.1264 0.0532 0.0637
0.2469 0.1116 0.1067
0.3149 0.1461 0.1366
0.3579 0.1700 0.1589
0.3925 0.1897 0.1778
0.4218 0.2069 0.1945
0.4805 0.2205 0.2044
0.0211 0.0546 0.0429
0.0649 0.0630 0.0451
0.2488 0.0856 0.0637
0.3541 0.1245 0.1016
0.4256 0.1624 0.1382
0.4847 0.1940 0.1681
0.5295 0.2157 0.1868
0.5786 0.2341 0.1950
0.1119 0.1356 0.0779
0.1287 0.1509 0.0844
0.2412 0.1625 0.0775
0.3965 0.1821 0.0764
0.4923 0.1927 0.1006
0.5621 0.2174 0.1376
0.6058 0.2392 0.1624
0.6381 0.2582 0.1746
0.1968 0.2091 0.1092
0.2029 0.2163 0.1121
0.2988 0.2695 0.1322
0.4080 0.2648 0.1099
0.5225 0.2865 0.1080
0.6069 0.2950 0.1282
0.6569 0.3022 0.1443
0.6844 0.3140 0.1560
0.2798 0.2824 0.1548
0.2847 0.2897 0.1552
0.3454 0.3421 0.1878
0.4586 0.3633 0.1884
0.5410 0.3731 0.1641
0.6366 0.3997 0.1565
0.6947 0.4050 0.1668
0.7212 0.4044 0.1738
0.3713 0.3705 0.2265
0.3802 0.3838 0.2264
0.4266 0.4326 0.2587
0.5241 0.5010 0.2762
0.5803 0.4661 0.2425
0.6621 0.4939 0.2285
0.7315 0.5144 0.2168
0.7650 0.5133 0.2096
0.4414 0.4448 0.2889
0.4563 0.4663 0.2928
0.4993 0.5170 0.3241
0.5806 0.5952 0.3561
0.6319 0.5803 0.3143
0.6800 0.5562 0.2839
0.7538 0.5828 0.2739
0.7962 0.5878 0.2602
0.4866 0.4963 0.3335
0.5007 0.5186 0.3359
0.5350 0.5617 0.3611
0.5909 0.6223 0.3946
0.6557 0.6660 0.3839
0.7006 0.6177 0.3326
0.7522 0.6141 0.3085
0.8105 0.6288 0.2967
0.0048 0.0117 0.0278
0.1622 0.0801 0.0800
0.2952 0.1393 0.1294
0.3313 0.1614 0.1511
0.3768 0.1814 0.1698
0.4087 0.1991 0.1870
0.4318 0.2128 0.2002
0.4920 0.2378 0.2228
0.0592 0.0840 0.0558
0.1058 0.1084 0.0638
0.2935 0.1289 0.0604
0.4211 0.1545 0.0888
0.4851 0.1779 0.1245
0.5189 0.1961 0.1497
0.5469 0.2126 0.1695
0.6002 0.2359 0.1671
0.1685 0.1772 0.0971
0.1521 0.1655 0.0900
0.2702 0.1856 0.0855
0.4387 0.2089 0.0848
0.5136 0.2100 0.1020
0.5743 0.2240 0.1410
0.6050 0.2390 0.1732
0.6403 0.2593 0.1774
0.2528 0.2502 0.1416
0.2284 0.2331 0.1238
0.2936 0.2798 0.1423
0.4185 0.2734 0.1140
0.5280 0.2790 0.1082
0.6105 0.2731 0.1279
0.6542 0.2749 0.1608
0.6844 0.2936 0.1725
0.3378 0.3301 0.2067
0.3167 0.3148 0.1836
0.3443 0.3441 0.1937
0.4391 0.3601 0.1878
0.5407 0.3661 0.1568
0.6372 0.3693 0.1462
0.6983 0.3633 0.1620
0.7317 0.3731 0.1721
0.4196 0.4149 0.2770
0.4127 0.4135 0.2628
0.4302 0.4369 0.2656
0.5075 0.5029 0.2898
0.5782 0.4737 0.2495
0.6652 0.4877 0.2204
0.7438 0.4999 0.2038
0.7860 0.5013 0.2045
0.4768 0.4802 0.3302
0.4798 0.4893 0.3246
0.5017 0.5200 0.3318
0.5595 0.5818 0.3660
0.6279 0.6105 0.3398
0.6790 0.5594 0.2877
0.7733 0.5953 0.2774
0.8285 0.6026 0.2633
0.5112 0.5219 0.3654
0.5161 0.5346 0.3602
0.5366 0.5641 0.3664
0.5814 0.6158 0.4005
0.6515 0.6839 0.4140
0.7108 0.6452 0.3506
0.7662 0.6264 0.3147
0.8392 0.6459 0.3037
0.0078 0.0484 0.0608
0.1511 0.0917 0.0996
0.2844 0.1602 0.1569
0.3554 0.1982 0.1909
0.3975 0.2182 0.2094
0.4277 0.2320 0.2226
0.4495 0.2430 0.2335
0.4717 0.2621 0.2509
0.1082 0.1355 0.0901
0.0750 0.1043 0.0765
0.2859 0.1629 0.1312
0.3827 0.1934 0.1619
0.4451 0.2158 0.1869
0.4927 0.2341 0.2082
0.5297 0.2410 0.2132
0.5839 0.2598 0.2111
0.1938 0.2006 0.1240
0.1631 0.1751 0.1052
0.2502 0.2138 0.1321
0.4125 0.2462 0.1211
0.5177 0.2653 0.1398
0.5926 0.2821 0.1700
0.6318 0.2872 0.1853
0.6573 0.2986 0.1915
0.2716 0.2655 0.1675
0.2737 0.2673 0.1646
0.2941 0.2812 0.1673
0.4152 0.3097 0.1567
0.5423 0.3289 0.1570
0.6319 0.3260 0.1610
0.6842 0.3226 0.1743
0.7087 0.3283 0.1829
0.3707 0.3594 0.2457
0.3633 0.3533 0.2335
0.3524 0.3463 0.2173
0.4298 0.4032 0.2432
0.5423 0.4002 0.1868
0.6569 0.4056 0.1696
0.7268 0.3835 0.1730
0.7619 0.3854 0.1819
0.4460 0.4401 0.3102
0.4488 0.4455 0.3070
0.4436 0.4457 0.2933
0.4884 0.4914 0.3099
0.5597 0.5079 0.2872
0.6629 0.5001 0.2324
0.7554 0.5047 0.2055
0.7979 0.5036 0.2067
0.5012 0.5054 0.3622
0.5043 0.5127 0.3592
0.5122 0.5293 0.3554
0.5523 0.5785 0.3764
0.6320 0.6533 0.3965
0.6784 0.5799 0.3074
0.7752 0.6013 0.2834
0.8427 0.6142 0.2698
0.5297 0.5413 0.3917
0.5345 0.5523 0.3890
0.5460 0.5743 0.3871
0.5808 0.6188 0.4074
0.6397 0.6812 0.4337
0.7012 0.6679 0.3701
0.7678 0.6369 0.3253
0.8537 0.6612 0.3145
0.0439 0.0976 0.1024
0.1730 0.0988 0.1268
0.2994 0.1665 0.1801
0.3619 0.2060 0.2116
0.4068 0.2339 0.2349
0.4397 0.2518 0.2499
0.4610 0.2629 0.2596
0.4811 0.2765 0.2730
0.1361 0.1726 0.1209
0.0666 0.1173 0.1073
0.2257 0.1662 0.1619
0.3373 0.2224 0.2137
0.4054 0.2525 0.2404
0.4556 0.2710 0.2576
0.4903 0.2879 0.2715
0.5381 0.3115 0.2849
0.2249 0.2308 0.1646
0.1795 0.1981 0.1447
0.2341 0.2263 0.1814
0.3997 0.2751 0.2302
0.4826 0.2972 0.2481
0.5474 0.3115 0.2594
0.5876 0.3166 0.2612
0.6194 0.3203 0.2513
0.2903 0.2842 0.1996
0.2852 0.2800 0.1978
0.2819 0.2760 0.1910
0.3943 0.3375 0.2426
0.5161 0.3607 0.2333
0.6095 0.3772 0.2449
0.6649 0.3849 0.2582
0.6876 0.3819 0.2539
0.3573 0.3461 0.2453
0.3872 0.3761 0.2698
0.3864 0.3751 0.2629
0.4323 0.4084 0.2817
0.5310 0.4388 0.2723
0.6489 0.4518 0.2710
0.7203 0.4384 0.2597
0.7487 0.4319 0.2561
0.4624 0.4566 0.3356
0.4762 0.4731 0.3449
0.4701 0.4683 0.3319
0.4881 0.4906 0.3401
0.5605 0.5533 0.3678
0.6606 0.5480 0.2971
0.7695 0.5495 0.2723
0.8205 0.5297 0.2589
0.5181 0.5233 0.3873
0.5272 0.5367 0.3925
0.5302 0.5450 0.3866
0.5545 0.5801 0.4055
0.6105 0.6392 0.4338
0.6881 0.6550 0.3936
0.7865 0.6447 0.3179
0.8742 0.6556 0.2971
0.5481 0.5622 0.4184
0.5538 0.5727 0.4184
0.5582 0.5849 0.4118
0.5897 0.6289 0.4352
0.6357 0.6792 0.4601
0.7091 0.7225 0.4436
0.7747 0.6790 0.3655
0.8834 0.7040 0.3385
0.0702 0.1292 0.1361
0.1913 0.1104 0.1541
0.3141 0.1707 0.2032
0.3767 0.2096 0.2327
0.4175 0.2381 0.2533
0.4510 0.2616 0.2713
0.4734 0.2760 0.2829
0.4938 0.2894 0.2963
0.1640 0.2013 0.1545
0.0918 0.1535 0.1560
0.2327 0.1655 0.1887
0.3366 0.2179 0.2295
0.4088 0.2580 0.2628
0.4623 0.2880 0.2868
0.4919 0.3044 0.2986
0.5174 0.3327 0.3186
0.2439 0.2522 0.1975
0.1907 0.2232 0.1761
0.1993 0.2242 0.2046
0.3374 0.2763 0.2643
0.4316 0.3247 0.3082
0.5062 0.3616 0.3380
0.5471 0.3706 0.3438
0.5780 0.3728 0.3384
0.3041 0.3002 0.2296
0.3035 0.3018 0.2381
0.2780 0.2831 0.2285
0.3668 0.3373 0.2881
0.5044 0.3879 0.3349
0.5789 0.4039 0.3424
0.6259 0.4055 0.3385
0.6509 0.4005 0.3226
0.3666 0.3567 0.2688
0.3921 0.3826 0.2931
0.3851 0.3752 0.2853
0.4180 0.4010 0.3013
0.5155 0.4628 0.3520
0.6206 0.4824 0.3399
0.7006 0.4909 0.3456
0.7293 0.4815 0.3373
0.4522 0.4454 0.3362
0.4932 0.4920 0.3760
0.5031 0.5037 0.3813
0.5067 0.5083 0.3792
0.5643 0.5620 0.4129
0.6512 0.5850 0.3893
0.7682 0.5958 0.3817
0.8198 0.5668 0.3543
0.5348 0.5431 0.4144
0.5496 0.5623 0.4274
0.5563 0.5727 0.4291
0.5651 0.5871 0.4333
0.6106 0.6424 0.4701
0.6830 0.7045 0.4883
0.7843 0.6858 0.4031
0.8871 0.6943 0.3820
0.5640 0.5815 0.4440
0.5736 0.5958 0.4502
0.5760 0.6026 0.4445
0.5908 0.6281 0.4542
0.6383 0.6854 0.4855
0.7169 0.7593 0.5201
0.7834 0.7265 0.4476
0.8987 0.7447 0.4031
0.0918 0.1551 0.1680
0.2141 0.1253 0.1834
0.3309 0.1775 0.2296
0.3944 0.2159 0.2594
0.4345 0.2420 0.2776
0.4656 0.2650 0.2922
0.4874 0.2819 0.3050
0.5100 0.2977 0.3217
0.1965 0.2322 0.1967
0.1190 0.1868 0.2031
0.2279 0.1692 0.2162
0.3443 0.2098 0.2573
0.4218 0.2524 0.2869
0.4769 0.2880 0.3104
0.5079 0.3156 0.3283
0.5322 0.3515 0.3532
0.2535 0.2731 0.2222
0.2177 0.2521 0.2250
0.2009 0.2528 0.2541
0.3389 0.2738 0.2901
0.4255 0.3159 0.3243
0.5006 0.3614 0.3605
0.5388 0.3850 0.3759
0.5600 0.4038 0.3875
0.3206 0.3211 0.2647
0.3140 0.3225 0.2720
0.2708 0.2969 0.2610
0.3455 0.3431 0.3263
0.4461 0.3855 0.3682
0.5318 0.4327 0.4110
0.5845 0.4590 0.4303
0.6097 0.4623 0.4282
0.3783 0.3725 0.3005
0.3969 0.3922 0.3217
0.3911 0.3886 0.3242
0.3892 0.3906 0.3320
0.4913 0.4622 0.4031
0.6121 0.5125 0.4541
0.6627 0.5159 0.4502
0.6856 0.5044 0.4323
0.4506 0.4450 0.3514
0.4790 0.4765 0.3795
0.4932 0.4927 0.3932
0.4931 0.4923 0.3917
0.5519 0.5487 0.4322
0.6405 0.6174 0.4897
0.7418 0.6374 0.4750
0.7942 0.6172 0.4525
0.5333 0.5403 0.4258
0.5681 0.5853 0.4648
0.5877 0.6110 0.4850
0.5944 0.6208 0.4888
0.6161 0.6475 0.5066
0.6937 0.7256 0.5598
0.7783 0.7316 0.5212
0.8985 0.7424 0.4986
0.5854 0.6080 0.4809
0.5980 0.6257 0.4920
0.6060 0.6376 0.4969
0.6114 0.6476 0.4963
0.6337 0.6798 0.5160
0.7075 0.7580 0.5629
0.7862 0.7833 0.5618
0.9118 0.7951 0.5111
0.0958 0.1603 0.1897
0.2504 0.1433 0.2143
0.3583 0.1924 0.2577
0.4129 0.2251 0.2836
0.4537 0.2507 0.3040
0.4830 0.2707 0.3177
0.5040 0.2862 0.3292
0.5271 0.3015 0.3464
0.2271 0.2605 0.2359
0.1404 0.2084 0.2427
0.2395 0.1757 0.2415
0.3463 0.2104 0.2830
0.4269 0.2478 0.3118
0.4932 0.2879 0.3395
0.5243 0.3118 0.3516
0.5496 0.3530 0.3786
0.2754 0.2991 0.2581
0.2395 0.2843 0.2727
0.2133 0.2759 0.2943
0.3234 0.2676 0.3056
0.4265 0.3056 0.3469
0.5071 0.3522 0.3792
0.5508 0.3810 0.3979
0.5745 0.4166 0.4199
0.3253 0.3395 0.2868
0.3193 0.3403 0.2988
0.2851 0.3250 0.3103
0.3321 0.3544 0.3572
0.4418 0.3727 0.3847
0.5200 0.4127 0.4169
0.5766 0.4478 0.4446
0.6009 0.4750 0.4610
0.3881 0.3888 0.3307
0.3963 0.4005 0.3456
0.3739 0.3903 0.3386
0.3632 0.3891 0.3546
0.4685 0.4524 0.4326
0.5486 0.4917 0.4699
0.6128 0.5269 0.5031
0.6482 0.5510 0.5211
0.4542 0.4528 0.3767
0.4747 0.4757 0.3989
0.4865 0.4901 0.4146
0.4837 0.4893 0.4186
0.5249 0.5319 0.4583
0.6206 0.6117 0.5334
0.7373 0.6516 0.5673
0.7671 0.6390 0.5551
0.5264 0.5330 0.4361
0.5492 0.5611 0.4613
0.5677 0.5850 0.4821
0.5785 0.5991 0.4939
0.6010 0.6269 0.5160
0.6810 0.7092 0.5751
0.7742 0.7722 0.6261
0.8850 0.7881 0.6022
0.5697 0.5875 0.4759
0.5959 0.6224 0.5063
0.6207 0.6558 0.5347
0.6478 0.6927 0.5640
0.6599 0.7091 0.5730
0.7120 0.7625 0.6067
0.8012 0.8293 0.6522
0.9170 0.8507 0.6328
0.1671 0.2299 0.2340
0.2900 0.1650 0.2498
0.3976 0.2150 0.2915
0.4437 0.2427 0.3139
0.4776 0.2643 0.3319
0.5077 0.2844 0.3479
0.5249 0.2965 0.3563
0.5413 0.3081 0.3676
0.2556 0.2873 0.2658
0.1650 0.2241 0.2731
0.2812 0.1960 0.2731
0.3735 0.2282 0.3089
0.4422 0.2626 0.3377
0.5017 0.2988 0.3633
0.5418 0.3221 0.3805
0.5627 0.3541 0.3989
0.2998 0.3241 0.2889
0.2560 0.3033 0.2956
0.2450 0.2921 0.3235
0.3366 0.2710 0.3221
0.4255 0.3051 0.3610
0.5075 0.3497 0.3950
0.5609 0.3803 0.4179
0.5850 0.4104 0.4356
0.3438 0.3623 0.3155
0.3197 0.3440 0.3136
0.2832 0.3325 0.3286
0.3307 0.3550 0.3743
0.4242 0.3560 0.3868
0.5148 0.3972 0.4248
0.5776 0.4357 0.4527
0.6049 0.4631 0.4710
0.3902 0.4037 0.3469
0.3783 0.3957 0.3453
0.3565 0.3800 0.3474
0.3421 0.3880 0.3759
0.4434 0.4379 0.4407
0.5344 0.4639 0.4646
0.5961 0.4978 0.4944
0.6308 0.5257 0.5167
0.4590 0.4630 0.3982
0.4629 0.4689 0.4060
0.4590 0.4701 0.4092
0.4439 0.4649 0.4087
0.4687 0.4941 0.4449
0.5881 0.5704 0.5320
0.6499 0.6048 0.5731
0.7009 0.6349 0.6003
0.5267 0.5366 0.4540
0.5359 0.5481 0.4650
0.5532 0.5696 0.4853
0.5628 0.5821 0.4981
0.5790 0.6042 0.5200
0.6519 0.6835 0.5828
0.7488 0.7577 0.6461
0.8781 0.7913 0.6645
0.5757 0.5961 0.4994
0.5899 0.6149 0.5163
0.6060 0.6367 0.5352
0.6200 0.6551 0.5507
0.6362 0.6768 0.5686
0.6826 0.7325 0.6094
0.7871 0.8180 0.6663
0.9166 0.8910 0.7181
