Data/LUTs/JUGO_Rec.709_32.cube
TITLE "JUGO_Rec.709_32"
LUT_3D_SIZE 32
0.0036 0.0036 0.0181
0.0035 0.0035 0.0179
0.0305 0.0050 0.0276
0.0798 0.0243 0.0460
0.1264 0.0532 0.0637
0.1639 0.0730 0.0778
0.1949 0.0884 0.0891
0.2239 0.1019 0.0992
0.2469 0.1116 0.1067
0.2680 0.1213 0.1147
0.2865 0.1307 0.1228
0.3014 0.1387 0.1300
0.3149 0.1461 0.1366
0.3268 0.1527 0.1428
0.3369 0.1582 0.1480
0.3477 0.1642 0.1535
0.3579 0.1700 0.1589
0.3683 0.1758 0.1645
0.3771 0.1808 0.1693
0.3850 0.1855 0.1737
0.3925 0.1897 0.1778
0.4000 0.1941 0.1821
0.4068 0.1981 0.1860
0.4150 0.2029 0.1906
0.4218 0.2069 0.1945
0.4291 0.2112 0.1985
0.4389 0.2170 0.2043
0.4564 0.2220 0.2083
0.4805 0.2205 0.2044
0.5124 0.2184 0.1963
0.5374 0.2202 0.1906
0.5725 0.2256 0.1794
0.0046 0.0047 0.0235
0.0049 0.0052 0.0247
0.0091 0.0046 0.0228
0.0594 0.0111 0.0341
0.1010 0.0335 0.0507
0.1384 0.0557 0.0650
0.1689 0.0737 0.0782
0.1969 0.0891 0.0895
0.2225 0.1009 0.0985
0.2466 0.1113 0.1064
0.2689 0.1215 0.1148
0.2869 0.1309 0.1229
0.3038 0.1400 0.1312
0.3203 0.1490 0.1393
0.3333 0.1562 0.1462
0.3449 0.1627 0.1521
0.3591 0.1706 0.1595
0.3709 0.1772 0.1659
0.3815 0.1834 0.1718
0.3911 0.1889 0.1770
0.3998 0.1938 0.1819
0.4102 0.1998 0.1877
0.4200 0.2055 0.1933
0.4296 0.2111 0.1984
0.4379 0.2159 0.2032
0.4568 0.2179 0.2040
0.4767 0.2209 0.2054
0.4950 0.2234 0.2060
0.5155 0.2242 0.2032
0.5286 0.2259 0.2027
0.5513 0.2276 0.1973
0.5807 0.2312 0.1864
0.0047 0.0175 0.0300
0.0045 0.0215 0.0311
0.0060 0.0261 0.0328
0.0346 0.0222 0.0293
0.0877 0.0359 0.0409
0.1337 0.0498 0.0549
0.1732 0.0641 0.0672
0.2077 0.0773 0.0771
0.2343 0.0880 0.0847
0.2592 0.0990 0.0931
0.2835 0.1110 0.1029
0.3029 0.1223 0.1127
0.3207 0.1329 0.1223
0.3388 0.1427 0.1311
0.3543 0.1513 0.1390
0.3673 0.1590 0.1463
0.3834 0.1680 0.1547
0.3969 0.1763 0.1628
0.4106 0.1841 0.1702
0.4219 0.1902 0.1761
0.4345 0.1956 0.1808
0.4453 0.2008 0.1857
0.4570 0.2054 0.1897
0.4696 0.2101 0.1936
0.4816 0.2137 0.1963
0.4952 0.2170 0.1981
0.5112 0.2209 0.1998
0.5265 0.2247 0.2012
0.5416 0.2272 0.2004
0.5532 0.2306 0.2014
0.5710 0.2327 0.1969
0.5899 0.2369 0.1922
0.0043 0.0351 0.0354
0.0047 0.0376 0.0363
0.0186 0.0489 0.0407
0.0382 0.0472 0.0389
0.0701 0.0465 0.0401
0.1229 0.0591 0.0507
0.1719 0.0670 0.0602
0.2122 0.0746 0.0682
0.2426 0.0826 0.0742
0.2695 0.0923 0.0821
0.2961 0.1046 0.0920
0.3176 0.1158 0.1018
0.3380 0.1268 0.1118
0.3575 0.1370 0.1209
0.3735 0.1460 0.1293
0.3891 0.1548 0.1378
0.4064 0.1638 0.1459
0.4219 0.1726 0.1544
0.4377 0.1806 0.1617
0.4512 0.1877 0.1682
0.4630 0.1937 0.1740
0.4751 0.1997 0.1793
0.4859 0.2050 0.1838
0.4967 0.2098 0.1881
0.5083 0.2138 0.1907
0.5201 0.2181 0.1936
0.5336 0.2227 0.1964
0.5476 0.2270 0.1978
0.5612 0.2308 0.1986
0.5729 0.2338 0.1982
0.5845 0.2372 0.1979
0.5996 0.2412 0.1939
0.0211 0.0546 0.0429
0.0227 0.0560 0.0435
0.0313 0.0635 0.0467
0.0597 0.0784 0.0528
0.0649 0.0630 0.0451
0.1083 0.0721 0.0515
0.1639 0.0815 0.0583
0.2136 0.0833 0.0612
0.2488 0.0856 0.0637
0.2806 0.0924 0.0704
0.3086 0.1033 0.0812
0.3324 0.1140 0.0913
0.3541 0.1245 0.1016
0.3737 0.1346 0.1112
0.3913 0.1437 0.1200
0.4072 0.1524 0.1286
0.4256 0.1624 0.1382
0.4433 0.1718 0.1472
0.4586 0.1799 0.1548
0.4730 0.1875 0.1619
0.4847 0.1940 0.1681
0.4970 0.2004 0.1740
0.5078 0.2059 0.1790
0.5195 0.2113 0.1833
0.5295 0.2157 0.1868
0.5408 0.2202 0.1895
0.5531 0.2251 0.1923
0.5659 0.2295 0.1937
0.5786 0.2341 0.1950
0.5890 0.2381 0.1959
0.5987 0.2418 0.1962
0.6103 0.2458 0.1947
0.0427 0.0735 0.0510
0.0426 0.0735 0.0510
0.0500 0.0802 0.0540
0.0614 0.0896 0.0582
0.1029 0.1079 0.0637
0.0969 0.0815 0.0550
0.1557 0.0992 0.0614
0.2110 0.1043 0.0610
0.2522 0.1031 0.0590
0.2891 0.1044 0.0612
0.3205 0.1109 0.0705
0.3460 0.1187 0.0801
0.3683 0.1270 0.0907
0.3900 0.1365 0.1014
0.4074 0.1446 0.1101
0.4245 0.1531 0.1191
0.4442 0.1631 0.1293
0.4620 0.1725 0.1389
0.4778 0.1812 0.1479
0.4928 0.1889 0.1551
0.5061 0.1962 0.1622
0.5176 0.2025 0.1683
0.5281 0.2084 0.1738
0.5395 0.2141 0.1787
0.5486 0.2188 0.1826
0.5591 0.2235 0.1858
0.5709 0.2285 0.1883
0.5827 0.2330 0.1892
0.5939 0.2382 0.1913
0.6046 0.2426 0.1918
0.6133 0.2463 0.1921
0.6250 0.2514 0.1903
0.0652 0.0938 0.0599
0.0629 0.0920 0.0592
0.0695 0.0980 0.0618
0.0777 0.1053 0.0650
0.0997 0.1209 0.0713
0.1426 0.1344 0.0743
0.1451 0.1102 0.0678
0.2065 0.1258 0.0658
0.2508 0.1284 0.0596
0.2916 0.1281 0.0602
0.3281 0.1295 0.0648
0.3569 0.1335 0.0712
0.3828 0.1388 0.0799
0.4060 0.1452 0.0898
0.4250 0.1517 0.0989
0.4429 0.1589 0.1083
0.4617 0.1674 0.1192
0.4805 0.1764 0.1294
0.4961 0.1845 0.1388
0.5116 0.1926 0.1472
0.5255 0.2000 0.1552
0.5382 0.2069 0.1618
0.5482 0.2127 0.1681
0.5590 0.2184 0.1736
0.5676 0.2234 0.1779
0.5779 0.2282 0.1809
0.5884 0.2331 0.1830
0.5992 0.2382 0.1849
0.6098 0.2435 0.1870
0.6200 0.2484 0.1877
0.6286 0.2528 0.1874
0.6387 0.2582 0.1865
0.0895 0.1157 0.0695
0.0858 0.1129 0.0682
0.0901 0.1167 0.0699
0.0991 0.1248 0.0734
0.1119 0.1355 0.0778
0.1435 0.1535 0.0836
0.1640 0.1416 0.0782
0.1964 0.1387 0.0753
0.2477 0.1504 0.0673
0.2923 0.1546 0.0620
0.3312 0.1563 0.0660
0.3626 0.1575 0.0702
0.3916 0.1594 0.0746
0.4185 0.1628 0.0814
0.4391 0.1668 0.0887
0.4592 0.1719 0.0975
0.4805 0.1786 0.1083
0.4995 0.1859 0.1188
0.5177 0.1938 0.1291
0.5320 0.2004 0.1375
0.5455 0.2072 0.1460
0.5581 0.2137 0.1534
0.5684 0.2194 0.1601
0.5796 0.2253 0.1654
0.5885 0.2302 0.1701
0.5968 0.2349 0.1739
0.6059 0.2398 0.1768
0.6150 0.2449 0.1791
0.6252 0.2505 0.1801
0.6349 0.2558 0.1814
0.6426 0.2606 0.1823
0.6518 0.2660 0.1836
0.1119 0.1356 0.0779
0.1068 0.1316 0.0762
0.1098 0.1346 0.0775
0.1178 0.1418 0.0806
0.1287 0.1509 0.0844
0.1480 0.1647 0.0895
0.1953 0.1842 0.0937
0.1917 0.1495 0.0820
0.2412 0.1625 0.0775
0.2923 0.1745 0.0704
0.3336 0.1800 0.0688
0.3665 0.1813 0.0720
0.3965 0.1821 0.0764
0.4244 0.1831 0.0807
0.4478 0.1852 0.0851
0.4694 0.1881 0.0915
0.4923 0.1927 0.1006
0.5135 0.1989 0.1102
0.5326 0.2057 0.1198
0.5484 0.2116 0.1291
0.5621 0.2174 0.1376
0.5752 0.2234 0.1460
0.5861 0.2287 0.1524
0.5968 0.2346 0.1577
0.6058 0.2392 0.1624
0.6123 0.2429 0.1674
0.6208 0.2479 0.1708
0.6295 0.2528 0.1734
0.6381 0.2582 0.1746
0.6477 0.2642 0.1768
0.6545 0.2688 0.1773
0.6636 0.2748 0.1787
0.1346 0.1554 0.0861
0.1293 0.1515 0.0845
0.1317 0.1540 0.0857
0.1375 0.1591 0.0879
0.1476 0.1681 0.0916
0.1627 0.1792 0.0958
0.1945 0.1970 0.1007
0.2260 0.1891 0.0952
0.2369 0.1738 0.0871
0.2874 0.1880 0.0816
0.3343 0.2000 0.0780
0.3693 0.2047 0.0761
0.4007 0.2070 0.0787
0.4294 0.2075 0.0833
0.4540 0.2087 0.0875
0.4767 0.2105 0.0916
0.5022 0.2129 0.0972
0.5243 0.2173 0.1042
0.5447 0.2221 0.1126
0.5614 0.2264 0.1211
0.5770 0.2318 0.1297
0.5906 0.2369 0.1379
0.6016 0.2414 0.1445
0.6121 0.2463 0.1513
0.6201 0.2502 0.1565
0.6272 0.2538 0.1611
0.6353 0.2583 0.1649
0.6432 0.2635 0.1671
0.6515 0.2688 0.1691
0.6602 0.2744 0.1716
0.6671 0.2798 0.1718
0.6763 0.2861 0.1738
0.1569 0.1746 0.0941
0.1523 0.1713 0.0927
0.1522 0.1718 0.0931
0.1581 0.1773 0.0953
0.1666 0.1848 0.0985
0.1796 0.1949 0.1024
0.2029 0.2100 0.1073
0.2507 0.2300 0.1119
0.2643 0.2063 0.1022
0.2853 0.2007 0.0936
0.3322 0.2154 0.0907
0.3716 0.2251 0.0872
0.4047 0.2309 0.0855
0.4353 0.2337 0.0867
0.4605 0.2346 0.0908
0.4823 0.2351 0.0947
0.5090 0.2363 0.1000
0.5327 0.2395 0.1051
0.5548 0.2437 0.1108
0.5738 0.2474 0.1172
0.5896 0.2507 0.1241
0.6037 0.2544 0.1314
0.6154 0.2578 0.1382
0.6259 0.2614 0.1450
0.6341 0.2649 0.1497
0.6422 0.2686 0.1544
0.6495 0.2725 0.1582
0.6565 0.2768 0.1607
0.6633 0.2816 0.1628
0.6724 0.2882 0.1648
0.6792 0.2931 0.1666
0.6879 0.2994 0.1692
0.1771 0.1919 0.1014
0.1723 0.1885 0.0999
0.1704 0.1874 0.0995
0.1763 0.1930 0.1018
0.1843 0.1999 0.1047
0.1957 0.2098 0.1089
0.2148 0.2228 0.1136
0.2555 0.2453 0.1203
0.2763 0.2336 0.1142
0.3007 0.2235 0.1086
0.3316 0.2272 0.1022
0.3709 0.2395 0.0993
0.4074 0.2496 0.0965
0.4388 0.2555 0.0945
0.4657 0.2589 0.0952
0.4894 0.2600 0.0986
0.5155 0.2610 0.1038
0.5400 0.2621 0.1091
0.5624 0.2657 0.1142
0.5824 0.2691 0.1191
0.5987 0.2712 0.1238
0.6140 0.2737 0.1293
0.6266 0.2764 0.1350
0.6378 0.2794 0.1408
0.6465 0.2820 0.1457
0.6544 0.2856 0.1494
0.6615 0.2888 0.1531
0.6678 0.2921 0.1560
0.6740 0.2961 0.1583
0.6818 0.3024 0.1603
0.6887 0.3065 0.1630
0.6974 0.3126 0.1660
0.1968 0.2091 0.1092
0.1915 0.2050 0.1072
0.1905 0.2051 0.1071
0.1942 0.2085 0.1086
0.2029 0.2163 0.1121
0.2127 0.2248 0.1158
0.2299 0.2374 0.1212
0.2608 0.2573 0.1281
0.2988 0.2695 0.1322
0.3212 0.2540 0.1270
0.3353 0.2422 0.1150
0.3714 0.2530 0.1123
0.4080 0.2648 0.1099
0.4419 0.2750 0.1075
0.4693 0.2799 0.1050
0.4948 0.2843 0.1051
0.5225 0.2865 0.1080
0.5468 0.2877 0.1134
0.5696 0.2899 0.1187
0.5894 0.2929 0.1237
0.6069 0.2950 0.1282
0.6222 0.2959 0.1323
0.6359 0.2975 0.1365
0.6477 0.2994 0.1405
0.6569 0.3022 0.1443
0.6648 0.3051 0.1476
0.6721 0.3071 0.1511
0.6778 0.3100 0.1535
0.6844 0.3140 0.1560
0.6918 0.3189 0.1585
0.6975 0.3219 0.1611
0.7063 0.3280 0.1642
0.2172 0.2267 0.1180
0.2116 0.2227 0.1157
0.2112 0.2232 0.1156
0.2136 0.2257 0.1166
0.2224 0.2332 0.1203
0.2325 0.2423 0.1247
0.2457 0.2529 0.1300
0.2699 0.2698 0.1376
0.3111 0.2936 0.1464
0.3262 0.2775 0.1377
0.3646 0.2794 0.1397
0.3727 0.2669 0.1260
0.4089 0.2795 0.1241
0.4432 0.2915 0.1222
0.4736 0.3001 0.1193
0.4996 0.3061 0.1171
0.5282 0.3113 0.1164
0.5539 0.3140 0.1186
0.5766 0.3167 0.1236
0.5966 0.3184 0.1286
0.6140 0.3205 0.1333
0.6303 0.3208 0.1377
0.6441 0.3219 0.1415
0.6565 0.3232 0.1451
0.6665 0.3259 0.1481
0.6740 0.3272 0.1504
0.6816 0.3292 0.1529
0.6879 0.3310 0.1550
0.6934 0.3333 0.1570
0.7002 0.3378 0.1596
0.7065 0.3395 0.1620
0.7147 0.3444 0.1650
0.2362 0.2431 0.1276
0.2311 0.2397 0.1248
0.2309 0.2405 0.1245
0.2336 0.2432 0.1258
0.2401 0.2491 0.1289
0.2513 0.2591 0.1345
0.2631 0.2696 0.1402
0.2844 0.2849 0.1485
0.3148 0.3055 0.1567
0.3498 0.3139 0.1573
0.3693 0.2993 0.1523
0.3974 0.2995 0.1490
0.4106 0.2932 0.1379
0.4446 0.3058 0.1365
0.4754 0.3161 0.1336
0.5036 0.3249 0.1314
0.5323 0.3316 0.1284
0.5596 0.3368 0.1277
0.5831 0.3415 0.1299
0.6032 0.3431 0.1337
0.6214 0.3447 0.1385
0.6381 0.3454 0.1430
0.6517 0.3456 0.1468
0.6648 0.3472 0.1505
0.6749 0.3496 0.1537
0.6826 0.3509 0.1560
0.6901 0.3521 0.1581
0.6962 0.3524 0.1599
0.7012 0.3533 0.1614
0.7080 0.3569 0.1637
0.7136 0.3584 0.1655
0.7223 0.3620 0.1682
0.2558 0.2605 0.1388
0.2516 0.2576 0.1360
0.2509 0.2581 0.1352
0.2547 0.2621 0.1370
0.2607 0.2677 0.1403
0.2702 0.2764 0.1458
0.2816 0.2867 0.1519
0.3021 0.3027 0.1615
0.3266 0.3212 0.1701
0.3664 0.3445 0.1772
0.3787 0.3253 0.1649
0.4146 0.3294 0.1697
0.4285 0.3207 0.1590
0.4479 0.3202 0.1505
0.4785 0.3318 0.1492
0.5065 0.3419 0.1470
0.5369 0.3515 0.1441
0.5642 0.3586 0.1414
0.5891 0.3642 0.1405
0.6098 0.3674 0.1413
0.6291 0.3695 0.1444
0.6457 0.3711 0.1487
0.6602 0.3711 0.1527
0.6737 0.3725 0.1566
0.6833 0.3732 0.1592
0.6919 0.3745 0.1618
0.6993 0.3756 0.1639
0.7059 0.3756 0.1656
0.7103 0.3764 0.1671
0.7157 0.3778 0.1686
0.7216 0.3782 0.1702
0.7290 0.3796 0.1724
0.2798 0.2824 0.1548
0.2770 0.2806 0.1524
0.2759 0.2808 0.1509
0.2788 0.2842 0.1520
0.2847 0.2897 0.1552
0.2936 0.2983 0.1612
0.3053 0.3092 0.1684
0.3226 0.3249 0.1780
0.3454 0.3421 0.1878
0.3767 0.3642 0.1951
0.4077 0.3736 0.1935
0.4181 0.3517 0.1816
0.4586 0.3633 0.1884
0.4642 0.3495 0.1744
0.4825 0.3504 0.1675
0.5107 0.3614 0.1662
0.5410 0.3731 0.1641
0.5698 0.3827 0.1607
0.5950 0.3901 0.1579
0.6167 0.3950 0.1562
0.6366 0.3997 0.1565
0.6548 0.4030 0.1581
0.6709 0.4041 0.1606
0.6844 0.4044 0.1640
0.6947 0.4050 0.1668
0.7035 0.4053 0.1692
0.7109 0.4054 0.1713
0.7169 0.4042 0.1726
0.7212 0.4044 0.1738
0.7265 0.4051 0.1754
0.7315 0.4047 0.1765
0.7378 0.4024 0.1779
0.3053 0.3057 0.1731
0.3015 0.3032 0.1697
0.3004 0.3033 0.1675
0.3031 0.3069 0.1684
0.3097 0.3135 0.1724
0.3196 0.3230 0.1790
0.3305 0.3337 0.1867
0.3454 0.3481 0.1957
0.3632 0.3630 0.2054
0.3924 0.3850 0.2145
0.4287 0.4085 0.2196
0.4419 0.3974 0.2075
0.4628 0.3851 0.2022
0.4935 0.3921 0.2043
0.4974 0.3781 0.1902
0.5153 0.3801 0.1844
0.5454 0.3929 0.1832
0.5751 0.4043 0.1804
0.6007 0.4136 0.1776
0.6232 0.4213 0.1753
0.6439 0.4273 0.1733
0.6627 0.4322 0.1727
0.6793 0.4352 0.1728
0.6946 0.4363 0.1736
0.7056 0.4371 0.1752
0.7148 0.4367 0.1770
0.7234 0.4376 0.1792
0.7292 0.4355 0.1803
0.7327 0.4330 0.1808
0.7372 0.4327 0.1819
0.7422 0.4312 0.1829
0.7471 0.4268 0.1836
0.3299 0.3292 0.1924
0.3256 0.3262 0.1878
0.3248 0.3267 0.1857
0.3283 0.3308 0.1869
0.3353 0.3383 0.1908
0.3447 0.3476 0.1975
0.3554 0.3584 0.2054
0.3686 0.3718 0.2139
0.3843 0.3862 0.2231
0.4078 0.4048 0.2329
0.4412 0.4297 0.2396
0.4681 0.4398 0.2365
0.4739 0.4185 0.2200
0.5048 0.4192 0.2220
0.5247 0.4193 0.2191
0.5275 0.4051 0.2050
0.5511 0.4116 0.2008
0.5799 0.4242 0.1993
0.6062 0.4354 0.1972
0.6291 0.4435 0.1939
0.6509 0.4517 0.1918
0.6702 0.4573 0.1893
0.6874 0.4614 0.1879
0.7030 0.4636 0.1867
0.7152 0.4648 0.1868
0.7249 0.4646 0.1866
0.7343 0.4660 0.1879
0.7400 0.4643 0.1880
0.7438 0.4624 0.1882
0.7481 0.4613 0.1888
0.7532 0.4599 0.1898
0.7568 0.4515 0.1895
0.3523 0.3511 0.2104
0.3478 0.3481 0.2058
0.3484 0.3497 0.2043
0.3526 0.3549 0.2060
0.3589 0.3619 0.2090
0.3665 0.3698 0.2145
0.3765 0.3800 0.2220
0.3910 0.3951 0.2318
0.4056 0.4094 0.2408
0.4271 0.4269 0.2512
0.4545 0.4487 0.2574
0.4876 0.4709 0.2607
0.4992 0.4602 0.2469
0.5111 0.4439 0.2351
0.5431 0.4527 0.2408
0.5525 0.4434 0.2314
0.5579 0.4302 0.2171
0.5862 0.4434 0.2167
0.6121 0.4551 0.2152
0.6345 0.4648 0.2128
0.6564 0.4732 0.2101
0.6764 0.4801 0.2069
0.6943 0.4847 0.2044
0.7114 0.4888 0.2025
0.7233 0.4905 0.2007
0.7348 0.4914 0.1998
0.7442 0.4915 0.1990
0.7499 0.4902 0.1983
0.7541 0.4887 0.1978
0.7588 0.4866 0.1970
0.7638 0.4855 0.1973
0.7663 0.4763 0.1954
0.3713 0.3705 0.2265
0.3707 0.3704 0.2250
0.3717 0.3730 0.2235
0.3747 0.3773 0.2239
0.3802 0.3838 0.2264
0.3889 0.3930 0.2325
0.3987 0.4034 0.2401
0.4126 0.4182 0.2499
0.4266 0.4326 0.2587
0.4478 0.4503 0.2697
0.4730 0.4721 0.2774
0.5013 0.4938 0.2813
0.5241 0.5010 0.2762
0.5297 0.4826 0.2593
0.5489 0.4756 0.2536
0.5768 0.4838 0.2578
0.5803 0.4661 0.2425
0.5921 0.4615 0.2328
0.6185 0.4752 0.2331
0.6400 0.4849 0.2308
0.6621 0.4939 0.2285
0.6825 0.5018 0.2257
0.7013 0.5077 0.2227
0.7177 0.5113 0.2190
0.7315 0.5144 0.2168
0.7430 0.5154 0.2145
0.7531 0.5165 0.2129
0.7604 0.5156 0.2112
0.7650 0.5133 0.2096
0.7694 0.5122 0.2085
0.7740 0.5099 0.2072
0.7756 0.5001 0.2032
0.3914 0.3913 0.2439
0.3910 0.3914 0.2420
0.3937 0.3958 0.2424
0.3970 0.4006 0.2426
0.4028 0.4075 0.2450
0.4109 0.4165 0.2505
0.4208 0.4272 0.2584
0.4333 0.4409 0.2674
0.4486 0.4571 0.2774
0.4685 0.4748 0.2895
0.4907 0.4953 0.2979
0.5167 0.5165 0.3017
0.5451 0.5355 0.3025
0.5541 0.5252 0.2884
0.5597 0.5065 0.2726
0.5855 0.5082 0.2723
0.6024 0.5043 0.2679
0.6061 0.4892 0.2534
0.6240 0.4930 0.2488
0.6469 0.5044 0.2481
0.6679 0.5136 0.2457
0.6887 0.5212 0.2426
0.7072 0.5282 0.2399
0.7252 0.5322 0.2355
0.7386 0.5358 0.2328
0.7501 0.5371 0.2301
0.7616 0.5374 0.2270
0.7697 0.5371 0.2245
0.7744 0.5357 0.2225
0.7804 0.5371 0.2223
0.7848 0.5367 0.2214
0.7867 0.5258 0.2148
0.4109 0.4115 0.2610
0.4112 0.4130 0.2602
0.4143 0.4175 0.2604
0.4186 0.4234 0.2619
0.4223 0.4287 0.2620
0.4297 0.4368 0.2666
0.4381 0.4462 0.2734
0.4533 0.4632 0.2849
0.4669 0.4782 0.2939
0.4861 0.4958 0.3061
0.5077 0.5162 0.3150
0.5304 0.5365 0.3200
0.5590 0.5581 0.3212
0.5731 0.5578 0.3119
0.5789 0.5440 0.2973
0.5925 0.5329 0.2868
0.6207 0.5377 0.2887
0.6247 0.5210 0.2748
0.6302 0.5092 0.2618
0.6504 0.5191 0.2615
0.6728 0.5292 0.2599
0.6925 0.5373 0.2574
0.7126 0.5449 0.2543
0.7301 0.5496 0.2501
0.7438 0.5520 0.2467
0.7564 0.5550 0.2442
0.7674 0.5551 0.2402
0.7766 0.5551 0.2369
0.7830 0.5556 0.2357
0.7890 0.5563 0.2344
0.7945 0.5568 0.2338
0.7958 0.5504 0.2286
0.4272 0.4292 0.2754
0.4291 0.4318 0.2763
0.4329 0.4376 0.2776
0.4356 0.4421 0.2769
0.4401 0.4479 0.2779
0.4483 0.4575 0.2831
0.4587 0.4696 0.2916
0.4713 0.4841 0.3014
0.4853 0.4995 0.3107
0.5035 0.5172 0.3229
0.5240 0.5373 0.3331
0.5453 0.5575 0.3381
0.5699 0.5778 0.3400
0.5911 0.5903 0.3366
0.5971 0.5781 0.3218
0.6024 0.5612 0.3055
0.6286 0.5602 0.3019
0.6435 0.5546 0.2969
0.6450 0.5374 0.2820
0.6562 0.5351 0.2746
0.6773 0.5443 0.2735
0.6979 0.5534 0.2714
0.7166 0.5604 0.2687
0.7354 0.5663 0.2652
0.7493 0.5690 0.2613
0.7622 0.5712 0.2577
0.7739 0.5722 0.2538
0.7834 0.5731 0.2507
0.7905 0.5734 0.2489
0.7966 0.5735 0.2470
0.8011 0.5748 0.2466
0.8043 0.5704 0.2420
0.4414 0.4448 0.2889
0.4437 0.4481 0.2899
0.4472 0.4532 0.2909
0.4511 0.4589 0.2916
0.4563 0.4663 0.2928
0.4638 0.4755 0.2972
0.4724 0.4855 0.3045
0.4862 0.5017 0.3153
0.4993 0.5170 0.3241
0.5175 0.5346 0.3368
0.5368 0.5539 0.3470
0.5563 0.5735 0.3528
0.5806 0.5952 0.3561
0.6043 0.6129 0.3559
0.6118 0.6068 0.3429
0.6167 0.5906 0.3260
0.6319 0.5803 0.3143
0.6567 0.5811 0.3133
0.6592 0.5628 0.2991
0.6604 0.5483 0.2853
0.6800 0.5562 0.2839
0.6998 0.5646 0.2824
0.7200 0.5723 0.2799
0.7379 0.5787 0.2770
0.7538 0.5828 0.2739
0.7664 0.5842 0.2692
0.7781 0.5855 0.2651
0.7895 0.5866 0.2618
0.7962 0.5878 0.2602
0.8034 0.5893 0.2591
0.8088 0.5897 0.2575
0.8110 0.5869 0.2545
0.4538 0.4584 0.3004
0.4575 0.4638 0.3027
0.4611 0.4692 0.3039
0.4642 0.4741 0.3037
0.4695 0.4814 0.3051
0.4766 0.4906 0.3094
0.4857 0.5012 0.3168
0.4980 0.5159 0.3266
0.5109 0.5310 0.3355
0.5282 0.5487 0.3481
0.5463 0.5673 0.3588
0.5650 0.5866 0.3648
0.5858 0.6052 0.3675
0.6090 0.6248 0.3690
0.6236 0.6299 0.3618
0.6272 0.6151 0.3446
0.6347 0.5977 0.3267
0.6616 0.5973 0.3230
0.6697 0.5831 0.3124
0.6716 0.5693 0.3001
0.6808 0.5648 0.2924
0.7019 0.5744 0.2917
0.7207 0.5814 0.2894
0.7392 0.5878 0.2864
0.7540 0.5920 0.2835
0.7680 0.5950 0.2796
0.7824 0.5973 0.2757
0.7934 0.5989 0.2726
0.8002 0.5998 0.2702
0.8083 0.6006 0.2686
0.8148 0.6023 0.2681
0.8186 0.6013 0.2657
0.4672 0.4737 0.3134
0.4696 0.4774 0.3150
0.4737 0.4833 0.3161
0.4765 0.4880 0.3159
0.4822 0.4965 0.3175
0.4891 0.5052 0.3214
0.4970 0.5149 0.3278
0.5095 0.5302 0.3381
0.5215 0.5446 0.3466
0.5373 0.5608 0.3583
0.5557 0.5803 0.3702
0.5715 0.5967 0.3764
0.5906 0.6159 0.3802
0.6124 0.6350 0.3821
0.6327 0.6499 0.3811
0.6382 0.6407 0.3655
0.6428 0.6223 0.3454
0.6594 0.6117 0.3323
0.6814 0.6085 0.3288
0.6830 0.5922 0.3162
0.6845 0.5786 0.3036
0.7006 0.5825 0.3003
0.7196 0.5900 0.2990
0.7391 0.5969 0.2962
0.7553 0.6025 0.2941
0.7705 0.6053 0.2901
0.7856 0.6082 0.2859
0.7973 0.6102 0.2830
0.8052 0.6111 0.2805
0.8130 0.6130 0.2788
0.8207 0.6152 0.2786
0.8264 0.6155 0.2766
0.4768 0.4854 0.3232
0.4809 0.4905 0.3259
0.4852 0.4973 0.3278
0.4875 0.5014 0.3266
0.4923 0.5089 0.3278
0.4990 0.5172 0.3309
0.5071 0.5273 0.3377
0.5182 0.5412 0.3470
0.5293 0.5546 0.3548
0.5438 0.5701 0.3656
0.5590 0.5860 0.3767
0.5742 0.6023 0.3839
0.5919 0.6207 0.3885
0.6110 0.6387 0.3910
0.6307 0.6547 0.3915
0.6464 0.6621 0.3855
0.6496 0.6454 0.3644
0.6553 0.6254 0.3442
0.6814 0.6238 0.3385
0.6926 0.6141 0.3314
0.6935 0.5990 0.3187
0.6975 0.5885 0.3076
0.7179 0.5958 0.3059
0.7378 0.6033 0.3041
0.7541 0.6085 0.3014
0.7709 0.6141 0.2991
0.7856 0.6175 0.2955
0.7986 0.6204 0.2925
0.8088 0.6218 0.2900
0.8168 0.6233 0.2887
0.8242 0.6250 0.2867
0.8313 0.6250 0.2846
0.4866 0.4963 0.3335
0.4906 0.5023 0.3357
0.4937 0.5069 0.3357
0.4957 0.5109 0.3352
