Data/LUTs/JUGO_Rec.709_32.cube
TITLE "JUGO_Rec.709_32"
LUT_3D_SIZE 5
DOMAIN_MIN 0.000000 0.000000 0.000000
DOMAIN_MAX 0.903226 0.903226 0.903226
0.0036 0.0036 0.0181
0.2239 0.1019 0.0992
0.3369 0.1582 0.1480
0.4000 0.1941 0.1821
0.4805 0.2205 0.2044
0.0895 0.1157 0.0695
0.1964 0.1387 0.0753
0.4391 0.1668 0.0887
0.5581 0.2137 0.1534
0.6252 0.2505 0.1801
0.2362 0.2431 0.1276
0.2844 0.2849 0.1485
0.4754 0.3161 0.1336
0.6381 0.3454 0.1430
0.7012 0.3533 0.1614
0.3914 0.3913 0.2439
0.4333 0.4409 0.2674
0.5597 0.5065 0.2726
0.6887 0.5212 0.2426
0.7744 0.5357 0.2225
0.4866 0.4963 0.3335
0.5254 0.5498 0.3544
0.6261 0.6552 0.3990
0.7017 0.6016 0.3181
0.8105 0.6288 0.2967
0.0068 0.0341 0.0492
0.2590 0.1452 0.1403
0.3757 0.2037 0.1939
0.4246 0.2266 0.2163
0.4710 0.2593 0.2469
0.1664 0.1776 0.1065
0.2155 0.1877 0.1102
0.4686 0.2305 0.1085
0.5984 0.2601 0.1618
0.6506 0.2800 0.1808
0.3242 0.3138 0.2049
0.2995 0.2947 0.1744
0.4816 0.3444 0.1552
0.6669 0.3427 0.1512
0.7252 0.3406 0.1709
0.4574 0.4537 0.3184
0.4556 0.4607 0.3022
0.5513 0.5531 0.3318
0.6886 0.5197 0.2408
0.8038 0.5315 0.2169
0.5246 0.5357 0.3847
0.5367 0.5625 0.3770
0.6066 0.6463 0.4217
0.7228 0.6484 0.3514
0.8513 0.6577 0.3112
0.0588 0.1157 0.1207
0.2823 0.1541 0.1791
0.3906 0.2227 0.2327
0.4510 0.2611 0.2636
0.4874 0.2838 0.2848
0.2160 0.2277 0.1715
0.1691 0.1967 0.1688
0.3984 0.2936 0.2748
0.5175 0.3339 0.3067
0.5805 0.3413 0.3013
0.3290 0.3201 0.2342
0.3284 0.3198 0.2345
0.4535 0.3966 0.2946
0.6373 0.4309 0.2920
0.7059 0.4280 0.2921
0.4865 0.4841 0.3628
0.5026 0.5047 0.3712
0.5357 0.5439 0.3884
0.6882 0.5935 0.3456
0.8380 0.5781 0.3077
0.5556 0.5710 0.4302
0.5647 0.5891 0.4273
0.6131 0.6557 0.4594
0.7212 0.7273 0.4598
0.8913 0.7234 0.3648
0.0932 0.1572 0.1743
0.3174 0.1694 0.2285
0.4219 0.2325 0.2767
0.4755 0.2704 0.3013
0.5146 0.2982 0.3277
0.2458 0.2701 0.2239
0.1802 0.2433 0.2524
0.3830 0.2759 0.3052
0.5090 0.3503 0.3589
0.5569 0.3965 0.3889
0.3498 0.3485 0.2886
0.3303 0.3450 0.2926
0.4088 0.3938 0.3689
0.5677 0.4791 0.4521
0.6338 0.4968 0.4583
0.4720 0.4688 0.3738
0.5126 0.5160 0.4154
0.5277 0.5333 0.4282
0.6726 0.6582 0.5272
0.8143 0.6587 0.4891
0.5923 0.6174 0.4927
0.6121 0.6451 0.5104
0.6250 0.6659 0.5160
0.7306 0.7794 0.5861
0.9143 0.8094 0.5427
0.1671 0.2299 0.2340
0.3807 0.2055 0.2837
0.4607 0.2534 0.3233
0.5137 0.2884 0.3512
0.5413 0.3081 0.3676
0.2902 0.3160 0.2840
0.2271 0.2775 0.3123
0.3858 0.2770 0.3381
0.5219 0.3478 0.3947
0.5796 0.3979 0.4271
0.3644 0.3807 0.3296
0.3292 0.3591 0.3358
0.3814 0.3927 0.4043
0.5391 0.4348 0.4485
0.6164 0.4916 0.4915
0.4747 0.4795 0.4097
0.4845 0.4923 0.4267
0.4730 0.4960 0.4322
0.6263 0.6170 0.5588
0.7416 0.6648 0.6159
0.5757 0.5961 0.4994
0.6024 0.6315 0.5306
0.6278 0.6655 0.5595
0.7098 0.7593 0.6264
0.9166 0.8910 0.7181
