Data/LUTs/PRISMO - Rec.709_32.cube
TITLE "PRISMO - Rec.709_32"
LUT_3D_SIZE 8
DOMAIN_MIN 0.000000 0.000000 0.000000
DOMAIN_MAX 0.903226 0.903226 0.903226
0.0117 0.0117 0.0117
0.2198 0.0116 0.0000
0.3614 0.0000 0.0000
0.4399 0.0000 0.0000
0.4919 0.0000 0.0000
0.5348 0.0000 0.0000
0.5724 0.0000 0.0000
0.6196 0.0502 0.0000
0.0529 0.1010 0.0196
0.1229 0.1153 0.0000
0.2960 0.1053 0.0000
0.4178 0.1002 0.0000
0.5064 0.1014 0.0000
0.5796 0.1094 0.0000
0.6324 0.1242 0.0000
0.6797 0.1586 0.0000
0.1033 0.1911 0.0516
0.1136 0.2080 0.0517
0.2735 0.2279 0.0000
0.4132 0.2220 0.0000
0.5183 0.2174 0.0000
0.6107 0.2189 0.0000
0.6726 0.2262 0.0000
0.7155 0.2434 0.0000
0.1663 0.2704 0.1131
0.1672 0.2783 0.1007
0.2744 0.3354 0.0504
0.4159 0.3299 0.0000
0.5311 0.3297 0.0000
0.6361 0.3281 0.0000
0.7067 0.3276 0.0000
0.7467 0.3355 0.0000
0.2344 0.3458 0.1951
0.2317 0.3536 0.1721
0.2842 0.4041 0.2042
0.4619 0.4663 0.0000
0.5481 0.4417 0.0000
0.6621 0.4439 0.0000
0.7442 0.4399 0.0000
0.7828 0.4352 0.0000
0.3078 0.4328 0.2923
0.3061 0.4465 0.2660
0.3410 0.4938 0.2912
0.4645 0.5654 0.2437
0.5937 0.5702 0.0000
0.6966 0.5665 0.0000
0.7847 0.5640 0.0000
0.8265 0.5533 0.0000
0.3644 0.5051 0.3691
0.3659 0.5265 0.3451
0.3981 0.5748 0.3622
0.4934 0.6446 0.3537
0.6487 0.7000 0.1690
0.7221 0.6547 0.0000
0.8130 0.6552 0.0000
0.8608 0.6436 0.0000
0.4018 0.5541 0.4199
0.4017 0.5767 0.3932
0.4260 0.6176 0.4008
0.4912 0.6718 0.4150
0.6084 0.7280 0.3286
0.7455 0.7384 0.0000
0.8113 0.7058 0.0000
0.8762 0.6994 0.0000
0.0387 0.0485 0.1148
0.2468 0.0641 0.1477
0.3972 0.0493 0.1350
0.4667 0.0000 0.1036
0.5158 0.0000 0.0777
0.5551 0.0000 0.0534
0.5853 0.0000 0.0503
0.6203 0.0610 0.1038
0.0782 0.1335 0.0861
0.1322 0.1575 0.0961
0.3105 0.1707 0.0754
0.4319 0.1821 0.0600
0.5182 0.1755 0.0197
0.5857 0.1634 0.0000
0.6279 0.1622 0.0000
0.6711 0.2145 0.0004
0.1583 0.2350 0.1421
0.1405 0.2225 0.1070
0.2956 0.2562 0.0541
0.4330 0.2488 0.0474
0.5349 0.2390 0.0017
0.6246 0.2255 0.0000
0.6820 0.2115 0.0000
0.7202 0.2417 0.0000
0.2264 0.3119 0.2159
0.1985 0.2951 0.1633
0.2564 0.3385 0.1493
0.4255 0.3392 0.0000
0.5391 0.3205 0.0000
0.6455 0.3014 0.0000
0.7205 0.2815 0.0000
0.7622 0.2980 0.0000
0.2933 0.3910 0.2977
0.2672 0.3776 0.2450
0.2813 0.4074 0.2219
0.4400 0.4671 0.0398
0.5474 0.4309 0.0000
0.6664 0.4080 0.0000
0.7565 0.3920 0.0000
0.8036 0.3983 0.0000
0.3574 0.4741 0.3790
0.3414 0.4745 0.3385
0.3446 0.4980 0.3071
0.4263 0.5571 0.2920
0.5902 0.5822 0.0000
0.7001 0.5548 0.0000
0.8011 0.5411 0.0000
0.8546 0.5344 0.0000
0.4023 0.5381 0.4348
0.3938 0.5479 0.4053
0.4008 0.5779 0.3793
0.4611 0.6343 0.3938
0.6099 0.7005 0.2685
0.7206 0.6602 0.0000
0.8358 0.6643 0.0000
0.8954 0.6532 0.0000
0.4301 0.5774 0.4708
0.4216 0.5904 0.4382
0.4283 0.6194 0.4123
0.4761 0.6667 0.4354
0.5687 0.7261 0.3866
0.7550 0.7735 0.0248
0.8280 0.7176 0.0000
0.9059 0.7145 0.0000
0.0539 0.0724 0.2213
0.2438 0.0836 0.2785
0.4071 0.1010 0.2986
0.4900 0.1060 0.2913
0.5417 0.0918 0.2756
0.5804 0.0657 0.2597
0.6085 0.0430 0.2556
0.6370 0.0889 0.2758
0.1118 0.1912 0.2053
0.1041 0.1558 0.2211
0.3341 0.1874 0.2633
0.4452 0.1855 0.2411
0.5260 0.1714 0.2168
0.5909 0.1534 0.1886
0.6281 0.1543 0.1615
0.6615 0.2178 0.1801
0.1813 0.2605 0.2272
0.1550 0.2331 0.1930
0.2728 0.2873 0.2487
0.4102 0.2929 0.2371
0.5180 0.3054 0.2354
0.6154 0.3072 0.2225
0.6746 0.2986 0.1949
0.7071 0.3081 0.1870
0.2476 0.3264 0.2773
0.2481 0.3280 0.2665
0.2671 0.3401 0.2573
0.4147 0.3744 0.2336
0.5346 0.3713 0.2540
0.6458 0.3616 0.2199
0.7230 0.3475 0.1750
0.7580 0.3490 0.1595
0.3272 0.4179 0.3673
0.3180 0.4127 0.3420
0.3017 0.4073 0.3044
0.3844 0.4624 0.3088
0.5404 0.4632 0.2051
0.6662 0.4417 0.2040
0.7615 0.4138 0.1378
0.8081 0.4128 0.1174
0.3867 0.4970 0.4346
0.3843 0.5035 0.4199
0.3689 0.5057 0.3803
0.4071 0.5487 0.3681
0.5564 0.6106 0.2657
0.6901 0.5688 0.1053
0.8008 0.5403 0.0331
0.8607 0.5337 0.0147
0.4300 0.5607 0.4845
0.4257 0.5687 0.4667
0.4179 0.5857 0.4331
0.4498 0.6321 0.4229
0.5557 0.6974 0.3881
0.7189 0.6930 0.0149
0.8376 0.6732 0.0000
0.9062 0.6635 0.0043
0.4522 0.5947 0.5111
0.4473 0.6063 0.4898
0.4414 0.6289 0.4531
0.4705 0.6703 0.4465
0.5467 0.7254 0.4385
0.7341 0.7882 0.2296
0.8297 0.7336 0.0000
0.9209 0.7319 0.0000
0.0732 0.1179 0.3032
0.2461 0.0938 0.3532
0.4072 0.1161 0.3893
0.4920 0.1253 0.3888
0.5501 0.1330 0.3838
0.5933 0.1297 0.3757
0.6225 0.1241 0.3712
0.6494 0.1304 0.3822
0.1426 0.2322 0.2920
0.0953 0.1605 0.3097
0.3027 0.1823 0.3620
0.4517 0.1956 0.3761
0.5368 0.1956 0.3613
0.6049 0.1768 0.3387
0.6445 0.1744 0.3192
0.6723 0.2220 0.3155
0.2077 0.2929 0.3092
0.1694 0.2587 0.2985
0.2347 0.2826 0.3587
0.4246 0.3062 0.3956
0.5263 0.3107 0.3723
0.6152 0.3017 0.3409
0.6709 0.2922 0.3086
0.6967 0.3046 0.2860
0.2644 0.3449 0.3373
0.2602 0.3411 0.3373
0.2578 0.3369 0.3255
0.3933 0.4026 0.3939
0.5094 0.4042 0.3788
0.6215 0.4126 0.3687
0.7082 0.4077 0.3486
0.7430 0.3992 0.3226
0.3190 0.4048 0.3810
0.3432 0.4338 0.4078
0.3413 0.4330 0.3921
0.3933 0.4644 0.4060
0.5269 0.5001 0.3826
0.6611 0.4877 0.3943
0.7611 0.4678 0.3530
0.8033 0.4566 0.3265
0.4049 0.5124 0.4768
0.4149 0.5287 0.4810
0.4052 0.5250 0.4548
0.4163 0.5471 0.4491
0.5077 0.6059 0.4545
0.6811 0.6052 0.3500
0.8022 0.5780 0.3469
0.8638 0.5561 0.3122
0.4495 0.5771 0.5223
0.4534 0.5901 0.5184
0.4465 0.5989 0.4935
0.4595 0.6328 0.4936
0.5297 0.6855 0.4985
0.7175 0.7566 0.3740
0.8314 0.6995 0.2909
0.9109 0.6852 0.2971
0.4732 0.6138 0.5478
0.4719 0.6241 0.5350
0.4627 0.6373 0.5027
0.4858 0.6787 0.5025
0.5437 0.7239 0.5048
0.6919 0.7948 0.4225
0.8278 0.7660 0.2842
0.9284 0.7570 0.2505
0.0873 0.1432 0.3552
0.2584 0.1051 0.4072
0.4049 0.1277 0.4475
0.4910 0.1361 0.4587
0.5513 0.1437 0.4578
0.5988 0.1522 0.4558
0.6309 0.1543 0.4551
0.6587 0.1589 0.4662
0.1679 0.2617 0.3557
0.1032 0.1740 0.3804
0.2840 0.1838 0.4339
0.4310 0.1959 0.4583
0.5363 0.1981 0.4619
0.6133 0.1997 0.4508
0.6566 0.1996 0.4344
0.6862 0.2402 0.4344
0.2245 0.3142 0.3701
0.1902 0.2846 0.3828
0.2035 0.2789 0.4329
0.3896 0.3021 0.4804
0.5331 0.3160 0.4967
0.6275 0.3206 0.4739
0.6859 0.3070 0.4432
0.7099 0.3144 0.4163
0.2748 0.3609 0.3911
0.2738 0.3627 0.4096
0.2524 0.3445 0.4092
0.3607 0.3955 0.4886
0.5220 0.4177 0.5202
0.6294 0.4172 0.4855
0.7050 0.4025 0.4458
0.7337 0.3972 0.4120
0.3277 0.4150 0.4246
0.3490 0.4399 0.4539
0.3430 0.4326 0.4437
0.3789 0.4551 0.4579
0.5058 0.5223 0.5191
0.6269 0.5200 0.4982
0.7376 0.5200 0.4835
0.7839 0.5041 0.4545
0.3983 0.5006 0.4894
0.4336 0.5463 0.5305
0.4410 0.5575 0.5304
0.4426 0.5619 0.5213
0.5147 0.6093 0.5469
0.6686 0.6427 0.5043
0.8024 0.6228 0.5116
0.8656 0.5904 0.4682
0.4675 0.5943 0.5605
0.4788 0.6128 0.5677
0.4809 0.6232 0.5595
0.4829 0.6375 0.5515
0.5319 0.6881 0.5716
0.6500 0.7552 0.5543
0.8236 0.7350 0.4612
0.9139 0.7156 0.4652
0.4910 0.6306 0.5818
0.4960 0.6445 0.5789
0.4907 0.6526 0.5576
0.4935 0.6773 0.5470
0.5466 0.7296 0.5519
0.6533 0.7942 0.5535
0.8283 0.8090 0.4481
0.9327 0.7867 0.4155
0.0990 0.1603 0.4008
0.2793 0.1170 0.4587
0.4089 0.1373 0.4981
0.4929 0.1496 0.5195
0.5515 0.1548 0.5257
0.6008 0.1606 0.5252
0.6349 0.1668 0.5282
0.6656 0.1747 0.5461
0.1950 0.2914 0.4184
0.1165 0.1882 0.4472
0.2764 0.1851 0.4993
0.4098 0.1912 0.5303
0.5225 0.1971 0.5459
0.6120 0.1995 0.5450
0.6648 0.2134 0.5413
0.6993 0.2593 0.5480
0.2410 0.3353 0.4302
0.2122 0.3104 0.4588
0.1889 0.2770 0.5039
0.3628 0.2990 0.5503
0.5005 0.3097 0.5787
0.6279 0.3181 0.5861
0.6964 0.3227 0.5659
0.7283 0.3399 0.5532
0.2880 0.3813 0.4531
0.2856 0.3825 0.4790
0.2549 0.3546 0.4938
0.3255 0.3834 0.5649
0.4834 0.4087 0.6034
0.6405 0.4225 0.6205
0.7224 0.4209 0.5887
0.7543 0.4173 0.5606
0.3359 0.4302 0.4797
0.3511 0.4490 0.5076
0.3461 0.4455 0.5176
0.3435 0.4476 0.5345
0.4723 0.5129 0.6170
0.6490 0.5349 0.6469
0.7418 0.5232 0.6055
0.7800 0.5048 0.5659
0.3982 0.4995 0.5226
0.4229 0.5301 0.5521
0.4353 0.5459 0.5656
0.4351 0.5455 0.5628
0.5060 0.5954 0.5981
0.6479 0.6732 0.6540
0.7705 0.6663 0.6358
0.8354 0.6398 0.6010
0.4688 0.5911 0.5861
0.4992 0.6329 0.6195
0.5163 0.6573 0.6332
0.5210 0.6666 0.6308
0.5441 0.6914 0.6390
0.6516 0.7597 0.6748
0.8119 0.7834 0.6263
0.9172 0.7586 0.6213
0.5141 0.6548 0.6280
0.5238 0.6712 0.6321
0.5287 0.6829 0.6285
0.5284 0.6930 0.6160
0.5450 0.7237 0.6197
0.6392 0.7935 0.6396
0.8128 0.8656 0.6182
0.9341 0.8304 0.5778
0.0976 0.1434 0.4354
0.3150 0.1282 0.5051
0.4326 0.1477 0.5399
0.5026 0.1599 0.5624
0.5593 0.1672 0.5778
0.6048 0.1713 0.5829
0.6385 0.1755 0.5886
0.6691 0.1826 0.6091
0.2195 0.3184 0.4734
0.1295 0.1879 0.5041
0.2886 0.1852 0.5518
0.4040 0.1906 0.5837
0.5053 0.1985 0.6027
0.6061 0.2044 0.6179
0.6624 0.2091 0.6145
0.7025 0.2583 0.6291
0.2592 0.3581 0.4870
0.2213 0.3218 0.5159
0.1878 0.2729 0.5613
0.3467 0.2908 0.6024
0.4725 0.2999 0.6333
0.6065 0.3110 0.6532
0.6921 0.3126 0.6506
0.7360 0.3473 0.6512
0.2995 0.3995 0.5084
0.2942 0.3974 0.5347
0.2575 0.3616 0.5572
0.2998 0.3661 0.6190
0.4531 0.3924 0.6546
0.6003 0.4020 0.6809
0.7168 0.4050 0.6824
0.7654 0.4272 0.6706
0.3434 0.4457 0.5337
0.3509 0.4565 0.5581
0.3390 0.4468 0.5733
0.3261 0.4417 0.6040
0.4386 0.4879 0.6781
0.6011 0.5077 0.7080
0.7449 0.5117 0.7135
0.7988 0.5194 0.6941
0.3997 0.5070 0.5679
0.4170 0.5288 0.5922
0.4269 0.5423 0.6105
0.4241 0.5408 0.6207
0.4655 0.5800 0.6582
0.6128 0.6574 0.7345
0.7796 0.6695 0.7496
0.8378 0.6508 0.7162
0.4637 0.5834 0.6137
0.4840 0.6097 0.6360
0.5006 0.6315 0.6526
0.5100 0.6444 0.6616
0.5329 0.6707 0.6766
0.6450 0.7430 0.7204
0.7953 0.8252 0.7713
0.8977 0.8050 0.7461
0.5019 0.6345 0.6386
0.5254 0.6670 0.6626
0.5475 0.6982 0.6834
0.5722 0.7326 0.7026
0.5820 0.7480 0.7033
0.6509 0.7958 0.7250
0.7830 0.8723 0.7661
0.9289 0.8887 0.7297
0.1577 0.2495 0.4813
0.3531 0.1411 0.5564
0.4723 0.1612 0.5867
0.5319 0.1720 0.6071
0.5788 0.1793 0.6230
0.6238 0.1849 0.6356
0.6518 0.1873 0.6393
0.6762 0.1915 0.6509
0.2404 0.3412 0.5084
0.1501 0.1900 0.5470
0.3315 0.1952 0.5935
0.4311 0.2026 0.6200
0.5136 0.2166 0.6410
0.6011 0.2270 0.6594
0.6684 0.2248 0.6681
0.7034 0.2595 0.6768
0.2779 0.3804 0.5273
0.2316 0.3338 0.5469
0.2170 0.2746 0.6007
0.3642 0.2874 0.6346
0.4672 0.2985 0.6637
0.5862 0.3144 0.6878
0.6856 0.3136 0.6995
0.7322 0.3377 0.7028
0.3142 0.4193 0.5503
0.2926 0.3981 0.5584
0.2501 0.3547 0.5885
0.2955 0.3496 0.6491
0.4358 0.3729 0.6793
0.5709 0.3863 0.7104
0.6978 0.3921 0.7245
0.7576 0.4071 0.7239
0.3524 0.4606 0.5764
0.3425 0.4515 0.5823
0.3222 0.4325 0.5962
0.2971 0.4133 0.6353
0.4047 0.4483 0.6990
0.5638 0.4742 0.7315
0.7082 0.4781 0.7487
0.7867 0.4889 0.7492
0.4027 0.5161 0.6048
0.4056 0.5213 0.6159
0.4052 0.5229 0.6301
0.3967 0.5173 0.6493
0.4177 0.5421 0.6916
0.5675 0.6031 0.7621
0.7267 0.6140 0.7838
0.8325 0.6197 0.7864
0.4624 0.5857 0.6447
0.4703 0.5962 0.6557
0.4856 0.6164 0.6733
0.4940 0.6279 0.6861
0.5086 0.6487 0.7064
0.6025 0.7189 0.7536
0.7606 0.8011 0.8239
0.8923 0.8040 0.8343
0.5070 0.6414 0.6745
0.5204 0.6591 0.6889
0.5351 0.6790 0.7032
0.5483 0.6963 0.7148
0.5635 0.7166 0.7276
0.6154 0.7675 0.7554
0.7684 0.8553 0.8064
0.9152 0.9318 0.8600
