Data/LUTs/PRISMO - Rec.709_32.cube
TITLE "PRISMO - Rec.709_32"
LUT_3D_SIZE 5
DOMAIN_MIN 0.000000 0.000000 0.000000
DOMAIN_MAX 0.903226 0.903226 0.903226
0.0117 0.0117 0.0117
0.3353 0.0000 0.0000
0.4663 0.0000 0.0000
0.5440 0.0000 0.0000
0.6196 0.0502 0.0000
0.0890 0.1693 0.0402
0.2366 0.2026 0.0000
0.4652 0.1925 0.0000
0.6213 0.1929 0.0000
0.7076 0.2228 0.0000
0.1987 0.3061 0.1509
0.2359 0.3478 0.1544
0.4799 0.3821 0.0000
0.6712 0.3813 0.0000
0.7628 0.3806 0.0000
0.3240 0.4532 0.3144
0.3460 0.5022 0.3063
0.5546 0.6168 0.1828
0.7315 0.5940 0.0000
0.8375 0.5792 0.0000
0.4018 0.5541 0.4199
0.4188 0.6063 0.3991
0.5388 0.7005 0.3864
0.7489 0.7135 0.0000
0.8762 0.6994 0.0000
0.0501 0.0649 0.1958
0.3784 0.0934 0.2684
0.5141 0.0841 0.2492
0.5823 0.0181 0.2192
0.6338 0.0786 0.2452
0.1578 0.2359 0.1946
0.2427 0.2593 0.2106
0.4671 0.2732 0.1949
0.6286 0.2764 0.1715
0.6986 0.2869 0.1507
0.2889 0.3736 0.3162
0.2604 0.3566 0.2517
0.4784 0.4094 0.1724
0.6847 0.3765 0.1338
0.7832 0.3623 0.0304
0.3941 0.5110 0.4386
0.3758 0.5203 0.3838
0.4726 0.6045 0.3501
0.7316 0.5913 0.0000
0.8726 0.5667 0.0000
0.4464 0.5895 0.5010
0.4338 0.6177 0.4433
0.5045 0.6945 0.4505
0.7714 0.7740 0.0000
0.9184 0.7268 0.0000
0.0812 0.1333 0.3321
0.3745 0.1183 0.4125
0.5228 0.1348 0.4240
0.6049 0.1430 0.4162
0.6549 0.1462 0.4245
0.2006 0.2894 0.3334
0.1802 0.2525 0.3838
0.4840 0.2874 0.4418
0.6371 0.2808 0.3986
0.6961 0.2880 0.3530
0.2965 0.3798 0.3814
0.2960 0.3795 0.3825
0.4461 0.4591 0.4547
0.6536 0.4656 0.4299
0.7623 0.4484 0.3865
0.4265 0.5388 0.5102
0.4367 0.5591 0.5070
0.4635 0.5965 0.5035
0.7154 0.6490 0.4170
0.8782 0.6023 0.3886
0.4817 0.6216 0.5640
0.4770 0.6399 0.5350
0.5147 0.7030 0.5272
0.7271 0.8126 0.4581
0.9310 0.7700 0.3353
0.0986 0.1563 0.4108
0.3894 0.1355 0.5027
0.5268 0.1560 0.5383
0.6105 0.1642 0.5413
0.6664 0.1762 0.5646
0.2356 0.3313 0.4417
0.1660 0.2556 0.5067
0.4308 0.2780 0.5768
0.6428 0.2910 0.5944
0.7248 0.3256 0.5798
0.3120 0.4074 0.4788
0.3039 0.4046 0.5165
0.3854 0.4383 0.6082
0.6711 0.4717 0.6546
0.7728 0.4637 0.6001
0.4167 0.5226 0.5474
0.4521 0.5675 0.5888
0.4661 0.5839 0.5979
0.6859 0.7136 0.6869
0.8501 0.6800 0.6390
0.5208 0.6631 0.6419
0.5369 0.6891 0.6476
0.5423 0.7100 0.6359
0.6703 0.8118 0.6682
0.9337 0.8440 0.6174
0.1577 0.2495 0.4813
0.4517 0.1574 0.5804
0.5548 0.1758 0.6157
0.6328 0.1860 0.6378
0.6762 0.1915 0.6509
0.2697 0.3718 0.5232
0.2017 0.2571 0.5893
0.4265 0.2745 0.6460
0.6173 0.2973 0.6860
0.7257 0.3209 0.6965
0.3314 0.4378 0.5632
0.2959 0.4040 0.5827
0.3427 0.3935 0.6726
0.6020 0.4272 0.7262
0.7706 0.4440 0.7360
0.4166 0.5318 0.6121
0.4243 0.5438 0.6351
0.4214 0.5481 0.6678
0.6147 0.6509 0.7784
0.8469 0.6635 0.7971
0.5070 0.6414 0.6745
0.5316 0.6745 0.6999
0.5557 0.7062 0.7211
0.6528 0.7912 0.7682
0.9152 0.9318 0.8600
