Data/LUTs/PRISMO - Rec.709_32.cube
TITLE "PRISMO - Rec.709_32"
LUT_3D_SIZE 32
0.0117 0.0117 0.0117
0.0534 0.0145 0.0099
0.1128 0.0161 0.0060
0.1673 0.0148 0.0008
0.2198 0.0116 0.0000
0.2634 0.0074 0.0000
0.3008 0.0031 0.0000
0.3353 0.0000 0.0000
0.3614 0.0000 0.0000
0.3857 0.0000 0.0000
0.4069 0.0000 0.0000
0.4241 0.0000 0.0000
0.4399 0.0000 0.0000
0.4544 0.0000 0.0000
0.4663 0.0000 0.0000
0.4791 0.0000 0.0000
0.4919 0.0000 0.0000
0.5042 0.0000 0.0000
0.5154 0.0000 0.0000
0.5251 0.0000 0.0000
0.5348 0.0000 0.0000
0.5440 0.0000 0.0000
0.5528 0.0000 0.0000
0.5631 0.0000 0.0000
0.5724 0.0000 0.0000
0.5816 0.0000 0.0000
0.5945 0.0000 0.0000
0.6096 0.0139 0.0000
0.6196 0.0502 0.0000
0.6307 0.0949 0.0000
0.6427 0.1260 0.0000
0.6586 0.1731 0.0000
0.0210 0.0303 0.0098
0.0369 0.0336 0.0089
0.0873 0.0330 0.0064
0.1342 0.0314 0.0028
0.1821 0.0273 0.0000
0.2254 0.0234 0.0000
0.2663 0.0121 0.0000
0.3024 0.0037 0.0000
0.3330 0.0007 0.0000
0.3607 0.0006 0.0000
0.3863 0.0005 0.0000
0.4073 0.0003 0.0000
0.4269 0.0003 0.0000
0.4463 0.0002 0.0000
0.4620 0.0001 0.0000
0.4761 0.0002 0.0000
0.4930 0.0001 0.0000
0.5075 0.0000 0.0000
0.5210 0.0000 0.0000
0.5329 0.0000 0.0000
0.5438 0.0002 0.0000
0.5567 0.0003 0.0000
0.5694 0.0005 0.0000
0.5817 0.0008 0.0000
0.5925 0.0011 0.0000
0.6045 0.0239 0.0000
0.6180 0.0446 0.0000
0.6309 0.0625 0.0000
0.6408 0.0877 0.0000
0.6495 0.1012 0.0000
0.6605 0.1299 0.0000
0.6728 0.1713 0.0000
0.0332 0.0562 0.0071
0.0356 0.0615 0.0076
0.0663 0.0645 0.0045
0.1096 0.0627 0.0020
0.1554 0.0606 0.0000
0.1996 0.0576 0.0000
0.2437 0.0537 0.0000
0.2849 0.0497 0.0000
0.3174 0.0464 0.0000
0.3483 0.0431 0.0000
0.3772 0.0417 0.0000
0.4015 0.0396 0.0000
0.4238 0.0375 0.0000
0.4453 0.0379 0.0000
0.4641 0.0379 0.0000
0.4805 0.0370 0.0000
0.5003 0.0377 0.0000
0.5180 0.0363 0.0000
0.5351 0.0370 0.0000
0.5488 0.0383 0.0000
0.5622 0.0426 0.0000
0.5746 0.0457 0.0000
0.5868 0.0507 0.0000
0.5991 0.0571 0.0000
0.6100 0.0649 0.0000
0.6211 0.0752 0.0000
0.6341 0.0882 0.0000
0.6468 0.1012 0.0000
0.6570 0.1164 0.0000
0.6665 0.1265 0.0000
0.6758 0.1493 0.0000
0.6865 0.1733 0.0000
0.0430 0.0784 0.0135
0.0444 0.0815 0.0145
0.0564 0.0942 0.0086
0.0936 0.0890 0.0000
0.1381 0.0883 0.0000
0.1824 0.0847 0.0000
0.2278 0.0822 0.0000
0.2716 0.0778 0.0000
0.3064 0.0752 0.0000
0.3390 0.0723 0.0000
0.3698 0.0721 0.0000
0.3956 0.0715 0.0000
0.4201 0.0709 0.0000
0.4432 0.0719 0.0000
0.4630 0.0718 0.0000
0.4824 0.0717 0.0000
0.5033 0.0738 0.0000
0.5226 0.0743 0.0000
0.5412 0.0772 0.0000
0.5573 0.0792 0.0000
0.5716 0.0813 0.0000
0.5857 0.0849 0.0000
0.5983 0.0879 0.0000
0.6105 0.0918 0.0000
0.6218 0.0987 0.0000
0.6332 0.1055 0.0000
0.6461 0.1149 0.0000
0.6580 0.1262 0.0000
0.6695 0.1373 0.0000
0.6786 0.1491 0.0000
0.6877 0.1602 0.0000
0.6970 0.1800 0.0000
0.0529 0.1010 0.0196
0.0536 0.1026 0.0200
0.0576 0.1113 0.0213
0.0876 0.1260 0.0022
0.1229 0.1153 0.0000
0.1675 0.1157 0.0000
0.2144 0.1109 0.0000
0.2602 0.1076 0.0000
0.2960 0.1053 0.0000
0.3313 0.1032 0.0000
0.3638 0.1012 0.0000
0.3915 0.1012 0.0000
0.4178 0.1002 0.0000
0.4416 0.1002 0.0000
0.4632 0.1007 0.0000
0.4834 0.1004 0.0000
0.5064 0.1014 0.0000
0.5281 0.1032 0.0000
0.5470 0.1052 0.0000
0.5645 0.1076 0.0000
0.5796 0.1094 0.0000
0.5946 0.1121 0.0000
0.6078 0.1151 0.0000
0.6212 0.1193 0.0000
0.6324 0.1242 0.0000
0.6440 0.1306 0.0000
0.6567 0.1385 0.0000
0.6681 0.1481 0.0000
0.6797 0.1586 0.0000
0.6897 0.1671 0.0000
0.6984 0.1762 0.0000
0.7075 0.1897 0.0000
0.0629 0.1226 0.0248
0.0629 0.1225 0.0244
0.0665 0.1301 0.0257
0.0736 0.1405 0.0233
0.1263 0.1574 0.0002
0.1556 0.1429 0.0000
0.2047 0.1441 0.0000
0.2521 0.1398 0.0000
0.2900 0.1371 0.0000
0.3255 0.1350 0.0000
0.3590 0.1328 0.0000
0.3877 0.1318 0.0000
0.4151 0.1294 0.0000
0.4417 0.1282 0.0000
0.4633 0.1281 0.0000
0.4847 0.1280 0.0000
0.5092 0.1291 0.0000
0.5319 0.1301 0.0000
0.5529 0.1312 0.0000
0.5713 0.1338 0.0000
0.5888 0.1356 0.0000
0.6037 0.1378 0.0000
0.6174 0.1398 0.0000
0.6312 0.1436 0.0000
0.6427 0.1469 0.0000
0.6543 0.1522 0.0000
0.6663 0.1599 0.0000
0.6773 0.1697 0.0000
0.6894 0.1778 0.0000
0.6993 0.1869 0.0000
0.7075 0.1957 0.0000
0.7169 0.2093 0.0000
0.0747 0.1452 0.0309
0.0732 0.1431 0.0294
0.0768 0.1498 0.0310
0.0817 0.1581 0.0322
0.1011 0.1744 0.0211
0.1620 0.1859 0.0000
0.1947 0.1731 0.0000
0.2455 0.1737 0.0000
0.2834 0.1707 0.0000
0.3215 0.1674 0.0000
0.3561 0.1648 0.0000
0.3854 0.1638 0.0000
0.4139 0.1625 0.0000
0.4411 0.1607 0.0000
0.4644 0.1595 0.0000
0.4871 0.1589 0.0000
0.5120 0.1577 0.0000
0.5360 0.1585 0.0000
0.5573 0.1585 0.0000
0.5775 0.1604 0.0000
0.5962 0.1618 0.0000
0.6131 0.1643 0.0000
0.6272 0.1652 0.0000
0.6414 0.1678 0.0000
0.6532 0.1703 0.0000
0.6648 0.1756 0.0000
0.6762 0.1833 0.0000
0.6874 0.1910 0.0000
0.6992 0.1989 0.0000
0.7096 0.2079 0.0000
0.7178 0.2165 0.0000
0.7270 0.2282 0.0000
0.0890 0.1693 0.0402
0.0863 0.1662 0.0368
0.0888 0.1706 0.0377
0.0941 0.1795 0.0395
0.1035 0.1910 0.0411
0.1392 0.2088 0.0162
0.1980 0.2103 0.0000
0.2366 0.2026 0.0000
0.2791 0.2040 0.0000
0.3172 0.2009 0.0000
0.3536 0.1978 0.0000
0.3842 0.1958 0.0000
0.4129 0.1943 0.0000
0.4415 0.1933 0.0000
0.4652 0.1925 0.0000
0.4891 0.1917 0.0000
0.5159 0.1905 0.0000
0.5408 0.1901 0.0000
0.5653 0.1909 0.0000
0.5849 0.1915 0.0000
0.6039 0.1916 0.0000
0.6213 0.1929 0.0000
0.6367 0.1939 0.0000
0.6515 0.1971 0.0000
0.6636 0.1995 0.0000
0.6750 0.2026 0.0000
0.6861 0.2076 0.0000
0.6971 0.2142 0.0000
0.7076 0.2228 0.0000
0.7184 0.2310 0.0000
0.7271 0.2381 0.0000
0.7376 0.2453 0.0000
0.1033 0.1911 0.0516
0.0993 0.1870 0.0460
0.1009 0.1901 0.0457
0.1059 0.1981 0.0479
0.1136 0.2080 0.0517
0.1316 0.2223 0.0429
0.1919 0.2404 0.0011
0.2308 0.2244 0.0000
0.2735 0.2279 0.0000
0.3157 0.2295 0.0000
0.3519 0.2270 0.0000
0.3833 0.2243 0.0000
0.4132 0.2220 0.0000
0.4418 0.2200 0.0000
0.4668 0.2192 0.0000
0.4912 0.2183 0.0000
0.5183 0.2174 0.0000
0.5445 0.2180 0.0000
0.5694 0.2190 0.0000
0.5911 0.2188 0.0000
0.6107 0.2189 0.0000
0.6298 0.2193 0.0000
0.6453 0.2207 0.0000
0.6601 0.2241 0.0000
0.6726 0.2262 0.0000
0.6838 0.2264 0.0000
0.6950 0.2303 0.0000
0.7060 0.2361 0.0000
0.7155 0.2434 0.0000
0.7271 0.2505 0.0000
0.7351 0.2575 0.0000
0.7457 0.2651 0.0000
0.1187 0.2126 0.0649
0.1144 0.2084 0.0583
0.1154 0.2112 0.0569
0.1190 0.2168 0.0586
0.1260 0.2266 0.0616
0.1395 0.2383 0.0646
0.1754 0.2556 0.0369
0.2501 0.2707 0.0000
0.2692 0.2501 0.0000
0.3115 0.2537 0.0000
0.3510 0.2553 0.0000
0.3825 0.2534 0.0000
0.4131 0.2516 0.0000
0.4427 0.2487 0.0000
0.4686 0.2473 0.0000
0.4929 0.2465 0.0000
0.5216 0.2459 0.0000
0.5477 0.2464 0.0000
0.5730 0.2472 0.0000
0.5957 0.2469 0.0000
0.6172 0.2470 0.0000
0.6370 0.2475 0.0000
0.6531 0.2480 0.0000
0.6693 0.2489 0.0000
0.6815 0.2498 0.0000
0.6927 0.2509 0.0000
0.7042 0.2541 0.0000
0.7144 0.2595 0.0000
0.7243 0.2656 0.0000
0.7359 0.2717 0.0000
0.7437 0.2792 0.0000
0.7548 0.2867 0.0000
0.1351 0.2334 0.0804
0.1306 0.2299 0.0732
0.1296 0.2306 0.0689
0.1335 0.2364 0.0709
0.1395 0.2444 0.0736
0.1504 0.2552 0.0797
0.1740 0.2706 0.0703
0.2329 0.2891 0.0156
0.2896 0.2941 0.0000
0.3096 0.2771 0.0000
0.3493 0.2804 0.0000
0.3834 0.2816 0.0000
0.4138 0.2809 0.0000
0.4439 0.2790 0.0000
0.4707 0.2771 0.0000
0.4948 0.2751 0.0000
0.5244 0.2734 0.0000
0.5518 0.2738 0.0000
0.5781 0.2756 0.0000
0.6021 0.2761 0.0000
0.6234 0.2758 0.0000
0.6435 0.2758 0.0000
0.6611 0.2756 0.0000
0.6776 0.2754 0.0000
0.6901 0.2765 0.0000
0.7023 0.2780 0.0000
0.7129 0.2801 0.0000
0.7224 0.2843 0.0000
0.7317 0.2890 0.0000
0.7431 0.2965 0.0000
0.7516 0.3017 0.0000
0.7631 0.3084 0.0000
0.1505 0.2520 0.0962
0.1455 0.2484 0.0878
0.1429 0.2475 0.0812
0.1469 0.2534 0.0829
0.1527 0.2609 0.0863
0.1617 0.2712 0.0913
0.1807 0.2846 0.0952
0.2242 0.3041 0.0638
0.2854 0.3187 0.0017
0.3215 0.3090 0.0000
0.3486 0.3012 0.0000
0.3829 0.3041 0.0000
0.4153 0.3063 0.0000
0.4452 0.3059 0.0000
0.4723 0.3048 0.0000
0.4981 0.3034 0.0000
0.5278 0.3014 0.0000
0.5565 0.2993 0.0000
0.5830 0.3004 0.0000
0.6081 0.3017 0.0000
0.6294 0.3015 0.0000
0.6504 0.3015 0.0000
0.6685 0.3013 0.0000
0.6857 0.3015 0.0000
0.6988 0.3018 0.0000
0.7106 0.3037 0.0000
0.7212 0.3055 0.0000
0.7305 0.3079 0.0000
0.7388 0.3118 0.0000
0.7489 0.3180 0.0000
0.7583 0.3216 0.0000
0.7703 0.3276 0.0000
0.1663 0.2704 0.1131
0.1607 0.2664 0.1036
0.1583 0.2662 0.0964
0.1606 0.2701 0.0962
0.1672 0.2783 0.1007
0.1748 0.2872 0.1046
0.1913 0.2999 0.1142
0.2215 0.3186 0.1014
0.2744 0.3354 0.0504
0.3362 0.3489 0.0000
0.3516 0.3249 0.0000
0.3834 0.3265 0.0000
0.4159 0.3299 0.0000
0.4473 0.3327 0.0000
0.4742 0.3318 0.0000
0.5004 0.3316 0.0000
0.5311 0.3297 0.0000
0.5602 0.3279 0.0000
0.5880 0.3277 0.0000
0.6129 0.3284 0.0000
0.6361 0.3281 0.0000
0.6572 0.3270 0.0000
0.6764 0.3265 0.0000
0.6935 0.3264 0.0000
0.7067 0.3276 0.0000
0.7184 0.3294 0.0000
0.7295 0.3296 0.0000
0.7380 0.3319 0.0000
0.7467 0.3355 0.0000
0.7567 0.3403 0.0000
0.7655 0.3423 0.0000
0.7773 0.3477 0.0000
0.1831 0.2890 0.1324
0.1769 0.2850 0.1213
0.1748 0.2855 0.1136
0.1760 0.2882 0.1120
0.1827 0.2962 0.1170
0.1904 0.3055 0.1218
0.2023 0.3163 0.1290
0.2259 0.3326 0.1322
0.2666 0.3516 0.1030
0.3258 0.3681 0.0218
0.3757 0.3734 0.0000
0.3844 0.3495 0.0000
0.4168 0.3532 0.0000
0.4489 0.3574 0.0000
0.4780 0.3590 0.0000
0.5041 0.3592 0.0000
0.5347 0.3587 0.0000
0.5643 0.3572 0.0000
0.5922 0.3573 0.0000
0.6179 0.3567 0.0000
0.6416 0.3563 0.0000
0.6644 0.3544 0.0000
0.6842 0.3535 0.0000
0.7016 0.3532 0.0000
0.7159 0.3543 0.0000
0.7271 0.3549 0.0000
0.7380 0.3557 0.0000
0.7470 0.3568 0.0000
0.7546 0.3585 0.0000
0.7642 0.3623 0.0000
0.7731 0.3633 0.0000
0.7846 0.3674 0.0000
0.1987 0.3061 0.1509
0.1927 0.3028 0.1391
0.1908 0.3035 0.1313
0.1921 0.3065 0.1295
0.1969 0.3127 0.1328
0.2054 0.3228 0.1391
0.2148 0.3332 0.1438
0.2359 0.3478 0.1544
0.2642 0.3659 0.1414
0.3185 0.3856 0.0930
0.3765 0.4006 0.0034
0.4056 0.3922 0.0000
0.4186 0.3752 0.0000
0.4506 0.3799 0.0000
0.4799 0.3821 0.0000
0.5081 0.3844 0.0000
0.5382 0.3844 0.0000
0.5689 0.3842 0.0000
0.5969 0.3846 0.0000
0.6230 0.3835 0.0000
0.6476 0.3828 0.0000
0.6712 0.3813 0.0000
0.6908 0.3798 0.0000
0.7098 0.3791 0.0000
0.7241 0.3803 0.0000
0.7354 0.3806 0.0000
0.7464 0.3811 0.0000
0.7553 0.3800 0.0000
0.7628 0.3806 0.0000
0.7716 0.3833 0.0000
0.7800 0.3843 0.0000
0.7922 0.3865 0.0000
0.2147 0.3239 0.1703
0.2095 0.3212 0.1595
0.2071 0.3218 0.1509
0.2088 0.3257 0.1486
0.2131 0.3316 0.1505
0.2205 0.3403 0.1575
0.2289 0.3507 0.1615
0.2484 0.3660 0.1741
0.2710 0.3827 0.1728
0.3117 0.4022 0.1440
0.3695 0.4201 0.0756
0.4193 0.4315 0.0000
0.4349 0.4122 0.0000
0.4536 0.4020 0.0000
0.4832 0.4059 0.0000
0.5116 0.4087 0.0000
0.5430 0.4109 0.0000
0.5734 0.4111 0.0000
0.6026 0.4114 0.0000
0.6286 0.4105 0.0000
0.6545 0.4096 0.0000
0.6778 0.4088 0.0000
0.6993 0.4069 0.0000
0.7185 0.4065 0.0000
0.7329 0.4058 0.0000
0.7452 0.4059 0.0000
0.7559 0.4061 0.0000
0.7651 0.4050 0.0000
0.7715 0.4055 0.0000
0.7795 0.4059 0.0000
0.7877 0.4057 0.0000
0.7983 0.4060 0.0000
0.2344 0.3458 0.1951
0.2305 0.3442 0.1866
0.2272 0.3445 0.1757
0.2279 0.3480 0.1711
0.2317 0.3536 0.1721
0.2387 0.3622 0.1796
0.2475 0.3731 0.1870
0.2612 0.3884 0.1949
0.2842 0.4041 0.2042
0.3141 0.4229 0.1884
0.3622 0.4420 0.1487
0.4157 0.4575 0.0655
0.4619 0.4663 0.0000
0.4695 0.4422 0.0000
0.4879 0.4345 0.0000
0.5161 0.4381 0.0000
0.5481 0.4417 0.0000
0.5798 0.4433 0.0000
0.6090 0.4439 0.0000
0.6363 0.4437 0.0000
0.6621 0.4439 0.0000
0.6870 0.4438 0.0000
0.7092 0.4421 0.0000
0.7289 0.4406 0.0000
0.7442 0.4399 0.0000
0.7568 0.4386 0.0000
0.7678 0.4378 0.0000
0.7767 0.4356 0.0000
0.7828 0.4352 0.0000
0.7901 0.4350 0.0000
0.7976 0.4341 0.0000
0.8070 0.4306 0.0000
0.2550 0.3693 0.2218
0.2501 0.3668 0.2117
0.2466 0.3671 0.2003
0.2471 0.3708 0.1947
0.2512 0.3772 0.1955
0.2588 0.3868 0.2034
0.2668 0.3973 0.2121
0.2778 0.4114 0.2177
0.2955 0.4256 0.2299
0.3239 0.4448 0.2252
0.3618 0.4641 0.1995
0.4096 0.4809 0.1523
0.4623 0.4952 0.0395
0.4974 0.4963 0.0000
0.5025 0.4723 0.0000
0.5215 0.4663 0.0000
0.5537 0.4706 0.0000
0.5865 0.4736 0.0000
0.6166 0.4756 0.0000
0.6446 0.4770 0.0000
0.6711 0.4773 0.0000
0.6957 0.4778 0.0000
0.7183 0.4771 0.0000
0.7394 0.4752 0.0000
0.7549 0.4736 0.0000
0.7681 0.4721 0.0000
0.7803 0.4716 0.0000
0.7887 0.4685 0.0000
0.7945 0.4655 0.0000
0.8008 0.4646 0.0000
0.8083 0.4621 0.0000
0.8159 0.4564 0.0000
0.2748 0.3925 0.2482
0.2691 0.3897 0.2363
0.2660 0.3903 0.2256
0.2668 0.3944 0.2204
0.2709 0.4019 0.2195
0.2779 0.4111 0.2267
0.2861 0.4217 0.2357
0.2960 0.4348 0.2418
0.3101 0.4484 0.2506
0.3343 0.4652 0.2571
0.3678 0.4861 0.2384
0.4097 0.5033 0.2041
0.4579 0.5187 0.1468
0.5059 0.5312 0.0126
0.5300 0.5243 0.0000
0.5342 0.5003 0.0000
0.5604 0.4981 0.0000
0.5933 0.5025 0.0000
0.6242 0.5058 0.0000
0.6526 0.5068 0.0000
0.6802 0.5085 0.0000
0.7053 0.5088 0.0000
0.7281 0.5081 0.0000
0.7491 0.5067 0.0000
0.7651 0.5050 0.0000
0.7789 0.5028 0.0000
0.7915 0.5024 0.0000
0.7992 0.4991 0.0000
0.8052 0.4966 0.0000
0.8109 0.4946 0.0000
0.8185 0.4923 0.0000
0.8245 0.4829 0.0000
0.2927 0.4139 0.2723
0.2874 0.4111 0.2611
0.2849 0.4130 0.2511
0.2860 0.4182 0.2462
0.2895 0.4252 0.2433
0.2948 0.4328 0.2478
0.3025 0.4429 0.2566
0.3132 0.4576 0.2636
0.3257 0.4711 0.2711
0.3489 0.4872 0.2819
0.3765 0.5065 0.2693
0.4142 0.5252 0.2432
0.4609 0.5417 0.1983
0.5068 0.5558 0.1278
0.5479 0.5661 0.0056
0.5612 0.5483 0.0000
0.5680 0.5250 0.0000
0.6008 0.5299 0.0000
0.6323 0.5336 0.0000
0.6604 0.5361 0.0000
0.6879 0.5376 0.0000
0.7140 0.5384 0.0000
0.7374 0.5375 0.0000
0.7592 0.5369 0.0000
0.7749 0.5351 0.0000
0.7897 0.5327 0.0000
0.8018 0.5306 0.0000
0.8096 0.5279 0.0000
0.8153 0.5250 0.0000
0.8213 0.5219 0.0000
0.8284 0.5201 0.0000
0.8328 0.5092 0.0000
0.3078 0.4328 0.2923
0.3059 0.4330 0.2869
0.3035 0.4357 0.2766
0.3034 0.4401 0.2692
0.3061 0.4465 0.2660
0.3122 0.4555 0.2702
0.3196 0.4657 0.2781
0.3298 0.4799 0.2858
0.3410 0.4938 0.2912
0.3649 0.5101 0.3039
0.3903 0.5297 0.2972
0.4219 0.5478 0.2780
0.4645 0.5654 0.2437
0.5095 0.5804 0.1927
0.5504 0.5919 0.1086
0.5870 0.5980 0.0000
0.5937 0.5702 0.0000
0.6084 0.5560 0.0000
0.6410 0.5617 0.0000
0.6688 0.5641 0.0000
0.6966 0.5665 0.0000
0.7230 0.5674 0.0000
0.7465 0.5676 0.0000
0.7675 0.5653 0.0000
0.7847 0.5640 0.0000
0.7993 0.5622 0.0000
0.8118 0.5596 0.0000
0.8208 0.5568 0.0000
0.8265 0.5533 0.0000
0.8324 0.5507 0.0000
0.8386 0.5468 0.0000
0.8417 0.5347 0.0000
0.3240 0.4532 0.3144
0.3221 0.4535 0.3086
0.3214 0.4578 0.3015
0.3212 0.4628 0.2932
0.3236 0.4696 0.2882
0.3291 0.4783 0.2908
0.3366 0.4888 0.2992
0.3460 0.5022 0.3063
0.3582 0.5175 0.3122
0.3803 0.5337 0.3266
0.4036 0.5525 0.3251
0.4331 0.5709 0.3080
0.4706 0.5886 0.2805
0.5130 0.6040 0.2402
0.5546 0.6168 0.1828
0.5954 0.6273 0.0484
0.6197 0.6173 0.0000
0.6257 0.5918 0.0000
0.6484 0.5873 0.0000
0.6781 0.5917 0.0000
0.7051 0.5933 0.0000
0.7315 0.5940 0.0000
0.7548 0.5944 0.0000
0.7775 0.5919 0.0000
0.7940 0.5913 0.0000
0.8077 0.5886 0.0000
0.8212 0.5856 0.0000
0.8312 0.5819 0.0000
0.8375 0.5792 0.0000
0.8442 0.5793 0.0000
0.8498 0.5779 0.0000
0.8524 0.5632 0.0000
0.3399 0.4728 0.3357
0.3382 0.4743 0.3307
0.3380 0.4790 0.3238
0.3388 0.4851 0.3180
0.3392 0.4904 0.3090
0.3437 0.4981 0.3101
0.3500 0.5072 0.3165
0.3615 0.5237 0.3253
0.3724 0.5380 0.3304
0.3943 0.5540 0.3445
0.4169 0.5724 0.3449
0.4425 0.5906 0.3326
0.4791 0.6087 0.3070
0.5185 0.6244 0.2734
0.5578 0.6379 0.2299
0.5990 0.6498 0.1575
0.6410 0.6576 0.0038
0.6485 0.6311 0.0000
0.6569 0.6097 0.0000
0.6834 0.6127 0.0000
0.7117 0.6155 0.0000
0.7373 0.6171 0.0000
0.7624 0.6173 0.0000
0.7834 0.6151 0.0000
0.8003 0.6129 0.0000
0.8153 0.6114 0.0000
0.8285 0.6080 0.0000
0.8393 0.6045 0.0000
0.8468 0.6029 0.0000
0.8533 0.6017 0.0000
0.8592 0.6012 0.0000
0.8615 0.5923 0.0000
0.3526 0.4901 0.3526
0.3530 0.4927 0.3508
0.3531 0.4983 0.3448
0.3520 0.5030 0.3351
0.3532 0.5090 0.3282
0.3583 0.5182 0.3286
0.3660 0.5297 0.3361
0.3756 0.5436 0.3436
0.3869 0.5584 0.3482
0.4076 0.5743 0.3622
0.4297 0.5926 0.3657
0.4541 0.6106 0.3540
0.4860 0.6279 0.3333
0.5233 0.6442 0.3046
0.5616 0.6580 0.2679
0.6018 0.6706 0.2126
0.6481 0.6831 0.0786
0.6720 0.6724 0.0000
0.6756 0.6451 0.0000
0.6909 0.6349 0.0000
0.7178 0.6370 0.0000
0.7446 0.6388 0.0000
0.7680 0.6391 0.0000
0.7906 0.6383 0.0000
0.8071 0.6359 0.0000
0.8220 0.6329 0.0000
0.8358 0.6296 0.0000
0.8468 0.6269 0.0000
0.8545 0.6247 0.0000
0.8614 0.6233 0.0000
0.8669 0.6233 0.0000
0.8702 0.6166 0.0000
0.3644 0.5051 0.3691
0.3645 0.5083 0.3662
0.3646 0.5138 0.3608
0.3650 0.5194 0.3539
0.3659 0.5265 0.3451
0.3704 0.5354 0.3445
0.3771 0.5452 0.3508
0.3875 0.5605 0.3583
0.3981 0.5748 0.3622
0.4184 0.5909 0.3762
0.4402 0.6084 0.3804
0.4623 0.6259 0.3720
0.4934 0.6446 0.3537
0.5284 0.6608 0.3282
0.5641 0.6742 0.2959
0.6038 0.6868 0.2500
0.6487 0.7000 0.1690
0.6871 0.7045 0.0087
0.6934 0.6766 0.0000
0.6963 0.6534 0.0000
0.7221 0.6547 0.0000
0.7477 0.6562 0.0000
0.7725 0.6565 0.0000
0.7943 0.6564 0.0000
0.8130 0.6552 0.0000
0.8270 0.6512 0.0000
0.8411 0.6473 0.0000
0.8530 0.6443 0.0000
0.8608 0.6436 0.0000
0.8688 0.6428 0.0000
0.8744 0.6415 0.0000
0.8776 0.6369 0.0000
0.3741 0.5182 0.3817
0.3756 0.5232 0.3807
0.3757 0.5288 0.3751
0.3750 0.5337 0.3669
0.3764 0.5411 0.3596
0.3805 0.5498 0.3576
0.3875 0.5600 0.3633
0.3966 0.5741 0.3703
0.4071 0.5883 0.3739
0.4266 0.6042 0.3873
0.4473 0.6209 0.3938
0.4684 0.6379 0.3862
0.4954 0.6547 0.3703
0.5276 0.6709 0.3488
0.5626 0.6853 0.3205
0.6005 0.6979 0.2813
0.6458 0.7114 0.2158
0.6913 0.7222 0.0558
0.7061 0.7023 0.0000
0.7108 0.6799 0.0000
0.7228 0.6677 0.0000
0.7503 0.6706 0.0000
0.7739 0.6707 0.0000
0.7957 0.6697 0.0000
0.8138 0.6688 0.0000
0.8300 0.6665 0.0000
0.8458 0.6636 0.0000
0.8574 0.6611 0.0000
0.8657 0.6597 0.0000
0.8738 0.6583 0.0000
0.8807 0.6582 0.0000
0.8850 0.6553 0.0000
0.3852 0.5325 0.3970
0.3859 0.5367 0.3951
0.3863 0.5426 0.3897
0.3854 0.5471 0.3814
0.3868 0.5552 0.3732
0.3905 0.5638 0.3708
0.3964 0.5729 0.3752
0.4059 0.5874 0.3822
0.4155 0.6010 0.3852
0.4330 0.6160 0.3973
0.4545 0.6330 0.4060
0.4725 0.6482 0.4016
0.4969 0.6651 0.3884
0.5265 0.6813 0.3697
0.5579 0.6950 0.3465
0.5942 0.7081 0.3135
0.6391 0.7221 0.2596
0.6841 0.7332 0.1707
0.7195 0.7333 0.0007
0.7241 0.7089 0.0000
0.7276 0.6872 0.0000
0.7487 0.6840 0.0000
0.7724 0.6852 0.0000
0.7962 0.6850 0.0000
0.8154 0.6843 0.0000
0.8326 0.6820 0.0000
0.8491 0.6793 0.0000
0.8615 0.6767 0.0000
0.8708 0.6747 0.0000
0.8790 0.6739 0.0000
0.8867 0.6742 0.0000
0.8928 0.6730 0.0000
0.3934 0.5437 0.4079
0.3951 0.5489 0.4074
0.3957 0.5555 0.4023
0.3941 0.5597 0.3929
0.3947 0.5668 0.3841
0.3985 0.5752 0.3808
0.4043 0.5848 0.3852
0.4130 0.5977 0.3916
0.4217 0.6107 0.3937
0.4373 0.6245 0.4038
0.4564 0.6389 0.4143
0.4732 0.6537 0.4128
0.4949 0.6699 0.4028
0.5205 0.6851 0.3871
0.5489 0.6990 0.3681
0.5816 0.7120 0.3409
0.6250 0.7266 0.2967
0.6702 0.7393 0.2325
0.7157 0.7502 0.0965
0.7342 0.7373 0.0000
0.7384 0.7144 0.0000
0.7446 0.6951 0.0000
0.7702 0.6957 0.0000
0.7944 0.6966 0.0000
0.8139 0.6955 0.0000
0.8328 0.6949 0.0000
0.8498 0.6928 0.0000
0.8638 0.6906 0.0000
0.8742 0.6890 0.0000
0.8829 0.6880 0.0000
0.8910 0.6875 0.0000
0.8983 0.6854 0.0000
0.4018 0.5541 0.4199
0.4030 0.5595 0.4181
0.4019 0.5645 0.4106
0.4011 0.5693 0.4025
