Data/LUTs/Vision 4 - Rec.709_32.cube
TITLE "Vision 4 - Rec.709_32"
LUT_3D_SIZE 5
DOMAIN_MIN 0.000000 0.000000 0.000000
DOMAIN_MAX 0.903226 0.903226 0.903226
0.0267 0.0002 0.0024
0.2235 0.0361 0.0000
0.4945 0.0643 0.0000
0.7655 0.1149 0.0000
0.9640 0.1605 0.0000
0.0248 0.1861 0.0177
0.2133 0.1455 0.0000
0.4977 0.1967 0.0000
0.7687 0.1827 0.0000
0.9656 0.1967 0.0000
0.0251 0.4084 0.0399
0.2297 0.4061 0.0490
0.4742 0.3150 0.0000
0.7602 0.3900 0.0000
0.9645 0.4428 0.0000
0.0141 0.6758 0.0244
0.2397 0.6750 0.0333
0.5026 0.6933 0.0000
0.7345 0.5291 0.0000
0.9542 0.5752 0.0000
0.0081 0.8894 0.0000
0.2581 0.8892 0.0000
0.5229 0.8915 0.0000
0.7832 0.9268 0.0000
0.9238 0.7250 0.0000
0.0403 0.1165 0.2084
0.1920 0.0383 0.2026
0.4761 0.0000 0.1533
0.7641 0.0000 0.0000
0.9638 0.0000 0.0000
0.0188 0.1754 0.1967
0.1992 0.2000 0.2070
0.4667 0.2558 0.2103
0.7505 0.3059 0.1730
0.9575 0.3485 0.0167
0.0149 0.4119 0.1608
0.2082 0.3999 0.1908
0.4493 0.3676 0.1815
0.7523 0.4502 0.0000
0.9623 0.4132 0.0000
0.0113 0.6780 0.0595
0.2150 0.6732 0.1764
0.4757 0.6762 0.1565
0.7231 0.5866 0.0000
0.9426 0.6735 0.0000
0.0081 0.8903 0.0000
0.2238 0.8890 0.1431
0.5056 0.8853 0.1346
0.7494 0.9163 0.0000
0.9164 0.7743 0.0000
0.0383 0.2405 0.4428
0.1073 0.0982 0.4238
0.4386 0.0970 0.4257
0.7229 0.0953 0.3586
0.9357 0.0000 0.3127
0.0114 0.3046 0.4291
0.1636 0.3027 0.4261
0.4260 0.2219 0.4171
0.7256 0.2215 0.3825
0.9489 0.1716 0.2647
0.0098 0.3853 0.4192
0.1617 0.3906 0.4084
0.4390 0.4420 0.4356
0.7200 0.5200 0.4450
0.9373 0.5865 0.4288
0.0042 0.6825 0.3993
0.0847 0.6768 0.3796
0.4525 0.6621 0.4194
0.7004 0.6476 0.4150
0.9311 0.7376 0.3503
0.0020 0.8931 0.3256
0.0036 0.8908 0.3159
0.4934 0.8823 0.4239
0.7196 0.8935 0.3986
0.9034 0.8303 0.3442
0.0754 0.3663 0.6848
0.1319 0.2329 0.6844
0.2441 0.1889 0.6393
0.7021 0.1696 0.6485
0.9063 0.1806 0.5853
0.0031 0.4804 0.6699
0.0279 0.4418 0.6758
0.2873 0.2690 0.6425
0.6979 0.2546 0.6467
0.9079 0.2573 0.6040
0.0029 0.5045 0.6584
0.0023 0.5445 0.6550
0.3916 0.5416 0.6385
0.6837 0.4648 0.6376
0.9100 0.4785 0.6325
0.0012 0.6428 0.6488
0.0053 0.6509 0.6430
0.3918 0.6545 0.6286
0.6849 0.7001 0.6513
0.9108 0.7854 0.6749
0.0000 0.8950 0.6525
0.0000 0.8928 0.6363
0.3890 0.8846 0.6175
0.6978 0.8755 0.6417
0.8919 0.8831 0.6541
0.0675 0.4906 0.8407
0.1552 0.3379 0.8478
0.2380 0.2353 0.8132
0.4641 0.2517 0.8063
0.8963 0.2241 0.8009
0.0001 0.6225 0.8252
0.0003 0.5654 0.8327
0.2807 0.3439 0.8274
0.4770 0.3105 0.7985
0.8948 0.2866 0.8002
0.0000 0.6736 0.8132
0.0000 0.7057 0.8113
0.3613 0.6671 0.8051
0.5457 0.4935 0.7827
0.8849 0.4967 0.7956
0.0000 0.6948 0.8040
0.0000 0.7217 0.8007
0.3447 0.7583 0.7833
0.6389 0.7539 0.7716
0.8739 0.7338 0.7924
0.0000 0.8504 0.7963
0.0000 0.8590 0.7939
0.3607 0.8676 0.7874
0.6593 0.8730 0.7827
0.8786 0.9189 0.8042
