Data/LUTs/Vision X - Rec.709_32.cube
TITLE "Vision X - Rec.709_32"
LUT_3D_SIZE 5
DOMAIN_MIN 0.000000 0.000000 0.000000
DOMAIN_MAX 0.903226 0.903226 0.903226
0.0674 0.0674 0.0751
0.2600 0.1060 0.1056
0.4161 0.1431 0.1400
0.5992 0.1838 0.1790
0.7043 0.2253 0.2117
0.0725 0.1390 0.0884
0.1981 0.1888 0.1045
0.3983 0.1969 0.1434
0.6470 0.2241 0.1939
0.7822 0.2699 0.2352
0.1042 0.2614 0.1365
0.2106 0.3126 0.1349
0.4117 0.3394 0.1682
0.6608 0.3553 0.2255
0.8207 0.3783 0.2728
0.1651 0.4378 0.2073
0.2551 0.5125 0.1903
0.5141 0.5783 0.2267
0.7135 0.5806 0.2728
0.8696 0.6163 0.3304
0.2099 0.5803 0.2380
0.2912 0.6264 0.2286
0.5437 0.6873 0.2647
0.7790 0.7407 0.3105
0.8936 0.7286 0.3530
0.0799 0.0800 0.2319
0.2878 0.1215 0.2630
0.5150 0.1465 0.2646
0.6373 0.1753 0.2248
0.6906 0.2071 0.2189
0.0773 0.1674 0.1990
0.1991 0.1962 0.2295
0.3901 0.1992 0.1929
0.6195 0.2444 0.2185
0.7097 0.3119 0.2636
0.1159 0.3007 0.2432
0.1263 0.2967 0.1854
0.4115 0.3652 0.1881
0.6660 0.3716 0.2412
0.8074 0.3747 0.2751
0.1705 0.4750 0.2821
0.2050 0.5113 0.2145
0.4347 0.5705 0.2286
0.7236 0.6000 0.2774
0.8795 0.6304 0.3366
0.2100 0.5897 0.2764
0.2823 0.6335 0.2513
0.5914 0.7068 0.2802
0.7543 0.7473 0.3130
0.8984 0.7528 0.3561
0.0876 0.1158 0.3280
0.2512 0.1364 0.3449
0.4765 0.1738 0.3861
0.6514 0.2012 0.4076
0.7368 0.2243 0.3741
0.0988 0.2347 0.3346
0.1475 0.2058 0.3628
0.4206 0.2395 0.3838
0.6576 0.2343 0.3544
0.7353 0.2696 0.3307
0.1306 0.3377 0.3634
0.1290 0.3330 0.3600
0.3495 0.3841 0.3965
0.6148 0.3965 0.3648
0.7701 0.4537 0.3797
0.1847 0.5326 0.3989
0.1851 0.5339 0.3702
0.3054 0.5683 0.3614
0.6766 0.6445 0.3317
0.8759 0.6411 0.3680
0.2173 0.6260 0.3615
0.2157 0.6162 0.3329
0.5215 0.7238 0.3602
0.7195 0.7709 0.3619
0.9038 0.7784 0.3635
0.0971 0.1589 0.4459
0.2667 0.1524 0.4949
0.3883 0.1849 0.4948
0.6170 0.2237 0.5303
0.7209 0.2804 0.5786
0.1221 0.2913 0.4748
0.1358 0.2348 0.5255
0.3529 0.2608 0.5497
0.6309 0.2909 0.5539
0.7480 0.3268 0.5506
0.1521 0.3860 0.5164
0.1533 0.3834 0.5468
0.3144 0.4038 0.5826
0.6329 0.4306 0.5942
0.8024 0.4281 0.5440
0.1949 0.5665 0.5575
0.1982 0.5767 0.5655
0.2527 0.5913 0.5735
0.6620 0.6964 0.6557
0.8389 0.7189 0.6589
0.2351 0.6840 0.5443
0.2301 0.6700 0.5188
0.2789 0.7103 0.5194
0.7181 0.8427 0.6157
0.9154 0.8596 0.5709
0.1069 0.1780 0.5686
0.2696 0.1640 0.6003
0.3958 0.2099 0.6076
0.5795 0.2353 0.6070
0.7147 0.2868 0.6447
0.1358 0.3165 0.5844
0.1660 0.2825 0.6282
0.3520 0.2896 0.6511
0.5441 0.3365 0.6265
0.7247 0.3475 0.6430
0.1658 0.4185 0.6219
0.1687 0.4246 0.6467
0.3549 0.4883 0.6861
0.5989 0.4649 0.6826
0.7676 0.4520 0.6883
0.2054 0.5846 0.6631
0.2053 0.5850 0.6614
0.2998 0.6356 0.6954
0.6662 0.7336 0.7727
0.8625 0.7058 0.7845
0.2461 0.7221 0.6949
0.2408 0.7042 0.6695
0.2777 0.7500 0.6990
0.6051 0.8578 0.7780
0.9096 0.9416 0.8343
