Data/LUTs/Vision X - Rec.709_32.cube
TITLE "Vision X - Rec.709_32"
LUT_3D_SIZE 8
DOMAIN_MIN 0.000000 0.000000 0.000000
DOMAIN_MAX 0.903226 0.903226 0.903226
0.0674 0.0674 0.0751
0.1674 0.0881 0.0901
0.2837 0.1113 0.1106
0.3652 0.1313 0.1294
0.4721 0.1548 0.1509
0.5779 0.1781 0.1736
0.6481 0.1987 0.1924
0.7043 0.2253 0.2117
0.0696 0.1027 0.0796
0.1216 0.1225 0.0860
0.2365 0.1403 0.1041
0.3424 0.1547 0.1270
0.4765 0.1766 0.1530
0.6082 0.2006 0.1816
0.6981 0.2203 0.2054
0.7500 0.2449 0.2235
0.0736 0.1531 0.0932
0.1140 0.1770 0.0948
0.2289 0.2128 0.1118
0.3327 0.2141 0.1342
0.4700 0.2185 0.1594
0.6190 0.2337 0.1910
0.7248 0.2513 0.2173
0.7891 0.2784 0.2388
0.0902 0.2219 0.1198
0.1199 0.2481 0.1132
0.2355 0.2834 0.1290
0.3401 0.2996 0.1473
0.4715 0.3079 0.1769
0.6225 0.3151 0.2073
0.7350 0.3254 0.2393
0.8072 0.3398 0.2613
0.1194 0.3008 0.1546
0.1312 0.3163 0.1364
0.2548 0.3685 0.1536
0.3805 0.4023 0.1727
0.5006 0.3978 0.1936
0.6406 0.4119 0.2339
0.7590 0.4231 0.2640
0.8402 0.4426 0.2890
0.1563 0.4072 0.1977
0.1650 0.4207 0.1686
0.2926 0.5004 0.1889
0.4167 0.5309 0.2067
0.6042 0.5768 0.2347
0.6745 0.5450 0.2563
0.7879 0.5702 0.2995
0.8644 0.5861 0.3220
0.1892 0.5200 0.2295
0.1981 0.5340 0.2026
0.3210 0.5967 0.2194
0.4766 0.6352 0.2426
0.6285 0.6641 0.2640
0.7612 0.6844 0.2962
0.8131 0.6630 0.3175
0.8821 0.6794 0.3474
0.2099 0.5803 0.2380
0.2204 0.5930 0.2225
0.3247 0.6386 0.2343
0.4763 0.6766 0.2568
0.6199 0.7050 0.2775
0.7537 0.7434 0.3070
0.8560 0.7431 0.3391
0.8936 0.7286 0.3530
0.0743 0.0743 0.1625
0.1909 0.0935 0.1772
0.3345 0.1105 0.1878
0.4348 0.1249 0.1724
0.5179 0.1480 0.1750
0.5939 0.1694 0.1851
0.6439 0.1858 0.1938
0.6857 0.2140 0.2104
0.0719 0.1109 0.1322
0.1417 0.1333 0.1517
0.2547 0.1399 0.1421
0.3532 0.1570 0.1512
0.4766 0.1782 0.1694
0.5908 0.1995 0.1896
0.6591 0.2160 0.2053
0.7021 0.2463 0.2220
0.0753 0.1704 0.1467
0.0895 0.1782 0.1297
0.2432 0.2248 0.1325
0.3486 0.2140 0.1519
0.4846 0.2255 0.1745
0.6212 0.2453 0.2004
0.7122 0.2627 0.2216
0.7609 0.2862 0.2387
0.0949 0.2396 0.1638
0.0976 0.2441 0.1365
0.2283 0.2872 0.1415
0.3557 0.3126 0.1559
0.4909 0.3135 0.1827
0.6340 0.3202 0.2134
0.7420 0.3253 0.2424
0.7986 0.3360 0.2600
0.1203 0.3117 0.1901
0.1303 0.3254 0.1588
0.2423 0.3694 0.1581
0.3675 0.4036 0.1753
0.5205 0.4139 0.1996
0.6482 0.4197 0.2371
0.7668 0.4302 0.2674
0.8440 0.4349 0.2892
0.1565 0.4155 0.2244
0.1714 0.4511 0.1917
0.2982 0.5239 0.1963
0.4061 0.5371 0.2084
0.5973 0.5806 0.2348
0.6858 0.5573 0.2606
0.7898 0.5744 0.3009
0.8784 0.5966 0.3278
0.1878 0.5199 0.2448
0.2055 0.5595 0.2181
0.3363 0.6210 0.2289
0.4993 0.6511 0.2494
0.6196 0.6671 0.2642
0.7574 0.6873 0.2943
0.8210 0.6718 0.3214
0.8860 0.6931 0.3489
0.2088 0.5804 0.2499
0.2276 0.6066 0.2304
0.3464 0.6524 0.2409
0.5264 0.6926 0.2657
0.6272 0.7113 0.2807
0.7400 0.7394 0.3038
0.8494 0.7423 0.3356
0.8970 0.7435 0.3547
0.0814 0.0821 0.2501
0.1878 0.1064 0.2550
0.3141 0.1299 0.2825
0.4671 0.1498 0.3033
0.5597 0.1566 0.2839
0.6340 0.1693 0.2534
0.6746 0.1889 0.2410
0.6971 0.2079 0.2317
0.0792 0.1386 0.2234
0.1238 0.1333 0.2517
0.2694 0.1572 0.2612
0.3989 0.1657 0.2532
0.5208 0.1693 0.2280
0.6131 0.1859 0.2193
0.6678 0.2006 0.2194
0.6956 0.2142 0.2215
0.0824 0.1923 0.2271
0.0842 0.1938 0.2305
0.2157 0.2214 0.2557
0.3394 0.2255 0.2307
0.4547 0.2289 0.2157
0.5937 0.2581 0.2289
0.6748 0.2864 0.2476
0.7148 0.3367 0.2874
0.1052 0.2710 0.2514
0.1033 0.2655 0.2342
0.1479 0.2830 0.2213
0.3282 0.3224 0.2049
0.4723 0.3237 0.2272
0.6181 0.3312 0.2390
0.7159 0.3463 0.2574
0.7673 0.3630 0.2751
0.1331 0.3488 0.2771
0.1284 0.3347 0.2477
0.1461 0.3405 0.2080
0.3099 0.3920 0.2076
0.4995 0.4432 0.2128
0.6460 0.4445 0.2484
0.7649 0.4423 0.2762
0.8341 0.4251 0.2905
0.1655 0.4626 0.2966
0.1606 0.4388 0.2639
0.2050 0.4832 0.2209
0.3451 0.5262 0.2226
0.5156 0.5638 0.2393
0.6869 0.5785 0.2634
0.7984 0.5944 0.3088
0.8778 0.5994 0.3300
0.1930 0.5471 0.2981
0.1917 0.5369 0.2686
0.2580 0.5937 0.2404
0.4400 0.6425 0.2508
0.5498 0.6529 0.2649
0.7233 0.6922 0.2913
0.8370 0.6910 0.3283
0.8873 0.7010 0.3505
0.2108 0.5943 0.2886
0.2110 0.5889 0.2625
0.3079 0.6448 0.2654
0.5180 0.6934 0.2772
0.6156 0.7120 0.2927
0.7147 0.7416 0.3095
0.8365 0.7552 0.3344
0.8997 0.7566 0.3564
0.0857 0.1081 0.3036
0.1920 0.1148 0.3168
0.2691 0.1299 0.3149
0.4258 0.1611 0.3514
0.5533 0.1766 0.3716
0.6388 0.1878 0.3619
0.6964 0.1966 0.3353
0.7299 0.2115 0.3199
0.0853 0.1707 0.2988
0.1188 0.1429 0.3210
0.2375 0.1656 0.3246
0.3775 0.1827 0.3375
0.5357 0.1974 0.3523
0.6389 0.2001 0.3356
0.7028 0.2042 0.3108
0.7270 0.2177 0.2962
0.0964 0.2315 0.3064
0.0924 0.2148 0.3079
0.1727 0.2217 0.3335
0.3328 0.2396 0.3389
0.5070 0.2505 0.3383
0.6203 0.2378 0.3016
0.6882 0.2470 0.2826
0.7191 0.2921 0.2989
0.1141 0.2922 0.3188
0.1125 0.2875 0.3174
0.1336 0.2961 0.3236
0.3010 0.3273 0.3491
0.4608 0.3408 0.3394
0.5800 0.3428 0.3197
0.6870 0.3789 0.3358
0.7509 0.4052 0.3462
0.1418 0.3773 0.3471
0.1417 0.3771 0.3403
0.1397 0.3698 0.3217
0.2287 0.4090 0.3211
0.4367 0.4538 0.3018
0.6266 0.4629 0.3338
0.7474 0.4576 0.3281
0.8162 0.4539 0.3270
0.1739 0.4947 0.3603
0.1737 0.4938 0.3496
0.1703 0.4811 0.3177
0.2382 0.5065 0.3072
0.4187 0.5589 0.3038
0.6528 0.6059 0.2900
0.7874 0.6138 0.3215
0.8709 0.6005 0.3406
0.1990 0.5759 0.3533
0.1991 0.5733 0.3386
0.1989 0.5619 0.3038
0.3390 0.6216 0.3281
0.5031 0.6532 0.3147
0.6617 0.6895 0.3182
0.8238 0.7063 0.3307
0.8891 0.7085 0.3550
0.2153 0.6159 0.3359
0.2139 0.6083 0.3177
0.2229 0.6129 0.3065
0.4334 0.6936 0.3281
0.6144 0.7298 0.3278
0.6910 0.7526 0.3326
0.8289 0.7769 0.3463
0.9023 0.7711 0.3601
0.0897 0.1277 0.3535
0.1879 0.1198 0.3782
0.2718 0.1470 0.3791
0.3514 0.1540 0.3867
0.5161 0.1876 0.4233
0.6247 0.2069 0.4529
0.6914 0.2233 0.4540
0.7375 0.2416 0.4397
0.0905 0.1964 0.3549
0.1129 0.1566 0.3895
0.2448 0.1733 0.4086
0.3290 0.1970 0.3991
0.5000 0.2123 0.4233
0.6320 0.2281 0.4445
0.7069 0.2355 0.4390
0.7460 0.2439 0.4087
0.1089 0.2653 0.3701
0.1047 0.2471 0.3828
0.1572 0.2372 0.4117
0.3095 0.2530 0.4272
0.4880 0.2747 0.4410
0.6363 0.2731 0.4270
0.7166 0.2677 0.3892
0.7509 0.2992 0.3737
0.1264 0.3197 0.3894
0.1260 0.3167 0.3986
0.1323 0.3122 0.4081
0.2606 0.3268 0.4460
0.4390 0.3416 0.4515
0.6289 0.3548 0.4294
0.7066 0.3557 0.3874
0.7573 0.3619 0.3684
0.1473 0.3920 0.4141
0.1475 0.3926 0.4147
0.1472 0.3914 0.4162
0.2163 0.4181 0.4338
0.4155 0.4663 0.4612
0.6137 0.4920 0.4524
0.7144 0.5009 0.4356
0.7913 0.5300 0.4385
0.1813 0.5213 0.4462
0.1823 0.5246 0.4423
0.1838 0.5296 0.4309
0.1968 0.5348 0.4154
0.3622 0.5924 0.4312
0.6245 0.6276 0.3978
0.7740 0.6404 0.4548
0.8646 0.6243 0.4341
0.2079 0.6060 0.4377
0.2084 0.6075 0.4253
0.2070 0.6033 0.3981
0.2256 0.6061 0.3897
0.4346 0.6795 0.4204
0.6219 0.7119 0.3955
0.7954 0.7378 0.3767
0.8927 0.7322 0.4013
0.2211 0.6412 0.3999
0.2204 0.6376 0.3839
0.2190 0.6311 0.3664
0.2637 0.6632 0.3649
0.5885 0.7559 0.4118
0.7023 0.7831 0.4099
0.8084 0.8082 0.4182
0.9054 0.7890 0.3725
0.0956 0.1523 0.4267
0.1725 0.1245 0.4596
0.2878 0.1576 0.4747
0.3408 0.1731 0.4756
0.4664 0.1804 0.4824
0.5987 0.2169 0.5112
0.6759 0.2419 0.5320
0.7255 0.2753 0.5623
0.1022 0.2247 0.4364
0.1031 0.1730 0.4793
0.2582 0.1820 0.5165
0.3272 0.2085 0.5084
0.4363 0.2227 0.4966
0.6037 0.2422 0.5207
0.6929 0.2626 0.5398
0.7386 0.2857 0.5524
0.1234 0.2985 0.4597
0.1219 0.2877 0.4897
0.1518 0.2537 0.5128
0.2912 0.2568 0.5339
0.4191 0.2823 0.5272
0.6135 0.3025 0.5413
0.7082 0.3101 0.5331
0.7570 0.3353 0.5160
0.1403 0.3482 0.4819
0.1423 0.3503 0.5082
0.1396 0.3357 0.5201
0.2458 0.3436 0.5478
0.4006 0.3530 0.5591
0.6136 0.3797 0.5640
0.7206 0.3902 0.5425
0.7876 0.3796 0.4976
0.1605 0.4261 0.5094
0.1635 0.4364 0.5241
0.1629 0.4309 0.5321
0.2031 0.4366 0.5423
0.3903 0.4782 0.5799
0.6038 0.4855 0.5881
0.7519 0.5028 0.5765
0.8056 0.4939 0.5184
0.1849 0.5337 0.5303
0.1876 0.5427 0.5362
0.1886 0.5462 0.5403
0.1968 0.5455 0.5381
0.3546 0.6009 0.5740
0.6206 0.6561 0.6162
0.7634 0.6844 0.6331
0.8281 0.6831 0.6161
0.2177 0.6349 0.5462
0.2187 0.6377 0.5443
0.2172 0.6335 0.5302
0.2220 0.6276 0.5208
0.3506 0.6876 0.5529
0.5878 0.7574 0.5952
0.7777 0.7830 0.5770
0.8917 0.7869 0.6332
0.2322 0.6760 0.5149
0.2313 0.6733 0.5062
0.2271 0.6617 0.4827
0.2414 0.6835 0.4764
0.3930 0.7376 0.4957
0.6956 0.8256 0.5742
0.7975 0.8487 0.5715
0.9143 0.8415 0.5071
0.1018 0.1751 0.5054
0.1682 0.1368 0.5328
0.2886 0.1640 0.5538
0.3510 0.1866 0.5582
0.4360 0.2032 0.5497
0.5701 0.2103 0.5628
0.6646 0.2450 0.5857
0.7148 0.2860 0.6099
0.1110 0.2413 0.5160
0.1083 0.1907 0.5557
0.2606 0.1843 0.5942
0.3421 0.2145 0.5937
0.4059 0.2356 0.5826
0.5657 0.2443 0.5773
0.6777 0.2689 0.5972
0.7263 0.3044 0.6107
0.1347 0.3209 0.5395
0.1357 0.3179 0.5749
0.1557 0.2732 0.5914
0.2879 0.2697 0.6104
0.3913 0.2977 0.6101
0.5520 0.3148 0.5944
0.6886 0.3275 0.6100
0.7425 0.3603 0.6067
0.1520 0.3747 0.5621
0.1554 0.3812 0.5922
0.1495 0.3551 0.6028
0.2698 0.3771 0.6161
0.3886 0.3669 0.6325
0.5627 0.3977 0.6168
0.7001 0.4070 0.6292
0.7740 0.4172 0.6323
0.1697 0.4480 0.5839
0.1754 0.4690 0.6074
0.1736 0.4580 0.6147
0.2197 0.4714 0.6199
0.3888 0.5033 0.6609
0.5911 0.5207 0.6681
0.7265 0.5073 0.6731
0.8194 0.5249 0.6645
0.1946 0.5547 0.6106
0.1989 0.5689 0.6234
0.1974 0.5630 0.6238
0.2147 0.5673 0.6230
0.3597 0.6165 0.6631
0.6060 0.6668 0.7143
0.7573 0.6635 0.7268
0.8565 0.6755 0.7087
0.2224 0.6485 0.6281
0.2245 0.6547 0.6316
0.2234 0.6515 0.6265
0.2273 0.6430 0.6178
0.3434 0.6969 0.6603
0.5666 0.7655 0.7157
0.7766 0.8152 0.7567
0.8877 0.8436 0.7823
0.2428 0.7079 0.6264
0.2417 0.7043 0.6193
0.2361 0.6873 0.5944
0.2490 0.7111 0.6104
0.3460 0.7598 0.6444
0.5695 0.8270 0.6895
0.7839 0.8917 0.7380
0.9069 0.9053 0.7300
0.1069 0.1780 0.5686
0.1754 0.1480 0.5868
0.2945 0.1719 0.6010
0.3646 0.1973 0.6071
0.4335 0.2211 0.6053
0.5544 0.2346 0.6047
0.6522 0.2473 0.6197
0.7147 0.2868 0.6447
0.1165 0.2502 0.5713
0.1251 0.2128 0.6055
0.2664 0.1971 0.6320
0.3582 0.2267 0.6344
0.4103 0.2532 0.6325
0.5338 0.2752 0.6167
0.6524 0.2759 0.6276
0.7216 0.3051 0.6465
0.1407 0.3315 0.5887
0.1388 0.3212 0.6142
0.1839 0.3074 0.6352
0.2970 0.3023 0.6492
0.4009 0.3250 0.6522
0.5173 0.3472 0.6376
0.6383 0.3514 0.6365
0.7287 0.3643 0.6478
0.1575 0.3854 0.6110
0.1590 0.3871 0.6278
0.1645 0.3783 0.6453
0.2987 0.4248 0.6665
0.3991 0.3826 0.6782
0.5501 0.4075 0.6663
0.6587 0.4108 0.6631
0.7511 0.4193 0.6729
0.1762 0.4648 0.6352
0.1805 0.4810 0.6493
0.1794 0.4740 0.6546
0.2538 0.5222 0.6709
0.4203 0.5509 0.7070
0.5838 0.5257 0.7153
0.6993 0.5301 0.7069
0.7914 0.5097 0.7104
0.1989 0.5611 0.6572
0.2021 0.5723 0.6636
0.1999 0.5646 0.6593
0.2401 0.5951 0.6770
0.3812 0.6399 0.7132
0.6213 0.6948 0.7586
0.7483 0.7049 0.7662
0.8483 0.6666 0.7699
0.2252 0.6537 0.6802
0.2261 0.6569 0.6807
0.2210 0.6415 0.6645
0.2417 0.6675 0.6825
0.3550 0.7181 0.7176
0.5859 0.7816 0.7664
0.7812 0.8341 0.8082
0.8885 0.8236 0.8280
0.2461 0.7221 0.6949
0.2461 0.7216 0.6898
0.2407 0.7038 0.6683
0.2514 0.7292 0.6845
0.3280 0.7751 0.7173
0.5395 0.8393 0.7646
0.7548 0.9026 0.8108
0.9096 0.9416 0.8343
