Data/LUTs/Vision 6 - Rec.709_32.cube
TITLE "Vision 6 - Rec.709_32"
LUT_3D_SIZE 32
0.0000 0.0000 0.0000
0.0636 0.0049 0.0000
0.1373 0.0143 0.0000
0.1948 0.0189 0.0000
0.2476 0.0219 0.0000
0.2925 0.0242 0.0000
0.3328 0.0259 0.0002
0.3716 0.0274 0.0034
0.4019 0.0295 0.0067
0.4313 0.0313 0.0101
0.4572 0.0332 0.0130
0.4787 0.0361 0.0151
0.4990 0.0371 0.0175
0.5179 0.0389 0.0195
0.5336 0.0414 0.0211
0.5503 0.0450 0.0226
0.5675 0.0482 0.0242
0.5840 0.0517 0.0256
0.5991 0.0542 0.0271
0.6125 0.0568 0.0283
0.6259 0.0596 0.0295
0.6388 0.0641 0.0304
0.6512 0.0694 0.0310
0.6657 0.0759 0.0314
0.6781 0.0811 0.0318
0.6915 0.0885 0.0326
0.7049 0.1028 0.0345
0.7192 0.1162 0.0360
0.7293 0.1274 0.0381
0.7395 0.1457 0.0452
0.7517 0.1639 0.0541
0.7641 0.1934 0.0829
0.0000 0.0199 0.0000
0.0356 0.0249 0.0000
0.1041 0.0280 0.0000
0.1565 0.0315 0.0000
0.2063 0.0353 0.0000
0.2502 0.0403 0.0000
0.2944 0.0440 0.0000
0.3348 0.0484 0.0000
0.3693 0.0523 0.0000
0.4015 0.0562 0.0001
0.4321 0.0594 0.0025
0.4580 0.0621 0.0055
0.4826 0.0651 0.0083
0.5078 0.0682 0.0111
0.5280 0.0711 0.0132
0.5467 0.0748 0.0149
0.5691 0.0782 0.0170
0.5888 0.0815 0.0189
0.6070 0.0846 0.0207
0.6233 0.0871 0.0223
0.6386 0.0908 0.0235
0.6538 0.0953 0.0245
0.6685 0.0997 0.0253
0.6841 0.1044 0.0259
0.6976 0.1090 0.0263
0.7111 0.1184 0.0269
0.7277 0.1269 0.0265
0.7443 0.1351 0.0259
0.7548 0.1471 0.0266
0.7656 0.1553 0.0258
0.7763 0.1722 0.0310
0.7857 0.1985 0.0571
0.0000 0.0465 0.0000
0.0075 0.0516 0.0000
0.0714 0.0584 0.0000
0.1234 0.0583 0.0000
0.1723 0.0601 0.0000
0.2172 0.0615 0.0000
0.2625 0.0636 0.0000
0.3060 0.0664 0.0000
0.3419 0.0697 0.0000
0.3775 0.0732 0.0000
0.4114 0.0779 0.0000
0.4412 0.0817 0.0000
0.4689 0.0855 0.0000
0.4960 0.0899 0.0016
0.5201 0.0934 0.0041
0.5416 0.0964 0.0063
0.5677 0.1008 0.0089
0.5917 0.1037 0.0116
0.6147 0.1077 0.0139
0.6332 0.1108 0.0156
0.6509 0.1149 0.0169
0.6678 0.1184 0.0183
0.6842 0.1223 0.0195
0.7006 0.1271 0.0204
0.7147 0.1321 0.0208
0.7292 0.1386 0.0207
0.7455 0.1465 0.0204
0.7615 0.1554 0.0203
0.7737 0.1651 0.0202
0.7849 0.1731 0.0192
0.7943 0.1885 0.0229
0.8050 0.2056 0.0356
0.0000 0.0674 0.0000
0.0002 0.0702 0.0000
0.0528 0.0782 0.0000
0.1001 0.0824 0.0000
0.1492 0.0826 0.0000
0.1948 0.0831 0.0000
0.2408 0.0847 0.0000
0.2870 0.0855 0.0000
0.3249 0.0874 0.0000
0.3621 0.0895 0.0000
0.3981 0.0938 0.0000
0.4291 0.0974 0.0000
0.4596 0.1008 0.0000
0.4886 0.1053 0.0000
0.5142 0.1088 0.0000
0.5397 0.1120 0.0007
0.5670 0.1165 0.0032
0.5935 0.1202 0.0060
0.6182 0.1248 0.0081
0.6400 0.1287 0.0103
0.6596 0.1324 0.0120
0.6785 0.1365 0.0135
0.6954 0.1403 0.0148
0.7123 0.1444 0.0160
0.7267 0.1497 0.0163
0.7416 0.1556 0.0165
0.7582 0.1629 0.0166
0.7733 0.1718 0.0165
0.7878 0.1805 0.0158
0.7984 0.1900 0.0156
0.8086 0.1990 0.0146
0.8184 0.2139 0.0225
0.0000 0.0876 0.0000
0.0000 0.0890 0.0000
0.0250 0.0964 0.0000
0.0829 0.1034 0.0003
0.1276 0.1069 0.0021
0.1739 0.1078 0.0000
0.2218 0.1070 0.0000
0.2694 0.1084 0.0000
0.3081 0.1097 0.0000
0.3481 0.1116 0.0000
0.3859 0.1134 0.0000
0.4193 0.1166 0.0000
0.4519 0.1194 0.0000
0.4822 0.1226 0.0000
0.5100 0.1261 0.0000
0.5370 0.1291 0.0000
0.5671 0.1333 0.0000
0.5963 0.1375 0.0009
0.6220 0.1416 0.0032
0.6460 0.1458 0.0053
0.6667 0.1491 0.0074
0.6871 0.1530 0.0091
0.7052 0.1570 0.0106
0.7230 0.1617 0.0116
0.7379 0.1664 0.0123
0.7532 0.1724 0.0126
0.7695 0.1795 0.0128
0.7839 0.1881 0.0122
0.7980 0.1970 0.0116
0.8105 0.2047 0.0111
0.8207 0.2131 0.0103
0.8315 0.2248 0.0124
0.0000 0.1064 0.0025
0.0000 0.1064 0.0000
0.0065 0.1129 0.0000
0.0600 0.1203 0.0000
0.1145 0.1294 0.0072
0.1561 0.1324 0.0090
0.2056 0.1346 0.0004
0.2547 0.1338 0.0000
0.2954 0.1348 0.0000
0.3354 0.1365 0.0000
0.3747 0.1379 0.0000
0.4092 0.1399 0.0000
0.4435 0.1408 0.0000
0.4774 0.1430 0.0000
0.5056 0.1454 0.0000
0.5341 0.1481 0.0000
0.5665 0.1522 0.0000
0.5972 0.1562 0.0000
0.6260 0.1601 0.0000
0.6511 0.1643 0.0009
0.6754 0.1680 0.0031
0.6959 0.1715 0.0048
0.7145 0.1747 0.0064
0.7330 0.1795 0.0077
0.7489 0.1835 0.0087
0.7641 0.1890 0.0092
0.7794 0.1963 0.0093
0.7930 0.2055 0.0086
0.8082 0.2133 0.0086
0.8204 0.2219 0.0080
0.8301 0.2302 0.0077
0.8402 0.2426 0.0114
0.0000 0.1264 0.0070
0.0000 0.1244 0.0001
0.0013 0.1304 0.0000
0.0363 0.1377 0.0000
0.0927 0.1477 0.0048
0.1450 0.1570 0.0151
0.1893 0.1605 0.0164
0.2407 0.1629 0.0063
0.2817 0.1625 0.0001
0.3246 0.1629 0.0000
0.3650 0.1640 0.0000
0.4002 0.1660 0.0000
0.4360 0.1678 0.0000
0.4709 0.1690 0.0000
0.5012 0.1705 0.0000
0.5317 0.1725 0.0000
0.5654 0.1745 0.0000
0.5979 0.1781 0.0000
0.6278 0.1808 0.0000
0.6551 0.1850 0.0000
0.6811 0.1886 0.0000
0.7040 0.1928 0.0008
0.7237 0.1950 0.0025
0.7433 0.1990 0.0039
0.7592 0.2025 0.0051
0.7746 0.2083 0.0056
0.7892 0.2159 0.0057
0.8034 0.2240 0.0056
0.8181 0.2322 0.0056
0.8304 0.2412 0.0052
0.8399 0.2497 0.0051
0.8502 0.2610 0.0084
0.0000 0.1481 0.0146
0.0000 0.1451 0.0040
0.0000 0.1491 0.0000
0.0187 0.1573 0.0000
0.0703 0.1670 0.0019
0.1256 0.1769 0.0137
0.1797 0.1868 0.0238
0.2251 0.1895 0.0238
0.2697 0.1923 0.0158
0.3127 0.1919 0.0050
0.3555 0.1921 0.0000
0.3924 0.1932 0.0000
0.4284 0.1950 0.0000
0.4648 0.1970 0.0000
0.4958 0.1987 0.0000
0.5278 0.2006 0.0000
0.5643 0.2025 0.0000
0.5986 0.2050 0.0000
0.6325 0.2085 0.0000
0.6599 0.2112 0.0000
0.6864 0.2137 0.0000
0.7103 0.2172 0.0000
0.7319 0.2200 0.0000
0.7519 0.2246 0.0003
0.7683 0.2283 0.0010
0.7838 0.2324 0.0019
0.7983 0.2379 0.0024
0.8121 0.2454 0.0027
0.8249 0.2543 0.0026
0.8381 0.2632 0.0027
0.8487 0.2706 0.0028
0.8615 0.2788 0.0030
0.0000 0.1683 0.0231
0.0000 0.1641 0.0098
0.0000 0.1670 0.0012
0.0085 0.1744 0.0001
0.0538 0.1838 0.0016
0.1094 0.1936 0.0118
0.1658 0.2044 0.0239
0.2150 0.2096 0.0313
0.2581 0.2154 0.0302
0.3045 0.2184 0.0219
0.3469 0.2184 0.0114
0.3852 0.2187 0.0023
0.4228 0.2197 0.0000
0.4597 0.2206 0.0000
0.4924 0.2227 0.0000
0.5249 0.2245 0.0000
0.5622 0.2268 0.0000
0.5980 0.2303 0.0000
0.6326 0.2340 0.0000
0.6629 0.2364 0.0000
0.6903 0.2384 0.0000
0.7173 0.2414 0.0000
0.7384 0.2447 0.0000
0.7586 0.2495 0.0000
0.7756 0.2530 0.0000
0.7911 0.2549 0.0001
0.8059 0.2596 0.0005
0.8199 0.2663 0.0010
0.8315 0.2745 0.0012
0.8459 0.2828 0.0017
0.8550 0.2900 0.0019
0.8679 0.2986 0.0024
0.0000 0.1887 0.0315
0.0000 0.1845 0.0180
0.0002 0.1870 0.0068
0.0032 0.1924 0.0021
0.0366 0.2021 0.0036
0.0940 0.2123 0.0104
0.1514 0.2229 0.0228
0.2092 0.2339 0.0344
0.2488 0.2372 0.0392
0.2937 0.2431 0.0370
0.3390 0.2462 0.0287
0.3775 0.2461 0.0193
0.4160 0.2471 0.0104
0.4545 0.2478 0.0020
0.4884 0.2492 0.0000
0.5213 0.2512 0.0000
0.5604 0.2537 0.0000
0.5962 0.2573 0.0000
0.6315 0.2607 0.0000
0.6632 0.2632 0.0000
0.6932 0.2658 0.0000
0.7212 0.2686 0.0000
0.7437 0.2712 0.0000
0.7659 0.2739 0.0000
0.7827 0.2762 0.0000
0.7982 0.2788 0.0000
0.8134 0.2832 0.0001
0.8263 0.2895 0.0005
0.8387 0.2966 0.0011
0.8530 0.3038 0.0017
0.8622 0.3120 0.0022
0.8755 0.3205 0.0029
0.0000 0.2094 0.0408
0.0004 0.2056 0.0268
0.0024 0.2060 0.0120
0.0060 0.2117 0.0056
0.0243 0.2199 0.0063
0.0765 0.2306 0.0100
0.1390 0.2418 0.0219
0.1971 0.2537 0.0345
0.2463 0.2637 0.0437
0.2864 0.2671 0.0476
0.3306 0.2726 0.0443
0.3715 0.2750 0.0368
0.4098 0.2759 0.0282
0.4487 0.2765 0.0187
0.4846 0.2775 0.0106
0.5173 0.2787 0.0035
0.5578 0.2806 0.0000
0.5957 0.2840 0.0000
0.6318 0.2888 0.0000
0.6654 0.2923 0.0000
0.6956 0.2944 0.0000
0.7236 0.2968 0.0000
0.7484 0.2988 0.0000
0.7716 0.3004 0.0000
0.7890 0.3030 0.0000
0.8054 0.3058 0.0003
0.8196 0.3093 0.0008
0.8317 0.3143 0.0014
0.8437 0.3198 0.0019
0.8573 0.3283 0.0027
0.8679 0.3343 0.0032
0.8820 0.3423 0.0038
0.0015 0.2283 0.0497
0.0028 0.2242 0.0349
0.0049 0.2229 0.0176
0.0089 0.2288 0.0098
0.0194 0.2367 0.0090
0.0616 0.2476 0.0114
0.1243 0.2595 0.0206
0.1880 0.2724 0.0343
0.2380 0.2825 0.0446
0.2878 0.2937 0.0533
0.3250 0.2947 0.0547
0.3650 0.2992 0.0509
0.4052 0.3026 0.0439
0.4440 0.3037 0.0352
0.4801 0.3047 0.0268
0.5150 0.3060 0.0189
0.5561 0.3075 0.0098
0.5965 0.3092 0.0023
0.6331 0.3136 0.0001
0.6681 0.3179 0.0000
0.6982 0.3203 0.0000
0.7275 0.3225 0.0000
0.7529 0.3245 0.0000
0.7766 0.3266 0.0002
0.7948 0.3285 0.0008
0.8110 0.3317 0.0014
0.8253 0.3346 0.0019
0.8372 0.3380 0.0023
0.8483 0.3432 0.0029
0.8606 0.3501 0.0035
0.8725 0.3546 0.0040
0.8873 0.3620 0.0047
0.0040 0.2475 0.0584
0.0053 0.2429 0.0428
0.0077 0.2423 0.0237
0.0103 0.2464 0.0134
0.0202 0.2550 0.0124
0.0499 0.2648 0.0140
0.1091 0.2774 0.0200
0.1755 0.2910 0.0333
0.2296 0.3019 0.0451
0.2802 0.3131 0.0550
0.3234 0.3186 0.0611
0.3604 0.3231 0.0622
0.3998 0.3281 0.0583
0.4399 0.3321 0.0518
0.4757 0.3327 0.0436
0.5115 0.3341 0.0355
0.5542 0.3352 0.0256
0.5950 0.3369 0.0164
0.6337 0.3401 0.0094
0.6687 0.3441 0.0046
0.7013 0.3467 0.0013
0.7313 0.3481 0.0003
0.7582 0.3499 0.0006
0.7819 0.3518 0.0013
0.8003 0.3546 0.0019
0.8158 0.3575 0.0025
0.8307 0.3591 0.0030
0.8425 0.3624 0.0034
0.8534 0.3666 0.0039
0.8659 0.3726 0.0045
0.8773 0.3757 0.0049
0.8920 0.3821 0.0056
0.0064 0.2675 0.0681
0.0080 0.2628 0.0506
0.0107 0.2629 0.0302
0.0127 0.2656 0.0185
0.0192 0.2741 0.0157
0.0403 0.2842 0.0172
0.0941 0.2956 0.0204
0.1592 0.3096 0.0317
0.2194 0.3221 0.0448
0.2728 0.3335 0.0561
0.3217 0.3448 0.0652
0.3571 0.3468 0.0693
0.3957 0.3531 0.0702
0.4356 0.3588 0.0665
0.4737 0.3618 0.0599
0.5092 0.3632 0.0523
0.5521 0.3645 0.0426
0.5940 0.3658 0.0327
0.6330 0.3690 0.0250
0.6692 0.3716 0.0178
0.7027 0.3741 0.0118
0.7349 0.3753 0.0067
0.7626 0.3768 0.0038
0.7872 0.3787 0.0029
0.8065 0.3814 0.0032
0.8216 0.3836 0.0037
0.8365 0.3855 0.0041
0.8487 0.3876 0.0046
0.8588 0.3901 0.0049
0.8708 0.3949 0.0055
0.8827 0.3971 0.0059
0.8973 0.4024 0.0065
0.0086 0.2862 0.0771
0.0106 0.2819 0.0582
0.0132 0.2822 0.0381
0.0155 0.2853 0.0250
0.0183 0.2919 0.0186
0.0341 0.3028 0.0202
0.0819 0.3140 0.0226
0.1465 0.3279 0.0313
0.2062 0.3410 0.0436
0.2665 0.3540 0.0569
0.3166 0.3657 0.0671
0.3602 0.3755 0.0746
0.3937 0.3763 0.0778
0.4326 0.3832 0.0781
0.4706 0.3868 0.0734
0.5084 0.3902 0.0672
0.5504 0.3915 0.0582
0.5935 0.3933 0.0484
0.6328 0.3963 0.0404
0.6702 0.3982 0.0320
0.7050 0.4002 0.0248
0.7379 0.4018 0.0181
0.7656 0.4031 0.0132
0.7921 0.4047 0.0093
0.8116 0.4075 0.0078
0.8274 0.4094 0.0068
0.8423 0.4110 0.0063
0.8546 0.4113 0.0060
0.8645 0.4128 0.0061
0.8758 0.4163 0.0065
0.8873 0.4182 0.0069
0.9027 0.4215 0.0074
0.0109 0.3052 0.0868
0.0128 0.3017 0.0691
0.0157 0.3019 0.0480
0.0184 0.3060 0.0321
0.0209 0.3121 0.0227
0.0276 0.3215 0.0233
0.0624 0.3329 0.0254
0.1354 0.3485 0.0318
0.1956 0.3619 0.0433
0.2564 0.3748 0.0566
0.3119 0.3875 0.0686
0.3564 0.3972 0.0771
0.3998 0.4074 0.0843
0.4320 0.4068 0.0864
0.4694 0.4126 0.0856
0.5069 0.4167 0.0811
0.5501 0.4203 0.0737
0.5927 0.4218 0.0645
0.6343 0.4240 0.0556
0.6713 0.4256 0.0472
0.7080 0.4273 0.0391
0.7410 0.4294 0.0322
0.7713 0.4302 0.0255
0.7980 0.4320 0.0205
0.8178 0.4334 0.0172
0.8345 0.4349 0.0149
0.8492 0.4364 0.0131
0.8618 0.4366 0.0114
0.8708 0.4378 0.0107
0.8812 0.4393 0.0102
0.8920 0.4402 0.0095
0.9066 0.4415 0.0089
0.0136 0.3292 0.0990
0.0154 0.3268 0.0843
0.0187 0.3264 0.0600
0.0218 0.3300 0.0406
0.0246 0.3358 0.0288
0.0270 0.3451 0.0275
0.0423 0.3570 0.0291
0.1089 0.3736 0.0329
0.1830 0.3878 0.0435
0.2474 0.4009 0.0569
0.3048 0.4137 0.0695
0.3549 0.4251 0.0800
0.3996 0.4350 0.0883
0.4415 0.4453 0.0951
0.4698 0.4435 0.0966
0.5064 0.4490 0.0959
0.5496 0.4540 0.0912
0.5938 0.4569 0.0833
0.6351 0.4590 0.0749
0.6742 0.4607 0.0663
0.7101 0.4627 0.0585
0.7454 0.4650 0.0509
0.7768 0.4657 0.0436
0.8043 0.4666 0.0374
0.8251 0.4676 0.0329
0.8427 0.4683 0.0293
0.8579 0.4689 0.0262
0.8705 0.4679 0.0232
0.8789 0.4679 0.0214
0.8882 0.4687 0.0201
0.8987 0.4690 0.0183
0.9122 0.4666 0.0152
0.0165 0.3547 0.1126
0.0184 0.3515 0.0958
0.0219 0.3511 0.0707
0.0254 0.3546 0.0488
0.0285 0.3612 0.0353
0.0313 0.3716 0.0325
0.0381 0.3830 0.0335
0.0847 0.3987 0.0364
0.1559 0.4135 0.0423
0.2400 0.4280 0.0577
0.2992 0.4409 0.0708
0.3504 0.4524 0.0818
0.3997 0.4637 0.0918
0.4421 0.4735 0.0995
0.4807 0.4824 0.1054
0.5079 0.4798 0.1067
0.5506 0.4864 0.1059
0.5957 0.4908 0.1003
0.6377 0.4943 0.0934
0.6768 0.4967 0.0856
0.7142 0.4984 0.0777
0.7490 0.5008 0.0703
0.7807 0.5022 0.0633
0.8099 0.5023 0.0559
0.8314 0.5025 0.0507
0.8502 0.5023 0.0460
0.8666 0.5034 0.0426
0.8785 0.5014 0.0387
0.8871 0.4993 0.0356
0.8956 0.4988 0.0333
0.9059 0.4978 0.0306
0.9179 0.4930 0.0257
0.0193 0.3801 0.1258
0.0217 0.3763 0.1061
0.0253 0.3763 0.0813
0.0287 0.3803 0.0602
0.0327 0.3879 0.0402
0.0358 0.3981 0.0363
0.0426 0.4096 0.0379
0.0757 0.4240 0.0406
0.1461 0.4388 0.0448
0.2264 0.4532 0.0575
0.2959 0.4678 0.0723
0.3492 0.4791 0.0840
0.3976 0.4904 0.0942
0.4434 0.5010 0.1032
0.4830 0.5104 0.1102
0.5182 0.5153 0.1149
0.5543 0.5168 0.1169
0.5983 0.5230 0.1150
0.6408 0.5277 0.1098
0.6803 0.5301 0.1029
0.7183 0.5327 0.0956
0.7536 0.5342 0.0880
0.7855 0.5355 0.0807
0.8154 0.5357 0.0734
0.8377 0.5357 0.0678
0.8571 0.5346 0.0624
0.8742 0.5356 0.0586
0.8855 0.5330 0.0544
0.8939 0.5310 0.0513
0.9021 0.5297 0.0485
0.9125 0.5286 0.0456
0.9227 0.5203 0.0385
0.0220 0.4038 0.1386
0.0242 0.4002 0.1196
0.0281 0.4013 0.0947
0.0320 0.4064 0.0731
0.0364 0.4135 0.0484
0.0392 0.4219 0.0414
0.0430 0.4328 0.0416
0.0790 0.4493 0.0448
0.1431 0.4641 0.0484
0.2228 0.4788 0.0594
0.2940 0.4927 0.0740
0.3500 0.5054 0.0864
0.4014 0.5170 0.0975
0.4463 0.5280 0.1068
0.4869 0.5378 0.1145
0.5269 0.5473 0.1212
0.5594 0.5459 0.1242
0.6027 0.5538 0.1266
0.6451 0.5594 0.1241
0.6839 0.5630 0.1191
0.7218 0.5656 0.1121
0.7575 0.5672 0.1049
0.7900 0.5674 0.0974
0.8203 0.5680 0.0903
0.8426 0.5674 0.0846
0.8634 0.5665 0.0788
0.8806 0.5654 0.0739
0.8919 0.5637 0.0701
0.9008 0.5611 0.0664
0.9093 0.5585 0.0630
0.9187 0.5574 0.0600
0.9273 0.5469 0.0519
0.0245 0.4246 0.1478
0.0264 0.4244 0.1361
0.0309 0.4264 0.1087
0.0352 0.4303 0.0831
0.0394 0.4370 0.0598
0.0428 0.4468 0.0482
0.0471 0.4580 0.0459
0.0746 0.4739 0.0488
0.1397 0.4894 0.0522
0.2264 0.5050 0.0628
0.2979 0.5199 0.0771
0.3520 0.5326 0.0891
0.4044 0.5447 0.1006
0.4510 0.5561 0.1104
0.4913 0.5656 0.1184
0.5314 0.5752 0.1259
0.5775 0.5865 0.1333
0.6077 0.5827 0.1350
0.6513 0.5911 0.1363
0.6888 0.5953 0.1333
0.7267 0.5985 0.1280
0.7619 0.6003 0.1216
0.7942 0.6011 0.1148
0.8239 0.5995 0.1071
0.8475 0.5992 0.1010
0.8683 0.5981 0.0952
0.8858 0.5963 0.0899
0.8987 0.5944 0.0857
0.9070 0.5917 0.0823
0.9156 0.5894 0.0788
0.9254 0.5862 0.0744
0.9326 0.5743 0.0659
0.0271 0.4472 0.1597
0.0294 0.4471 0.1464
0.0335 0.4509 0.1234
0.0383 0.4555 0.0948
0.0433 0.4626 0.0659
0.0474 0.4719 0.0504
0.0520 0.4834 0.0503
0.0785 0.4988 0.0529
0.1464 0.5159 0.0567
0.2262 0.5321 0.0656
0.2972 0.5474 0.0793
0.3571 0.5602 0.0923
0.4087 0.5721 0.1037
0.4557 0.5833 0.1140
0.4977 0.5934 0.1226
0.5382 0.6027 0.1303
0.5832 0.6137 0.1382
0.6240 0.6212 0.1439
0.6560 0.6197 0.1455
0.6953 0.6261 0.1455
0.7317 0.6294 0.1419
0.7673 0.6309 0.1361
0.7989 0.6314 0.1297
0.8300 0.6296 0.1219
0.8525 0.6297 0.1165
0.8723 0.6273 0.1107
0.8908 0.6251 0.1047
0.9051 0.6217 0.0993
0.9145 0.6197 0.0960
0.9230 0.6202 0.0942
0.9311 0.6192 0.0915
0.9386 0.6040 0.0812
0.0294 0.4693 0.1720
0.0320 0.4703 0.1581
0.0365 0.4746 0.1341
0.0410 0.4804 0.1098
0.0465 0.4855 0.0750
0.0502 0.4939 0.0585
0.0537 0.5040 0.0537
0.0841 0.5226 0.0570
0.1487 0.5390 0.0604
0.2320 0.5554 0.0692
0.3037 0.5702 0.0826
0.3603 0.5835 0.0949
0.4151 0.5958 0.1071
0.4618 0.6071 0.1172
0.5027 0.6175 0.1259
0.5433 0.6275 0.1341
0.5890 0.6387 0.1425
0.6329 0.6490 0.1496
0.6633 0.6447 0.1516
0.6983 0.6499 0.1537
0.7358 0.6547 0.1524
0.7701 0.6573 0.1483
0.8031 0.6576 0.1422
0.8318 0.6560 0.1356
0.8556 0.6541 0.1293
0.8759 0.6528 0.1237
0.8944 0.6501 0.1179
0.9095 0.6470 0.1126
0.9201 0.6454 0.1091
0.9288 0.6449 0.1066
0.9367 0.6447 0.1045
0.9426 0.6352 0.0977
0.0322 0.4884 0.1793
0.0341 0.4911 0.1701
0.0388 0.4964 0.1464
0.0440 0.5006 0.1160
0.0492 0.5065 0.0845
0.0539 0.5164 0.0629
0.0602 0.5290 0.0581
0.0859 0.5449 0.0607
0.1550 0.5620 0.0643
0.2363 0.5783 0.0724
0.3067 0.5939 0.0853
0.3663 0.6070 0.0980
0.4189 0.6188 0.1097
0.4660 0.6302 0.1201
0.5075 0.6407 0.1291
0.5483 0.6507 0.1375
0.5940 0.6621 0.1463
0.6392 0.6737 0.1542
0.6795 0.6807 0.1599
0.7036 0.6746 0.1605
0.7392 0.6791 0.1613
0.7745 0.6823 0.1589
0.8055 0.6833 0.1543
0.8356 0.6823 0.1480
0.8584 0.6801 0.1422
0.8788 0.6777 0.1364
0.8979 0.6747 0.1304
0.9136 0.6720 0.1254
0.9241 0.6697 0.1212
0.9335 0.6690 0.1186
0.9408 0.6692 0.1170
0.9470 0.6620 0.1116
0.0340 0.5055 0.1891
0.0365 0.5086 0.1772
0.0410 0.5139 0.1548
0.0458 0.5192 0.1281
0.0519 0.5261 0.0919
0.0568 0.5356 0.0676
0.0607 0.5465 0.0610
0.0909 0.5640 0.0639
0.1592 0.5806 0.0674
0.2407 0.5971 0.0752
0.3120 0.6121 0.0880
0.3682 0.6253 0.1000
0.4233 0.6385 0.1122
0.4706 0.6498 0.1227
0.5110 0.6594 0.1314
0.5519 0.6694 0.1400
0.5962 0.6807 0.1488
0.6400 0.6911 0.1568
0.6832 0.7006 0.1637
0.7077 0.6952 0.1651
0.7411 0.6987 0.1675
0.7748 0.7020 0.1667
0.8075 0.7033 0.1634
0.8360 0.7039 0.1586
0.8605 0.7026 0.1533
0.8806 0.6986 0.1470
0.9001 0.6945 0.1402
0.9163 0.6918 0.1347
0.9273 0.6915 0.1318
0.9376 0.6913 0.1289
0.9456 0.6900 0.1267
0.9508 0.6846 0.1232
0.0361 0.5202 0.1942
0.0386 0.5253 0.1839
0.0432 0.5305 0.1615
0.0483 0.5351 0.1323
0.0541 0.5426 0.0987
0.0594 0.5519 0.0713
0.0665 0.5634 0.0640
0.0923 0.5792 0.0664
0.1598 0.5956 0.0698
0.2412 0.6121 0.0771
0.3096 0.6272 0.0891
0.3682 0.6397 0.1012
0.4208 0.6515 0.1127
0.4674 0.6630 0.1231
0.5091 0.6732 0.1324
0.5491 0.6828 0.1407
0.5944 0.6938 0.1500
0.6390 0.7041 0.1583
0.6822 0.7132 0.1656
0.7191 0.7212 0.1709
0.7401 0.7130 0.1711
0.7752 0.7177 0.1722
0.8061 0.7198 0.1704
0.8347 0.7190 0.1660
0.8585 0.7183 0.1616
0.8806 0.7161 0.1559
0.9017 0.7135 0.1496
0.9175 0.7110 0.1444
0.9290 0.7099 0.1411
0.9402 0.7088 0.1380
0.9489 0.7086 0.1358
0.9556 0.7063 0.1330
0.0377 0.5365 0.2042
0.0403 0.5408 0.1927
0.0451 0.5463 0.1694
0.0500 0.5507 0.1416
0.0564 0.5584 0.1039
0.0618 0.5677 0.0766
0.0663 0.5778 0.0664
0.0933 0.5943 0.0689
0.1585 0.6103 0.0722
0.2345 0.6263 0.0782
0.3070 0.6414 0.0901
0.3619 0.6533 0.1012
0.4153 0.6653 0.1128
0.4627 0.6767 0.1233
0.5028 0.6863 0.1322
0.5433 0.6958 0.1410
0.5891 0.7066 0.1504
0.6329 0.7165 0.1588
0.6769 0.7259 0.1667
0.7146 0.7349 0.1727
0.7422 0.7336 0.1753
0.7709 0.7328 0.1769
0.8014 0.7357 0.1769
0.8322 0.7364 0.1740
0.8577 0.7361 0.1699
0.8801 0.7336 0.1646
0.9019 0.7315 0.1589
0.9189 0.7286 0.1537
0.9310 0.7270 0.1500
0.9423 0.7264 0.1468
0.9521 0.7271 0.1450
0.9606 0.7254 0.1422
0.0393 0.5491 0.2092
0.0421 0.5548 0.1989
0.0468 0.5608 0.1765
0.0520 0.5647 0.1461
0.0583 0.5716 0.1090
0.0638 0.5807 0.0793
0.0692 0.5911 0.0685
0.0932 0.6059 0.0709
0.1543 0.6211 0.0739
0.2308 0.6358 0.0791
0.2940 0.6497 0.0888
0.3500 0.6615 0.0996
0.4036 0.6732 0.1111
0.4499 0.6838 0.1212
0.4902 0.6936 0.1303
0.5300 0.7026 0.1390
0.5761 0.7134 0.1487
0.6201 0.7240 0.1577
0.6641 0.7345 0.1659
0.7039 0.7434 0.1728
0.7417 0.7525 0.1786
0.7633 0.7444 0.1790
0.7961 0.7474 0.1809
0.8276 0.7496 0.1797
0.8533 0.7492 0.1765
0.8766 0.7487 0.1725
0.8993 0.7467 0.1671
0.9181 0.7447 0.1622
0.9321 0.7434 0.1581
0.9438 0.7424 0.1552
0.9541 0.7419 0.1525
0.9637 0.7404 0.1497
0.0400 0.5611 0.2187
0.0435 0.5667 0.2049
0.0485 0.5713 0.1790
0.0534 0.5756 0.1512
