Data/LUTs/Vision 4 - Rec.709_32.cube
TITLE "Vision 4 - Rec.709_32"
LUT_3D_SIZE 8
DOMAIN_MIN 0.000000 0.000000 0.000000
DOMAIN_MAX 0.903226 0.903226 0.903226
0.0267 0.0002 0.0024
0.1000 0.0093 0.0070
0.2576 0.0354 0.0000
0.4064 0.0504 0.0000
0.5807 0.0783 0.0000
0.7319 0.1077 0.0000
0.8568 0.1354 0.0000
0.9640 0.1605 0.0000
0.0303 0.0847 0.0044
0.0929 0.0546 0.0000
0.2585 0.0963 0.0000
0.4085 0.0878 0.0000
0.5814 0.1014 0.0000
0.7321 0.1251 0.0000
0.8572 0.1539 0.0000
0.9649 0.1803 0.0000
0.0226 0.2147 0.0173
0.1223 0.2112 0.0333
0.2458 0.1709 0.0000
0.4040 0.2058 0.0000
0.5839 0.2265 0.0000
0.7368 0.2105 0.0000
0.8602 0.2091 0.0000
0.9670 0.2137 0.0000
0.0212 0.3348 0.0312
0.1395 0.3322 0.0488
0.2555 0.3404 0.0000
0.3886 0.2636 0.0000
0.5778 0.2841 0.0000
0.7279 0.3584 0.0000
0.8584 0.3599 0.0000
0.9700 0.3327 0.0000
0.0267 0.4865 0.0431
0.1504 0.4849 0.0598
0.2617 0.4853 0.0452
0.4239 0.5113 0.0000
0.5576 0.3728 0.0000
0.7249 0.3872 0.0000
0.8496 0.4646 0.0000
0.9581 0.5341 0.0000
0.0188 0.6395 0.0316
0.1504 0.6388 0.0486
0.2707 0.6380 0.0382
0.4177 0.6478 0.0000
0.6218 0.6779 0.0000
0.7024 0.4981 0.0000
0.8447 0.5061 0.0000
0.9549 0.5686 0.0000
0.0106 0.7759 0.0000
0.1460 0.7756 0.0094
0.2824 0.7748 0.0000
0.4333 0.7766 0.0000
0.5865 0.7953 0.0000
0.7774 0.8020 0.0000
0.8216 0.6186 0.0000
0.9471 0.6228 0.0000
0.0081 0.8894 0.0000
0.1450 0.8897 0.0000
0.2964 0.8888 0.0000
0.4499 0.8877 0.0000
0.5933 0.8987 0.0000
0.7376 0.9203 0.0000
0.8839 0.8745 0.0000
0.9238 0.7250 0.0000
0.0451 0.0617 0.1142
0.0762 0.0215 0.1041
0.2504 0.0090 0.0822
0.4051 0.0000 0.0000
0.5807 0.0000 0.0000
0.7326 0.0000 0.0000
0.8576 0.0072 0.0000
0.9634 0.0581 0.0000
0.0393 0.0838 0.1082
0.0985 0.1071 0.1237
0.2387 0.1312 0.1098
0.3935 0.1646 0.0908
0.5751 0.1894 0.0093
0.7285 0.2119 0.0000
0.8542 0.2360 0.0000
0.9622 0.2584 0.0000
0.0198 0.2168 0.0895
0.0912 0.2107 0.0873
0.2292 0.1894 0.0990
0.3973 0.2310 0.0057
0.5802 0.2172 0.0000
0.7303 0.2282 0.0000
0.8551 0.2478 0.0000
0.9634 0.2726 0.0000
0.0184 0.3364 0.0542
0.1111 0.3313 0.0943
0.2435 0.3296 0.1118
0.3787 0.2871 0.0154
0.5709 0.3355 0.0000
0.7272 0.3650 0.0000
0.8586 0.3361 0.0000
0.9669 0.3291 0.0000
0.0161 0.4878 0.0264
0.1250 0.4842 0.0986
0.2541 0.4824 0.1162
0.3979 0.5000 0.0042
0.5524 0.4034 0.0000
0.7189 0.4367 0.0000
0.8432 0.5236 0.0000
0.9586 0.5298 0.0000
0.0136 0.6404 0.0000
0.1234 0.6385 0.0858
0.2617 0.6374 0.1022
0.4067 0.6410 0.0496
0.5852 0.6705 0.0000
0.6977 0.5282 0.0000
0.8396 0.5490 0.0000
0.9479 0.6277 0.0000
0.0107 0.7767 0.0000
0.1145 0.7756 0.0550
0.2716 0.7747 0.0723
0.4237 0.7732 0.0353
0.5756 0.7892 0.0000
0.7592 0.8184 0.0000
0.8172 0.6466 0.0000
0.9426 0.6590 0.0000
0.0081 0.8900 0.0000
0.1066 0.8897 0.0035
0.2859 0.8888 0.0231
0.4415 0.8869 0.0000
0.5843 0.8939 0.0000
0.7261 0.9162 0.0000
0.8786 0.9034 0.0000
0.9197 0.7503 0.0000
0.0321 0.1341 0.2373
0.0546 0.0538 0.2355
0.2256 0.0430 0.2312
0.3773 0.0278 0.2018
0.5611 0.0000 0.1760
0.7235 0.0000 0.0685
0.8549 0.0000 0.0000
0.9636 0.0000 0.0000
0.0192 0.1682 0.2311
0.0597 0.1722 0.2324
0.2178 0.1123 0.2241
0.3761 0.1057 0.2105
0.5693 0.0649 0.1433
0.7295 0.0624 0.0034
0.8525 0.1373 0.0000
0.9593 0.1802 0.0000
0.0178 0.2035 0.2239
0.0724 0.2076 0.2216
0.2281 0.2284 0.2339
0.3825 0.2570 0.2318
0.5518 0.2965 0.2403
0.7111 0.3284 0.2252
0.8422 0.3575 0.1942
0.9543 0.3841 0.1418
0.0152 0.3399 0.2200
0.0324 0.3352 0.2098
0.2150 0.3312 0.2032
0.3625 0.3149 0.2137
0.5521 0.3714 0.2101
0.7152 0.3619 0.2050
0.8441 0.3757 0.1784
0.9557 0.3981 0.1199
0.0128 0.4903 0.1791
0.0156 0.4874 0.1756
0.2388 0.4784 0.2197
0.3702 0.4808 0.2220
0.5322 0.4395 0.1999
0.7055 0.4997 0.0765
0.8411 0.5336 0.0000
0.9596 0.5002 0.0000
0.0107 0.6423 0.1253
0.0106 0.6406 0.1314
0.2449 0.6351 0.2123
0.3899 0.6327 0.2173
0.5514 0.6554 0.1539
0.6853 0.5654 0.0959
0.8328 0.6015 0.0000
0.9415 0.6827 0.0000
0.0094 0.7776 0.0470
0.0089 0.7768 0.0721
0.2515 0.7734 0.1986
0.4098 0.7714 0.2027
0.5582 0.7774 0.1606
0.7208 0.8089 0.0000
0.8097 0.6822 0.0000
0.9374 0.7033 0.0000
0.0081 0.8908 0.0000
0.0081 0.8901 0.0008
0.2620 0.8885 0.1840
0.4283 0.8863 0.1880
0.5726 0.8860 0.1612
0.7103 0.9071 0.0000
0.8695 0.9320 0.0000
0.9150 0.7823 0.0000
0.0282 0.2058 0.3669
0.0606 0.1357 0.3692
0.1249 0.0814 0.3376
0.3606 0.0778 0.3570
0.5349 0.0783 0.3095
0.6980 0.0511 0.2913
0.8330 0.0000 0.2632
0.9463 0.0000 0.2088
0.0142 0.2489 0.3597
0.0143 0.2362 0.3626
0.1505 0.1316 0.3419
0.3550 0.1330 0.3529
0.5336 0.1319 0.3198
0.7003 0.1073 0.2999
0.8401 0.0133 0.2432
0.9565 0.0000 0.1184
0.0141 0.2594 0.3525
0.0137 0.2748 0.3521
0.2033 0.2856 0.3617
0.3585 0.2367 0.3602
0.5315 0.2467 0.3360
0.7062 0.2396 0.2841
0.8398 0.2580 0.2365
0.9504 0.2973 0.2059
0.0129 0.3167 0.3467
0.0149 0.3204 0.3432
0.1969 0.3309 0.3448
0.3572 0.3619 0.3617
0.5753 0.3987 0.3506
0.6928 0.4491 0.3706
0.8283 0.4873 0.3584
0.9440 0.5207 0.3389
0.0089 0.4932 0.3527
0.0093 0.4908 0.3414
0.1950 0.4811 0.3264
0.3217 0.4947 0.3050
0.5377 0.4778 0.3073
0.6913 0.5355 0.3402
0.8320 0.5259 0.3409
0.9461 0.5403 0.3277
0.0067 0.6451 0.3091
0.0069 0.6432 0.2997
0.1773 0.6373 0.2967
0.3780 0.6283 0.3496
0.5238 0.6337 0.3426
0.6717 0.6005 0.3306
0.8182 0.6609 0.2680
0.9378 0.6989 0.2099
0.0050 0.7796 0.2599
0.0051 0.7785 0.2548
0.1525 0.7751 0.2622
0.4000 0.7682 0.3495
0.5435 0.7652 0.3443
0.6911 0.7947 0.2996
0.7995 0.7161 0.2762
0.9284 0.7532 0.1562
0.0038 0.8923 0.2110
0.0038 0.8917 0.2109
0.1253 0.8899 0.2274
0.4203 0.8846 0.3468
0.5636 0.8820 0.3418
0.6942 0.8937 0.3094
0.8377 0.9278 0.1967
0.9073 0.8145 0.1898
0.0525 0.2751 0.5189
0.0832 0.2194 0.5228
0.1288 0.1199 0.4957
0.2289 0.1321 0.4805
0.5200 0.1187 0.4942
0.6784 0.1249 0.4375
0.8110 0.1203 0.4221
0.9250 0.0858 0.3980
0.0091 0.3273 0.5113
0.0273 0.3042 0.5151
0.1478 0.2071 0.5087
0.2401 0.1710 0.4755
0.5170 0.1588 0.4930
0.6775 0.1622 0.4481
0.8134 0.1506 0.4301
0.9288 0.1177 0.4070
0.0087 0.3572 0.5029
0.0083 0.3724 0.5030
0.1935 0.3544 0.5000
0.2748 0.2609 0.4768
0.5081 0.2564 0.4874
0.6743 0.2619 0.4646
0.8163 0.2550 0.4481
0.9375 0.2367 0.3960
0.0087 0.3656 0.4960
0.0083 0.3808 0.4953
0.1833 0.4048 0.4860
0.3095 0.4309 0.5276
0.5477 0.3644 0.5235
0.6743 0.3837 0.4818
0.8242 0.3825 0.4293
0.9420 0.4086 0.3822
0.0067 0.4594 0.4915
0.0067 0.4652 0.4898
0.1830 0.4661 0.4798
0.2821 0.4971 0.4977
0.5177 0.5188 0.5023
0.7164 0.5600 0.4921
0.8112 0.6106 0.5171
0.9297 0.6490 0.5126
0.0031 0.6470 0.5055
0.0032 0.6462 0.4965
0.1360 0.6391 0.4809
0.3221 0.6303 0.4647
0.4777 0.6439 0.4415
0.6804 0.6373 0.4476
0.8081 0.6948 0.4919
0.9334 0.6874 0.4992
0.0016 0.7819 0.4714
0.0018 0.7808 0.4613
0.0936 0.7766 0.4479
0.3208 0.7702 0.4417
0.5362 0.7618 0.4901
0.6659 0.7729 0.4851
0.7892 0.7483 0.4850
0.9172 0.8046 0.4511
0.0008 0.8938 0.4330
0.0009 0.8931 0.4234
0.0338 0.8908 0.4152
0.3183 0.8868 0.4186
0.5592 0.8798 0.4947
0.6796 0.8785 0.4887
0.8117 0.9155 0.4663
0.8996 0.8456 0.4581
0.0734 0.3467 0.6551
0.1047 0.2903 0.6596
0.1394 0.1875 0.6460
0.2024 0.1744 0.6122
0.3489 0.1827 0.6195
0.6685 0.1604 0.6214
0.7997 0.1641 0.5651
0.9089 0.1707 0.5521
0.0052 0.4121 0.6470
0.0425 0.3802 0.6512
0.1216 0.2778 0.6541
0.2170 0.1994 0.6183
0.3510 0.2101 0.6153
0.6671 0.1881 0.6204
0.7993 0.1914 0.5731
0.9105 0.1914 0.5616
0.0039 0.4637 0.6380
0.0037 0.4710 0.6388
0.1560 0.4360 0.6410
0.2712 0.3171 0.6340
0.3660 0.2879 0.6060
0.6620 0.2740 0.6172
0.7964 0.2779 0.5864
0.9129 0.2744 0.5763
0.0038 0.4743 0.6317
0.0035 0.4932 0.6308
0.0600 0.5182 0.6267
0.3154 0.4933 0.6196
0.4108 0.3907 0.6026
0.6536 0.3913 0.6115
0.7927 0.3999 0.6008
0.9155 0.3986 0.5933
0.0036 0.4927 0.6246
0.0034 0.5061 0.6238
0.1546 0.5257 0.6164
0.3061 0.5485 0.6047
0.4658 0.5763 0.6428
0.6914 0.5228 0.6411
0.7924 0.5459 0.6159
0.9239 0.5525 0.5811
0.0020 0.6078 0.6210
0.0019 0.6139 0.6203
0.1213 0.6164 0.6124
0.3080 0.6178 0.6035
0.4379 0.6529 0.6214
0.6524 0.6636 0.6232
0.7910 0.7134 0.6371
0.9145 0.7605 0.6473
0.0002 0.7825 0.6388
0.0002 0.7825 0.6323
0.0063 0.7777 0.6197
0.2918 0.7709 0.6056
0.4870 0.7624 0.5920
0.6475 0.7589 0.6060
0.7789 0.7751 0.6254
0.9111 0.8346 0.6287
0.0000 0.8950 0.6153
0.0000 0.8945 0.6069
0.0000 0.8917 0.5955
0.2839 0.8877 0.5843
0.4946 0.8811 0.5803
0.6728 0.8762 0.6157
0.7868 0.8946 0.6161
0.8932 0.8755 0.6221
0.0772 0.4219 0.7621
0.1178 0.3575 0.7676
0.1499 0.2571 0.7622
0.2043 0.2014 0.7342
0.2812 0.2188 0.7181
0.5214 0.2187 0.7313
0.7928 0.1955 0.7236
0.9031 0.1943 0.6704
0.0017 0.4922 0.7545
0.0399 0.4561 0.7586
0.1228 0.3441 0.7654
0.2165 0.2456 0.7433
0.2973 0.2403 0.7165
0.5207 0.2391 0.7282
0.7921 0.2157 0.7237
0.9026 0.2158 0.6777
0.0011 0.5586 0.7447
0.0011 0.5575 0.7462
0.0491 0.5133 0.7510
0.2604 0.3853 0.7524
0.3320 0.3072 0.7185
0.5219 0.3080 0.7202
0.7889 0.2911 0.7209
0.9002 0.2938 0.6886
0.0009 0.5795 0.7383
0.0007 0.5961 0.7376
0.0006 0.6116 0.7376
0.2963 0.5720 0.7324
0.3951 0.4379 0.7287
0.5316 0.4139 0.7079
0.7818 0.4096 0.7165
0.8954 0.4164 0.7002
0.0009 0.5854 0.7328
0.0007 0.6016 0.7320
0.0005 0.6301 0.7278
0.2568 0.6524 0.7169
0.4685 0.6260 0.7090
0.5679 0.5414 0.6996
0.7732 0.5496 0.7119
0.8908 0.5623 0.7123
0.0006 0.6205 0.7251
0.0006 0.6299 0.7243
0.0962 0.6437 0.7178
0.2942 0.6594 0.7075
0.4629 0.6791 0.6942
0.6301 0.7031 0.7105
0.7702 0.6837 0.7152
0.8943 0.7025 0.7260
0.0000 0.7390 0.7225
0.0000 0.7452 0.7220
0.0044 0.7499 0.7167
0.2815 0.7531 0.7105
0.4737 0.7547 0.7037
0.6399 0.7776 0.7143
0.7735 0.8007 0.7250
0.8932 0.8438 0.7375
0.0000 0.8950 0.7424
0.0000 0.8950 0.7368
0.0000 0.8925 0.7281
0.2483 0.8881 0.7179
0.4732 0.8811 0.7072
0.6363 0.8756 0.6986
0.7699 0.8815 0.7135
0.8857 0.8997 0.7307
0.0675 0.4906 0.8407
0.1199 0.4229 0.8463
0.1623 0.3121 0.8460
0.2151 0.2327 0.8270
0.2724 0.2470 0.8024
0.3959 0.2524 0.8038
0.6900 0.2413 0.8127
0.8963 0.2241 0.8009
0.0003 0.5613 0.8333
0.0166 0.5246 0.8370
0.1270 0.4082 0.8457
0.2162 0.2963 0.8339
0.2840 0.2609 0.8061
0.4051 0.2692 0.8011
0.6858 0.2580 0.8109
0.8961 0.2401 0.8015
0.0000 0.6369 0.8229
0.0001 0.6281 0.8250
0.0002 0.5805 0.8309
0.2359 0.4500 0.8365
0.3156 0.3292 0.8148
0.4319 0.3297 0.7949
0.6830 0.3221 0.8054
0.8940 0.3084 0.8002
0.0000 0.6678 0.8159
0.0000 0.6805 0.8153
0.0000 0.6840 0.8165
0.2676 0.6387 0.8150
0.3842 0.5032 0.8187
0.4840 0.4298 0.7885
0.6789 0.4308 0.7948
0.8886 0.4263 0.7976
0.0000 0.6759 0.8109
0.0000 0.6922 0.8098
0.0000 0.7196 0.8075
0.1892 0.7323 0.7999
0.4564 0.6934 0.7941
0.5451 0.5674 0.7928
0.6790 0.5612 0.7818
0.8809 0.5678 0.7938
0.0000 0.6862 0.8057
0.0000 0.7005 0.8045
0.0000 0.7234 0.8007
0.2313 0.7472 0.7911
0.4313 0.7665 0.7789
0.6079 0.7424 0.7753
0.6997 0.6865 0.7759
0.8750 0.7027 0.7920
0.0000 0.7360 0.7973
0.0000 0.7425 0.7966
0.0000 0.7525 0.7912
0.2704 0.7621 0.7827
0.4616 0.7733 0.7715
0.6136 0.7968 0.7686
0.7572 0.8319 0.7957
0.8723 0.8168 0.7957
0.0000 0.8504 0.7963
0.0000 0.8541 0.7959
0.0000 0.8607 0.7929
0.2441 0.8652 0.7894
0.4640 0.8690 0.7855
0.6262 0.8734 0.7839
0.7708 0.9043 0.8008
0.8786 0.9189 0.8042
