Data/LUTs/Vision X - Rec.709_32.cube
TITLE "Vision X - Rec.709_32"
LUT_3D_SIZE 32
0.0674 0.0674 0.0751
0.0723 0.0682 0.0782
0.1080 0.0765 0.0826
0.1370 0.0823 0.0860
0.1674 0.0881 0.0901
0.1992 0.0944 0.0952
0.2301 0.0998 0.1003
0.2600 0.1060 0.1056
0.2837 0.1113 0.1106
0.3039 0.1150 0.1146
0.3239 0.1200 0.1194
0.3437 0.1257 0.1243
0.3652 0.1313 0.1294
0.3899 0.1371 0.1347
0.4161 0.1431 0.1400
0.4415 0.1487 0.1451
0.4721 0.1548 0.1509
0.5033 0.1604 0.1568
0.5308 0.1656 0.1625
0.5564 0.1720 0.1684
0.5779 0.1781 0.1736
0.5992 0.1838 0.1790
0.6171 0.1886 0.1837
0.6332 0.1935 0.1881
0.6481 0.1987 0.1924
0.6629 0.2047 0.1969
0.6767 0.2116 0.2022
0.6909 0.2186 0.2071
0.7043 0.2253 0.2117
0.7143 0.2333 0.2165
0.7218 0.2426 0.2208
0.7294 0.2511 0.2248
0.0676 0.0690 0.0778
0.0678 0.0715 0.0779
0.0968 0.0810 0.0808
0.1235 0.0876 0.0845
0.1476 0.0932 0.0887
0.1742 0.0985 0.0928
0.2027 0.1041 0.0966
0.2340 0.1098 0.1010
0.2623 0.1154 0.1062
0.2861 0.1205 0.1112
0.3091 0.1260 0.1165
0.3318 0.1313 0.1217
0.3540 0.1365 0.1272
0.3796 0.1422 0.1329
0.4087 0.1480 0.1388
0.4367 0.1537 0.1444
0.4658 0.1588 0.1498
0.4982 0.1651 0.1565
0.5289 0.1710 0.1628
0.5549 0.1762 0.1683
0.5786 0.1815 0.1739
0.5998 0.1867 0.1793
0.6204 0.1914 0.1841
0.6376 0.1962 0.1884
0.6529 0.2008 0.1928
0.6668 0.2066 0.1978
0.6815 0.2130 0.2029
0.6964 0.2200 0.2080
0.7099 0.2270 0.2126
0.7208 0.2358 0.2178
0.7261 0.2446 0.2217
0.7334 0.2529 0.2257
0.0678 0.0811 0.0773
0.0682 0.0848 0.0775
0.0860 0.0907 0.0792
0.1136 0.0990 0.0836
0.1373 0.1018 0.0870
0.1632 0.1054 0.0908
0.1903 0.1097 0.0944
0.2208 0.1150 0.0989
0.2500 0.1202 0.1047
0.2768 0.1247 0.1097
0.3022 0.1302 0.1150
0.3259 0.1358 0.1205
0.3496 0.1412 0.1263
0.3781 0.1469 0.1323
0.4098 0.1531 0.1388
0.4396 0.1586 0.1445
0.4708 0.1649 0.1510
0.5069 0.1713 0.1580
0.5380 0.1773 0.1646
0.5659 0.1829 0.1709
0.5900 0.1884 0.1769
0.6123 0.1929 0.1819
0.6328 0.1978 0.1874
0.6511 0.2025 0.1924
0.6661 0.2069 0.1968
0.6807 0.2118 0.2011
0.6937 0.2173 0.2055
0.7077 0.2238 0.2103
0.7193 0.2311 0.2156
0.7299 0.2404 0.2200
0.7345 0.2483 0.2235
0.7400 0.2561 0.2272
0.0687 0.0920 0.0780
0.0689 0.0956 0.0781
0.0823 0.1013 0.0799
0.1048 0.1065 0.0822
0.1321 0.1175 0.0868
0.1540 0.1190 0.0905
0.1813 0.1205 0.0929
0.2124 0.1237 0.0980
0.2418 0.1276 0.1036
0.2692 0.1321 0.1095
0.2960 0.1371 0.1152
0.3208 0.1420 0.1204
0.3463 0.1473 0.1262
0.3766 0.1526 0.1325
0.4094 0.1584 0.1388
0.4411 0.1643 0.1454
0.4746 0.1706 0.1520
0.5104 0.1770 0.1594
0.5452 0.1834 0.1665
0.5741 0.1890 0.1732
0.6006 0.1945 0.1794
0.6250 0.2000 0.1856
0.6459 0.2048 0.1913
0.6662 0.2089 0.1960
0.6828 0.2133 0.2008
0.6972 0.2178 0.2051
0.7101 0.2228 0.2094
0.7231 0.2290 0.2141
0.7337 0.2372 0.2193
0.7431 0.2484 0.2244
0.7467 0.2554 0.2277
0.7510 0.2615 0.2299
0.0696 0.1027 0.0796
0.0699 0.1059 0.0792
0.0755 0.1114 0.0805
0.0988 0.1167 0.0832
0.1216 0.1225 0.0860
0.1518 0.1360 0.0913
0.1762 0.1379 0.0956
0.2061 0.1383 0.0988
0.2365 0.1403 0.1041
0.2643 0.1428 0.1096
0.2918 0.1464 0.1152
0.3170 0.1505 0.1212
0.3424 0.1547 0.1270
0.3732 0.1595 0.1331
0.4078 0.1650 0.1396
0.4416 0.1706 0.1461
0.4765 0.1766 0.1530
0.5152 0.1830 0.1606
0.5494 0.1889 0.1678
0.5803 0.1950 0.1750
0.6082 0.2006 0.1816
0.6338 0.2064 0.1885
0.6584 0.2107 0.1941
0.6798 0.2157 0.2001
0.6981 0.2203 0.2054
0.7131 0.2244 0.2094
0.7282 0.2286 0.2134
0.7399 0.2351 0.2187
0.7500 0.2449 0.2235
0.7596 0.2567 0.2288
0.7632 0.2638 0.2320
0.7638 0.2686 0.2342
0.0704 0.1133 0.0814
0.0707 0.1165 0.0808
0.0715 0.1214 0.0817
0.0929 0.1277 0.0847
0.1175 0.1339 0.0878
0.1429 0.1415 0.0911
0.1751 0.1558 0.0968
0.2026 0.1577 0.1025
0.2312 0.1575 0.1060
0.2605 0.1577 0.1106
0.2888 0.1593 0.1163
0.3139 0.1613 0.1219
0.3392 0.1650 0.1278
0.3693 0.1694 0.1348
0.4037 0.1741 0.1413
0.4397 0.1789 0.1476
0.4768 0.1845 0.1547
0.5159 0.1899 0.1620
0.5523 0.1958 0.1696
0.5846 0.2016 0.1769
0.6130 0.2065 0.1835
0.6397 0.2117 0.1902
0.6649 0.2164 0.1966
0.6879 0.2206 0.2022
0.7092 0.2253 0.2081
0.7245 0.2298 0.2128
0.7407 0.2341 0.2175
0.7534 0.2405 0.2220
0.7630 0.2521 0.2276
0.7722 0.2644 0.2332
0.7772 0.2728 0.2370
0.7773 0.2751 0.2377
0.0714 0.1249 0.0841
0.0716 0.1280 0.0834
0.0724 0.1333 0.0841
0.0895 0.1403 0.0868
0.1140 0.1469 0.0895
0.1399 0.1548 0.0932
0.1679 0.1642 0.0972
0.2021 0.1770 0.1038
0.2289 0.1783 0.1102
0.2568 0.1770 0.1140
0.2860 0.1758 0.1180
0.3118 0.1762 0.1234
0.3365 0.1778 0.1289
0.3664 0.1807 0.1356
0.4005 0.1849 0.1425
0.4353 0.1889 0.1492
0.4746 0.1934 0.1560
0.5166 0.1981 0.1636
0.5528 0.2031 0.1712
0.5868 0.2084 0.1789
0.6156 0.2127 0.1853
0.6427 0.2174 0.1921
0.6692 0.2218 0.1985
0.6926 0.2266 0.2047
0.7146 0.2309 0.2104
0.7322 0.2349 0.2151
0.7497 0.2389 0.2199
0.7626 0.2489 0.2259
0.7742 0.2603 0.2312
0.7832 0.2732 0.2377
0.7906 0.2827 0.2415
0.7894 0.2849 0.2427
0.0725 0.1390 0.0884
0.0726 0.1416 0.0870
0.0735 0.1470 0.0873
0.0902 0.1547 0.0894
0.1130 0.1617 0.0916
0.1367 0.1690 0.0956
0.1669 0.1786 0.1002
0.1981 0.1888 0.1045
0.2291 0.1961 0.1111
0.2556 0.1970 0.1178
0.2836 0.1952 0.1220
0.3093 0.1932 0.1256
0.3351 0.1934 0.1307
0.3644 0.1947 0.1368
0.3983 0.1969 0.1434
0.4336 0.1999 0.1502
0.4701 0.2040 0.1576
0.5133 0.2086 0.1660
0.5527 0.2125 0.1733
0.5881 0.2164 0.1807
0.6187 0.2203 0.1876
0.6470 0.2241 0.1939
0.6733 0.2296 0.2010
0.6963 0.2347 0.2075
0.7189 0.2399 0.2133
0.7387 0.2439 0.2187
0.7547 0.2491 0.2236
0.7685 0.2592 0.2296
0.7822 0.2699 0.2352
0.7933 0.2812 0.2410
0.8014 0.2942 0.2466
0.8012 0.2979 0.2484
0.0736 0.1531 0.0932
0.0739 0.1558 0.0911
0.0746 0.1609 0.0906
0.0925 0.1697 0.0927
0.1140 0.1770 0.0948
0.1383 0.1845 0.0986
0.1655 0.1933 0.1029
0.2007 0.2050 0.1078
0.2289 0.2128 0.1118
0.2562 0.2170 0.1191
0.2828 0.2184 0.1265
0.3073 0.2158 0.1305
0.3327 0.2141 0.1342
0.3630 0.2134 0.1392
0.3969 0.2139 0.1454
0.4318 0.2158 0.1519
0.4700 0.2185 0.1594
0.5115 0.2223 0.1680
0.5515 0.2264 0.1763
0.5879 0.2302 0.1836
0.6190 0.2337 0.1910
0.6488 0.2376 0.1977
0.6757 0.2428 0.2044
0.7017 0.2474 0.2112
0.7248 0.2513 0.2173
0.7458 0.2544 0.2225
0.7603 0.2607 0.2274
0.7746 0.2689 0.2331
0.7891 0.2784 0.2388
0.8008 0.2900 0.2445
0.8091 0.3038 0.2508
0.8117 0.3098 0.2537
0.0750 0.1680 0.0984
0.0753 0.1709 0.0961
0.0777 0.1764 0.0950
0.0922 0.1866 0.0967
0.1156 0.1948 0.0991
0.1405 0.2024 0.1022
0.1668 0.2107 0.1063
0.1996 0.2215 0.1113
0.2337 0.2328 0.1163
0.2587 0.2375 0.1202
0.2845 0.2406 0.1280
0.3079 0.2413 0.1352
0.3317 0.2397 0.1397
0.3611 0.2378 0.1436
0.3964 0.2374 0.1490
0.4309 0.2381 0.1550
0.4688 0.2398 0.1620
0.5120 0.2434 0.1709
0.5506 0.2462 0.1794
0.5858 0.2497 0.1882
0.6171 0.2534 0.1956
0.6472 0.2564 0.2023
0.6750 0.2608 0.2093
0.7026 0.2631 0.2157
0.7283 0.2654 0.2216
0.7494 0.2687 0.2275
0.7645 0.2744 0.2323
0.7811 0.2794 0.2370
0.7947 0.2882 0.2424
0.8068 0.3005 0.2488
0.8159 0.3135 0.2548
0.8212 0.3225 0.2594
0.0790 0.1851 0.1048
0.0798 0.1874 0.1025
0.0830 0.1927 0.1010
0.0939 0.2026 0.1011
0.1179 0.2134 0.1036
0.1429 0.2214 0.1065
0.1713 0.2304 0.1110
0.1998 0.2395 0.1157
0.2333 0.2499 0.1205
0.2677 0.2601 0.1258
0.2870 0.2594 0.1294
0.3100 0.2609 0.1365
0.3332 0.2627 0.1440
0.3605 0.2616 0.1491
0.3948 0.2609 0.1540
0.4309 0.2609 0.1592
0.4692 0.2621 0.1656
0.5125 0.2645 0.1740
0.5526 0.2674 0.1828
0.5871 0.2708 0.1913
0.6176 0.2738 0.1994
0.6457 0.2762 0.2071
0.6742 0.2802 0.2143
0.7026 0.2827 0.2211
0.7296 0.2850 0.2275
0.7511 0.2880 0.2326
0.7679 0.2926 0.2379
0.7850 0.2951 0.2417
0.7996 0.3028 0.2473
0.8118 0.3144 0.2533
0.8217 0.3259 0.2594
0.8293 0.3357 0.2647
0.0840 0.2027 0.1119
0.0853 0.2041 0.1091
0.0883 0.2093 0.1071
0.0974 0.2187 0.1060
0.1198 0.2311 0.1081
0.1464 0.2416 0.1116
0.1760 0.2503 0.1161
0.2037 0.2580 0.1204
0.2325 0.2659 0.1246
0.2696 0.2765 0.1300
0.2987 0.2830 0.1345
0.3131 0.2792 0.1379
0.3365 0.2818 0.1454
0.3643 0.2850 0.1538
0.3955 0.2850 0.1600
0.4303 0.2849 0.1648
0.4704 0.2858 0.1709
0.5137 0.2870 0.1783
0.5538 0.2889 0.1866
0.5893 0.2916 0.1951
0.6195 0.2949 0.2030
0.6495 0.2979 0.2113
0.6774 0.3002 0.2192
0.7049 0.3034 0.2273
0.7303 0.3067 0.2342
0.7523 0.3099 0.2397
0.7712 0.3128 0.2444
0.7887 0.3149 0.2488
0.8028 0.3223 0.2545
0.8146 0.3319 0.2600
0.8257 0.3414 0.2657
0.8345 0.3509 0.2713
0.0902 0.2219 0.1198
0.0915 0.2229 0.1162
0.0941 0.2275 0.1140
0.1022 0.2365 0.1123
0.1199 0.2481 0.1132
0.1486 0.2613 0.1167
0.1779 0.2704 0.1210
0.2079 0.2770 0.1251
0.2355 0.2834 0.1290
0.2691 0.2921 0.1341
0.3037 0.3022 0.1400
0.3264 0.3041 0.1433
0.3401 0.2996 0.1473
0.3684 0.3029 0.1557
0.4013 0.3071 0.1645
0.4327 0.3071 0.1713
0.4715 0.3079 0.1769
0.5163 0.3091 0.1841
0.5559 0.3106 0.1915
0.5915 0.3125 0.1994
0.6225 0.3151 0.2073
0.6526 0.3175 0.2155
0.6821 0.3204 0.2238
0.7098 0.3234 0.2320
0.7350 0.3254 0.2393
0.7568 0.3275 0.2457
0.7760 0.3301 0.2510
0.7927 0.3339 0.2562
0.8072 0.3398 0.2613
0.8200 0.3475 0.2662
0.8312 0.3559 0.2717
0.8410 0.3657 0.2765
0.0975 0.2425 0.1284
0.0984 0.2431 0.1246
0.1005 0.2463 0.1213
0.1069 0.2545 0.1192
0.1219 0.2651 0.1190
0.1492 0.2773 0.1212
0.1792 0.2885 0.1256
0.2082 0.2947 0.1296
0.2399 0.3008 0.1340
0.2699 0.3073 0.1384
0.3033 0.3166 0.1440
0.3359 0.3263 0.1500
0.3597 0.3252 0.1536
0.3732 0.3193 0.1577
0.4060 0.3230 0.1665
0.4397 0.3272 0.1753
0.4745 0.3274 0.1830
0.5181 0.3289 0.1899
0.5585 0.3300 0.1971
0.5934 0.3314 0.2043
0.6258 0.3339 0.2121
0.6559 0.3358 0.2200
0.6857 0.3384 0.2283
0.7135 0.3417 0.2363
0.7397 0.3441 0.2440
0.7621 0.3461 0.2505
0.7816 0.3479 0.2563
0.7976 0.3506 0.2613
0.8128 0.3562 0.2666
0.8265 0.3627 0.2715
0.8392 0.3703 0.2765
0.8487 0.3811 0.2812
0.1042 0.2614 0.1365
0.1051 0.2621 0.1330
0.1069 0.2643 0.1284
0.1119 0.2710 0.1256
0.1263 0.2814 0.1248
0.1506 0.2924 0.1260
0.1809 0.3043 0.1305
0.2106 0.3126 0.1349
0.2429 0.3177 0.1388
0.2754 0.3239 0.1433
0.3033 0.3314 0.1480
0.3362 0.3412 0.1536
0.3693 0.3458 0.1585
0.4016 0.3486 0.1656
0.4117 0.3394 0.1682
0.4453 0.3435 0.1772
0.4822 0.3478 0.1872
0.5212 0.3488 0.1961
0.5619 0.3498 0.2033
0.5978 0.3508 0.2104
0.6296 0.3527 0.2177
0.6608 0.3553 0.2255
0.6897 0.3580 0.2334
0.7175 0.3614 0.2415
0.7445 0.3641 0.2491
0.7685 0.3673 0.2564
0.7881 0.3708 0.2625
0.8049 0.3750 0.2678
0.8207 0.3783 0.2728
0.8341 0.3829 0.2773
0.8462 0.3908 0.2821
0.8569 0.4029 0.2874
0.1111 0.2797 0.1448
0.1121 0.2807 0.1411
0.1141 0.2832 0.1361
0.1176 0.2882 0.1318
0.1284 0.2978 0.1307
0.1511 0.3096 0.1319
0.1831 0.3228 0.1367
0.2146 0.3340 0.1415
0.2461 0.3392 0.1451
0.2789 0.3446 0.1493
0.3066 0.3516 0.1537
0.3360 0.3607 0.1588
0.3787 0.3743 0.1658
0.4150 0.3774 0.1707
0.4493 0.3823 0.1790
0.4535 0.3646 0.1798
0.4905 0.3698 0.1903
0.5303 0.3761 0.2019
0.5662 0.3767 0.2111
0.6031 0.3772 0.2183
0.6345 0.3785 0.2252
0.6658 0.3810 0.2328
0.6956 0.3838 0.2406
0.7236 0.3874 0.2483
0.7521 0.3909 0.2564
0.7751 0.3948 0.2633
0.7959 0.3992 0.2697
0.8144 0.4032 0.2754
0.8320 0.4071 0.2809
0.8454 0.4137 0.2858
0.8551 0.4203 0.2897
0.8653 0.4301 0.2942
0.1194 0.3008 0.1546
0.1205 0.3016 0.1505
0.1222 0.3037 0.1454
0.1251 0.3080 0.1396
0.1312 0.3163 0.1364
0.1519 0.3296 0.1385
0.1833 0.3442 0.1430
0.2193 0.3581 0.1485
0.2548 0.3685 0.1536
0.2839 0.3723 0.1570
0.3111 0.3790 0.1612
0.3395 0.3885 0.1663
0.3805 0.4023 0.1727
0.4322 0.4188 0.1806
0.4661 0.4201 0.1849
0.5012 0.4233 0.1940
0.5006 0.3978 0.1936
0.5409 0.4044 0.2054
0.5752 0.4092 0.2174
0.6085 0.4102 0.2268
0.6406 0.4119 0.2339
0.6717 0.4138 0.2412
0.7024 0.4165 0.2489
0.7307 0.4195 0.2564
0.7590 0.4231 0.2640
0.7829 0.4278 0.2710
0.8038 0.4321 0.2773
0.8228 0.4370 0.2833
0.8402 0.4426 0.2890
0.8538 0.4500 0.2941
0.8646 0.4562 0.2982
0.8746 0.4645 0.3023
0.1284 0.3232 0.1653
0.1291 0.3234 0.1607
0.1306 0.3252 0.1555
0.1336 0.3297 0.1489
0.1389 0.3380 0.1437
0.1535 0.3513 0.1448
0.1831 0.3685 0.1498
0.2223 0.3857 0.1559
0.2637 0.4020 0.1626
0.2921 0.4070 0.1661
0.3162 0.4114 0.1695
0.3454 0.4205 0.1744
0.3840 0.4327 0.1802
0.4358 0.4481 0.1871
0.4866 0.4648 0.1956
0.5193 0.4624 0.1999
0.5554 0.4661 0.2110
0.5495 0.4338 0.2088
0.5853 0.4408 0.2213
0.6171 0.4460 0.2333
0.6466 0.4490 0.2427
0.6790 0.4518 0.2503
0.7098 0.4540 0.2577
0.7385 0.4576 0.2651
0.7655 0.4611 0.2724
0.7894 0.4658 0.2793
0.8102 0.4700 0.2854
0.8296 0.4754 0.2916
0.8463 0.4822 0.2972
0.8596 0.4901 0.3022
0.8715 0.4949 0.3062
0.8760 0.5026 0.3088
0.1375 0.3481 0.1769
0.1383 0.3482 0.1714
0.1399 0.3499 0.1644
0.1428 0.3547 0.1576
0.1489 0.3644 0.1524
0.1597 0.3769 0.1523
0.1872 0.3959 0.1575
0.2274 0.4162 0.1639
0.2685 0.4334 0.1705
0.3033 0.4452 0.1761
0.3261 0.4472 0.1787
0.3529 0.4536 0.1827
0.3909 0.4647 0.1882
0.4403 0.4790 0.1949
0.4910 0.4936 0.2017
0.5367 0.5037 0.2093
0.5731 0.5044 0.2174
0.6032 0.5067 0.2279
0.5936 0.4718 0.2246
0.6278 0.4789 0.2370
0.6562 0.4852 0.2489
0.6862 0.4893 0.2591
0.7173 0.4927 0.2667
0.7457 0.4960 0.2739
0.7741 0.4999 0.2814
0.7970 0.5041 0.2880
0.8170 0.5079 0.2939
0.8348 0.5139 0.2996
0.8528 0.5189 0.3053
0.8667 0.5238 0.3100
0.8765 0.5293 0.3136
0.8769 0.5407 0.3156
0.1471 0.3767 0.1878
0.1480 0.3773 0.1815
0.1493 0.3784 0.1745
0.1515 0.3815 0.1661
0.1566 0.3908 0.1603
0.1692 0.4063 0.1611
0.1945 0.4260 0.1660
0.2376 0.4481 0.1724
0.2805 0.4665 0.1794
0.3139 0.4815 0.1859
0.3385 0.4856 0.1891
0.3653 0.4890 0.1923
0.4021 0.4973 0.1970
0.4458 0.5082 0.2025
0.4977 0.5232 0.2098
0.5508 0.5388 0.2185
0.5870 0.5396 0.2236
0.6228 0.5436 0.2353
0.6452 0.5405 0.2439
0.6357 0.5092 0.2404
0.6663 0.5167 0.2527
0.6951 0.5236 0.2648
0.7243 0.5282 0.2754
0.7529 0.5318 0.2827
0.7814 0.5363 0.2904
0.8039 0.5405 0.2968
0.8236 0.5443 0.3026
0.8417 0.5484 0.3080
0.8594 0.5523 0.3134
0.8731 0.5580 0.3182
0.8775 0.5614 0.3200
0.8778 0.5731 0.3223
0.1563 0.4072 0.1977
0.1569 0.4071 0.1921
0.1582 0.4085 0.1851
0.1605 0.4121 0.1758
0.1650 0.4207 0.1686
0.1758 0.4358 0.1688
0.2025 0.4573 0.1741
0.2484 0.4811 0.1815
0.2926 0.5004 0.1889
0.3244 0.5157 0.1955
0.3521 0.5241 0.2001
0.3796 0.5254 0.2027
0.4167 0.5309 0.2067
0.4586 0.5388 0.2116
0.5032 0.5498 0.2175
0.5578 0.5660 0.2262
0.6042 0.5768 0.2347
0.6364 0.5771 0.2413
0.6682 0.5804 0.2544
0.6836 0.5742 0.2600
0.6745 0.5450 0.2563
0.7045 0.5531 0.2688
0.7327 0.5606 0.2812
0.7601 0.5660 0.2920
0.7879 0.5702 0.2995
0.8102 0.5745 0.3058
0.8294 0.5780 0.3114
0.8477 0.5820 0.3168
0.8644 0.5861 0.3220
0.8775 0.5904 0.3262
0.8784 0.5947 0.3273
0.8788 0.6055 0.3297
0.1651 0.4378 0.2073
0.1659 0.4384 0.2020
0.1673 0.4405 0.1945
0.1699 0.4447 0.1855
0.1749 0.4543 0.1784
0.1844 0.4673 0.1776
0.2112 0.4897 0.1834
0.2551 0.5125 0.1903
0.3018 0.5312 0.1979
0.3364 0.5460 0.2049
0.3692 0.5583 0.2112
0.3963 0.5590 0.2133
0.4307 0.5619 0.2164
0.4724 0.5688 0.2211
0.5141 0.5783 0.2267
0.5624 0.5907 0.2341
0.6154 0.6064 0.2440
0.6476 0.6077 0.2489
0.6818 0.6115 0.2597
0.7108 0.6155 0.2717
0.7220 0.6071 0.2770
0.7135 0.5806 0.2728
0.7432 0.5889 0.2849
0.7698 0.5958 0.2968
0.7941 0.6008 0.3084
0.8164 0.6049 0.3146
0.8360 0.6091 0.3204
0.8531 0.6132 0.3257
0.8696 0.6163 0.3304
0.8789 0.6189 0.3332
0.8792 0.6227 0.3341
0.8795 0.6332 0.3365
0.1741 0.4692 0.2158
0.1747 0.4694 0.2105
0.1759 0.4708 0.2036
0.1783 0.4746 0.1933
0.1831 0.4836 0.1867
0.1947 0.4987 0.1873
0.2197 0.5182 0.1918
0.2643 0.5394 0.1984
0.3104 0.5569 0.2061
0.3457 0.5716 0.2133
0.3830 0.5844 0.2201
0.4179 0.5896 0.2241
0.4479 0.5897 0.2260
0.4847 0.5943 0.2297
0.5262 0.6035 0.2354
0.5706 0.6143 0.2422
0.6188 0.6270 0.2505
0.6620 0.6381 0.2597
0.6905 0.6363 0.2643
0.7198 0.6397 0.2765
0.7481 0.6428 0.2888
0.7581 0.6341 0.2924
0.7508 0.6120 0.2895
0.7774 0.6179 0.3008
0.8030 0.6262 0.3123
0.8231 0.6309 0.3211
0.8399 0.6337 0.3278
0.8572 0.6364 0.3325
0.8738 0.6402 0.3374
0.8799 0.6423 0.3393
0.8800 0.6461 0.3401
0.8802 0.6557 0.3423
0.1822 0.4972 0.2243
0.1831 0.4984 0.2195
0.1844 0.5003 0.2125
0.1866 0.5031 0.2014
0.1917 0.5122 0.1952
0.2011 0.5235 0.1947
0.2269 0.5421 0.1993
0.2706 0.5619 0.2058
0.3170 0.5791 0.2134
0.3566 0.5941 0.2212
0.3933 0.6054 0.2276
0.4335 0.6146 0.2331
0.4649 0.6155 0.2353
0.4988 0.6189 0.2385
0.5365 0.6255 0.2432
0.5814 0.6367 0.2503
0.6227 0.6470 0.2575
0.6667 0.6593 0.2668
0.6992 0.6623 0.2729
0.7278 0.6635 0.2806
0.7572 0.6654 0.2932
0.7823 0.6678 0.3040
0.7893 0.6591 0.3073
0.7836 0.6386 0.3041
0.8083 0.6446 0.3149
0.8281 0.6505 0.3237
0.8458 0.6551 0.3312
0.8611 0.6576 0.3380
0.8772 0.6613 0.3437
0.8805 0.6620 0.3445
0.8806 0.6665 0.3454
0.8817 0.6746 0.3467
0.1892 0.5200 0.2295
0.1899 0.5207 0.2253
0.1912 0.5226 0.2187
0.1938 0.5268 0.2090
0.1981 0.5340 0.2026
0.2096 0.5464 0.2036
0.2344 0.5632 0.2069
0.2766 0.5809 0.2122
0.3210 0.5967 0.2194
0.3617 0.6117 0.2274
0.4035 0.6236 0.2343
0.4457 0.6332 0.2401
0.4766 0.6352 0.2426
0.5084 0.6381 0.2455
0.5462 0.6452 0.2505
0.5881 0.6542 0.2568
0.6285 0.6641 0.2640
0.6669 0.6743 0.2717
0.7077 0.6857 0.2815
0.7314 0.6816 0.2842
0.7612 0.6844 0.2962
0.7886 0.6861 0.3079
0.8114 0.6878 0.3178
0.8185 0.6798 0.3198
0.8131 0.6630 0.3175
0.8329 0.6678 0.3256
0.8500 0.6719 0.3342
0.8673 0.6765 0.3408
0.8821 0.6794 0.3474
0.8829 0.6796 0.3477
0.8842 0.6834 0.3474
0.8858 0.6918 0.3484
0.1955 0.5402 0.2361
0.1964 0.5415 0.2318
0.1976 0.5427 0.2239
0.2001 0.5466 0.2152
0.2047 0.5538 0.2102
0.2150 0.5643 0.2099
0.2407 0.5800 0.2125
0.2809 0.5961 0.2176
0.3230 0.6112 0.2245
0.3641 0.6254 0.2322
0.4074 0.6372 0.2391
0.4497 0.6468 0.2450
0.4852 0.6516 0.2487
0.5150 0.6537 0.2513
0.5509 0.6597 0.2557
0.5931 0.6690 0.2624
0.6317 0.6782 0.2692
0.6672 0.6877 0.2764
0.7051 0.6985 0.2851
0.7349 0.7010 0.2907
0.7628 0.7017 0.2975
0.7911 0.7031 0.3091
0.8163 0.7039 0.3200
0.8356 0.7031 0.3285
0.8406 0.6958 0.3302
0.8370 0.6830 0.3283
0.8548 0.6865 0.3355
0.8705 0.6896 0.3433
0.8854 0.6946 0.3495
0.8870 0.6956 0.3490
0.8873 0.6985 0.3494
0.8887 0.7073 0.3506
0.2014 0.5574 0.2391
0.2022 0.5585 0.2343
0.2033 0.5597 0.2270
0.2058 0.5631 0.2192
0.2101 0.5691 0.2149
0.2221 0.5799 0.2154
0.2466 0.5942 0.2180
0.2838 0.6095 0.2225
0.3233 0.6233 0.2287
0.3627 0.6370 0.2361
0.4087 0.6490 0.2433
0.4506 0.6579 0.2489
0.4856 0.6638 0.2529
0.5159 0.6660 0.2555
0.5526 0.6717 0.2600
0.5929 0.6802 0.2662
0.6314 0.6896 0.2732
0.6671 0.6995 0.2807
0.6994 0.7085 0.2875
0.7372 0.7189 0.2967
0.7605 0.7144 0.2993
0.7900 0.7173 0.3103
0.8162 0.7180 0.3205
0.8397 0.7180 0.3303
0.8549 0.7170 0.3367
0.8602 0.7105 0.3385
0.8575 0.6987 0.3370
0.8739 0.7020 0.3439
0.8884 0.7066 0.3507
0.8889 0.7086 0.3513
0.8901 0.7130 0.3514
0.8917 0.7205 0.3521
0.2060 0.5699 0.2379
0.2067 0.5704 0.2332
0.2079 0.5720 0.2276
0.2108 0.5765 0.2223
0.2156 0.5828 0.2195
0.2275 0.5927 0.2197
0.2521 0.6060 0.2218
0.2871 0.6190 0.2259
0.3236 0.6322 0.2320
0.3616 0.6448 0.2389
0.4038 0.6557 0.2454
0.4459 0.6644 0.2509
0.4816 0.6717 0.2555
0.5131 0.6752 0.2585
0.5499 0.6811 0.2630
0.5895 0.6894 0.2691
0.6274 0.6984 0.2759
0.6625 0.7082 0.2832
0.6954 0.7180 0.2904
0.7280 0.7272 0.2978
0.7605 0.7330 0.3049
0.7857 0.7302 0.3092
0.8141 0.7313 0.3205
0.8379 0.7314 0.3312
0.8575 0.7310 0.3387
0.8724 0.7305 0.3452
0.8785 0.7246 0.3474
0.8766 0.7141 0.3455
0.8909 0.7175 0.3518
0.8917 0.7195 0.3523
0.8929 0.7247 0.3525
0.8942 0.7316 0.3532
0.2099 0.5803 0.2380
0.2105 0.5809 0.2341
0.2119 0.5829 0.2293
0.2142 0.5863 0.2241
