Data/LUTs/Vision 6 - Rec.709_32.cube
TITLE "Vision 6 - Rec.709_32"
LUT_3D_SIZE 5
DOMAIN_MIN 0.000000 0.000000 0.000000
DOMAIN_MAX 0.903226 0.903226 0.903226
0.0000 0.0000 0.0000
0.3716 0.0274 0.0034
0.5336 0.0414 0.0211
0.6388 0.0641 0.0304
0.7293 0.1274 0.0381
0.0000 0.1481 0.0146
0.2251 0.1895 0.0238
0.4958 0.1987 0.0000
0.7103 0.2172 0.0000
0.8249 0.2543 0.0026
0.0086 0.2862 0.0771
0.1465 0.3279 0.0313
0.4706 0.3868 0.0734
0.7379 0.4018 0.0181
0.8645 0.4128 0.0061
0.0271 0.4472 0.1597
0.0785 0.4988 0.0529
0.4977 0.5934 0.1226
0.7673 0.6309 0.1361
0.9145 0.6197 0.0960
0.0400 0.5611 0.2187
0.0946 0.6157 0.0725
0.4748 0.6982 0.1276
0.7632 0.7623 0.1824
0.9316 0.7551 0.1645
0.0000 0.0007 0.3024
0.4083 0.0000 0.3398
0.5830 0.0000 0.2953
0.6799 0.0163 0.2551
0.7407 0.0782 0.2663
0.0000 0.2269 0.2859
0.2161 0.2155 0.2541
0.4728 0.2431 0.2249
0.6942 0.2639 0.2089
0.7902 0.2842 0.1960
0.0000 0.3612 0.3088
0.0212 0.3431 0.1986
0.4586 0.3959 0.1973
0.7528 0.3805 0.1711
0.8922 0.3794 0.1404
0.0051 0.5160 0.3423
0.0380 0.5227 0.1959
0.4041 0.5943 0.1544
0.7669 0.6246 0.1451
0.9633 0.6061 0.1002
0.0230 0.6050 0.3541
0.0635 0.6301 0.1613
0.3802 0.7075 0.1266
0.7430 0.7841 0.1880
0.9785 0.7880 0.1734
0.0000 0.0826 0.4403
0.3843 0.0000 0.4923
0.5893 0.0000 0.4944
0.7038 0.0000 0.4710
0.7713 0.0415 0.4674
0.0000 0.2780 0.4352
0.1248 0.2049 0.4626
0.4985 0.2279 0.4787
0.7055 0.2277 0.3959
0.7808 0.2434 0.3340
0.0000 0.3958 0.4572
0.0000 0.3957 0.4595
0.4003 0.4188 0.4554
0.6825 0.4357 0.4075
0.8360 0.4321 0.3654
0.0000 0.5453 0.4758
0.0000 0.5704 0.4285
0.2395 0.6008 0.3709
0.7259 0.6542 0.3789
0.9555 0.6174 0.3407
0.0050 0.6422 0.4671
0.0362 0.6620 0.3516
0.2727 0.7175 0.2676
0.6942 0.8036 0.3347
0.9802 0.8188 0.3050
0.0000 0.0958 0.5290
0.3925 0.0000 0.6015
0.5745 0.0000 0.6240
0.7065 0.0000 0.6284
0.7840 0.0043 0.6515
0.0000 0.3188 0.5596
0.0641 0.1992 0.6266
0.4189 0.2096 0.6625
0.7210 0.2108 0.6628
0.8279 0.2484 0.6211
0.0000 0.4204 0.5925
0.0000 0.4089 0.6461
0.3041 0.3911 0.6855
0.7131 0.4114 0.6973
0.8500 0.4052 0.5965
0.0000 0.5697 0.6321
0.0000 0.6256 0.6729
0.0740 0.6397 0.6730
0.6631 0.6857 0.6835
0.8945 0.6606 0.6128
0.0000 0.6861 0.6230
0.0000 0.7186 0.5941
0.0466 0.7440 0.5187
0.5809 0.8234 0.5398
0.9612 0.8676 0.5705
0.0000 0.1990 0.6086
0.4651 0.0000 0.6950
0.6067 0.0000 0.7256
0.7166 0.0000 0.7444
0.7928 0.0000 0.7733
0.0000 0.3604 0.6589
0.1257 0.1851 0.7278
0.4115 0.1938 0.7693
0.6686 0.2066 0.7967
0.8305 0.2296 0.8049
0.0000 0.4470 0.7056
0.0000 0.3936 0.7365
0.2556 0.3351 0.8012
0.6150 0.3600 0.8338
0.8603 0.3677 0.8353
0.0000 0.5734 0.7516
0.0000 0.5861 0.7870
0.0304 0.5809 0.8407
0.5666 0.6013 0.8785
0.9033 0.6097 0.8846
0.0000 0.7163 0.7992
0.0000 0.7580 0.8312
0.0000 0.7980 0.8565
0.3737 0.8621 0.8874
0.9126 0.9245 0.9097
