Data/LUTs/Vision 6 - Rec.709_32.cube
TITLE "Vision 6 - Rec.709_32"
LUT_3D_SIZE 8
DOMAIN_MIN 0.000000 0.000000 0.000000
DOMAIN_MAX 0.903226 0.903226 0.903226
0.0000 0.0000 0.0000
0.2476 0.0219 0.0000
0.4019 0.0295 0.0067
0.4990 0.0371 0.0175
0.5675 0.0482 0.0242
0.6259 0.0596 0.0295
0.6781 0.0811 0.0318
0.7293 0.1274 0.0381
0.0000 0.0876 0.0000
0.1276 0.1069 0.0021
0.3081 0.1097 0.0000
0.4519 0.1194 0.0000
0.5671 0.1333 0.0000
0.6667 0.1491 0.0074
0.7379 0.1664 0.0123
0.7980 0.1970 0.0116
0.0000 0.1683 0.0231
0.0538 0.1838 0.0016
0.2581 0.2154 0.0302
0.4228 0.2197 0.0000
0.5622 0.2268 0.0000
0.6903 0.2384 0.0000
0.7756 0.2530 0.0000
0.8315 0.2745 0.0012
0.0040 0.2475 0.0584
0.0202 0.2550 0.0124
0.2296 0.3019 0.0451
0.3998 0.3281 0.0583
0.5542 0.3352 0.0256
0.7013 0.3467 0.0013
0.8003 0.3546 0.0019
0.8534 0.3666 0.0039
0.0136 0.3292 0.0990
0.0246 0.3358 0.0288
0.1830 0.3878 0.0435
0.3996 0.4350 0.0883
0.5496 0.4540 0.0912
0.7101 0.4627 0.0585
0.8251 0.4676 0.0329
0.8789 0.4679 0.0214
0.0245 0.4246 0.1478
0.0394 0.4370 0.0598
0.1397 0.4894 0.0522
0.4044 0.5447 0.1006
0.5775 0.5865 0.1333
0.7267 0.5985 0.1280
0.8475 0.5992 0.1010
0.9070 0.5917 0.0823
0.0340 0.5055 0.1891
0.0519 0.5261 0.0919
0.1592 0.5806 0.0674
0.4233 0.6385 0.1122
0.5962 0.6807 0.1488
0.7411 0.6987 0.1675
0.8605 0.7026 0.1533
0.9273 0.6915 0.1318
0.0400 0.5611 0.2187
0.0599 0.5828 0.1123
0.1427 0.6289 0.0750
0.3876 0.6784 0.1084
0.5589 0.7177 0.1459
0.7278 0.7577 0.1778
0.8472 0.7610 0.1822
0.9316 0.7551 0.1645
0.0000 0.0000 0.2112
0.2660 0.0000 0.2264
0.4351 0.0000 0.1956
0.5313 0.0088 0.1645
0.5962 0.0189 0.1420
0.6495 0.0265 0.1269
0.6916 0.0319 0.1281
0.7227 0.0888 0.1549
0.0000 0.1224 0.1739
0.1288 0.1246 0.1578
0.3067 0.1451 0.1344
0.4496 0.1655 0.1319
0.5655 0.1706 0.1204
0.6616 0.1715 0.1083
0.7217 0.1780 0.0999
0.7711 0.2232 0.1230
0.0000 0.2119 0.1812
0.0189 0.2000 0.1224
0.2735 0.2307 0.1180
0.4386 0.2330 0.1191
0.5773 0.2350 0.0975
0.7063 0.2356 0.0705
0.7911 0.2338 0.0490
0.8365 0.2633 0.0679
0.0000 0.2949 0.2034
0.0000 0.2757 0.1220
0.2063 0.3110 0.1009
0.4087 0.3322 0.0922
0.5661 0.3222 0.0612
0.7205 0.3183 0.0342
0.8297 0.3100 0.0114
0.8830 0.3297 0.0227
0.0000 0.3816 0.2343
0.0131 0.3649 0.1449
0.1304 0.3932 0.0828
0.3784 0.4338 0.0998
0.5514 0.4423 0.0864
0.7253 0.4273 0.0336
0.8534 0.4226 0.0113
0.9153 0.4340 0.0162
0.0125 0.4737 0.2664
0.0294 0.4713 0.1751
0.0874 0.4934 0.0692
0.3540 0.5436 0.0928
0.5550 0.5802 0.1300
0.7342 0.5853 0.1198
0.8767 0.5762 0.0805
0.9494 0.5752 0.0605
0.0250 0.5454 0.2824
0.0423 0.5532 0.1962
0.0924 0.5831 0.0808
0.3451 0.6387 0.0961
0.5586 0.6844 0.1427
0.7384 0.7047 0.1689
0.8884 0.7137 0.1531
0.9695 0.7043 0.1295
0.0311 0.5899 0.2995
0.0514 0.6009 0.1975
0.1002 0.6304 0.0818
0.3164 0.6804 0.0954
0.5115 0.7234 0.1368
0.7102 0.7663 0.1768
0.8664 0.7752 0.1857
0.9660 0.7734 0.1674
0.0000 0.0168 0.3285
0.2468 0.0000 0.3593
0.4425 0.0000 0.3673
0.5496 0.0000 0.3463
0.6197 0.0003 0.3185
0.6744 0.0104 0.2949
0.7144 0.0168 0.2865
0.7457 0.0734 0.2970
0.0000 0.1677 0.3066
0.0834 0.1168 0.3025
0.3351 0.1374 0.3153
0.4671 0.1396 0.2730
0.5737 0.1361 0.2391
0.6659 0.1298 0.2106
0.7175 0.1345 0.1888
0.7515 0.1826 0.1938
0.0000 0.2550 0.3152
0.0000 0.2235 0.2853
0.2401 0.2431 0.2838
0.3953 0.2478 0.2501
0.5331 0.2768 0.2533
0.6677 0.2889 0.2426
0.7531 0.2889 0.2239
0.7964 0.3030 0.2177
0.0000 0.3301 0.3255
0.0000 0.3109 0.2817
0.1342 0.3206 0.2482
0.3837 0.3461 0.2466
0.5426 0.3497 0.2573
0.6995 0.3518 0.2313
0.8109 0.3482 0.2035
0.8588 0.3544 0.1950
0.0000 0.4103 0.3446
0.0000 0.4056 0.2950
0.0335 0.3985 0.2224
0.3205 0.4394 0.2212
0.5296 0.4564 0.2174
0.7113 0.4422 0.2074
0.8500 0.4268 0.1732
0.9131 0.4310 0.1667
0.0000 0.5001 0.3591
0.0104 0.5074 0.3102
0.0412 0.5067 0.2152
0.2693 0.5454 0.1911
0.5055 0.5845 0.2042
0.7142 0.5915 0.1758
0.8741 0.5679 0.1328
0.9550 0.5667 0.1277
0.0129 0.5724 0.3656
0.0281 0.5806 0.3044
0.0561 0.5953 0.1955
0.2603 0.6424 0.1600
0.5010 0.6907 0.1761
0.7230 0.7275 0.2026
0.8875 0.7211 0.1698
0.9802 0.7130 0.1495
0.0205 0.6113 0.3715
0.0389 0.6224 0.2947
0.0762 0.6425 0.1676
0.2592 0.6868 0.1324
0.4713 0.7311 0.1532
0.6860 0.7764 0.1870
0.8637 0.7913 0.1991
0.9803 0.7928 0.1802
0.0000 0.0696 0.4096
0.2426 0.0000 0.4416
0.4284 0.0000 0.4598
0.5492 0.0000 0.4569
0.6286 0.0000 0.4424
0.6886 0.0000 0.4233
0.7292 0.0009 0.4110
0.7641 0.0522 0.4140
0.0000 0.2061 0.3949
0.0493 0.1158 0.4046
0.2907 0.1285 0.4256
0.4790 0.1320 0.4287
0.5930 0.1321 0.3965
0.6870 0.1259 0.3570
0.7394 0.1348 0.3270
0.7649 0.1823 0.3098
0.0000 0.2863 0.4048
0.0000 0.2405 0.4001
0.1858 0.2356 0.4137
0.4120 0.2531 0.4203
0.5456 0.2583 0.3754
0.6659 0.2544 0.3284
0.7457 0.2479 0.2939
0.7790 0.2603 0.2687
0.0000 0.3548 0.4151
0.0000 0.3494 0.4176
0.0602 0.3387 0.3996
0.3485 0.3603 0.4024
0.4982 0.3579 0.3630
0.6506 0.3832 0.3557
0.7722 0.3880 0.3362
0.8224 0.3860 0.3138
0.0000 0.4265 0.4273
0.0000 0.4438 0.4252
0.0002 0.4264 0.3753
0.2567 0.4502 0.3635
0.5007 0.4746 0.3647
0.6902 0.4696 0.3660
0.8318 0.4605 0.3291
0.8915 0.4554 0.3073
0.0000 0.5158 0.4377
0.0000 0.5357 0.4182
0.0070 0.5319 0.3569
0.1650 0.5496 0.3175
0.4459 0.5929 0.3246
0.6899 0.6103 0.3218
0.8628 0.5879 0.3055
0.9489 0.5742 0.2796
0.0005 0.5913 0.4359
0.0128 0.6062 0.4000
0.0328 0.6146 0.3177
0.1448 0.6461 0.2758
0.4220 0.6933 0.2841
0.6775 0.7371 0.3136
0.8706 0.7349 0.2747
0.9788 0.7210 0.2596
0.0105 0.6334 0.4364
0.0261 0.6446 0.3814
0.0512 0.6563 0.2728
0.1982 0.6932 0.2287
0.4271 0.7391 0.2314
0.6550 0.7869 0.2748
0.8502 0.8119 0.2966
0.9813 0.8106 0.2553
0.0000 0.0902 0.4655
0.2505 0.0000 0.5026
0.4188 0.0000 0.5298
0.5438 0.0000 0.5397
0.6271 0.0000 0.5312
0.6938 0.0000 0.5220
0.7386 0.0000 0.5144
0.7765 0.0291 0.5222
0.0000 0.2352 0.4634
0.0298 0.1216 0.4870
0.2683 0.1201 0.5180
0.4413 0.1244 0.5244
0.5938 0.1192 0.5232
0.7024 0.1174 0.4968
0.7598 0.1275 0.4640
0.7875 0.1801 0.4440
0.0000 0.3065 0.4742
0.0000 0.2631 0.4934
0.1343 0.2311 0.5162
0.3658 0.2459 0.5309
0.5585 0.2541 0.5342
0.6885 0.2585 0.4868
0.7671 0.2521 0.4357
0.7949 0.2651 0.3972
0.0000 0.3697 0.4859
0.0000 0.3687 0.5112
0.0183 0.3405 0.5139
0.2962 0.3486 0.5287
0.5130 0.3660 0.5330
0.6616 0.3647 0.4697
0.7656 0.3527 0.4143
0.8067 0.3484 0.3763
0.0000 0.4388 0.5006
0.0000 0.4694 0.5305
0.0000 0.4600 0.5186
0.1924 0.4644 0.5134
0.4636 0.4843 0.5133
0.6336 0.4855 0.4731
0.7845 0.4951 0.4536
0.8511 0.4855 0.4246
0.0000 0.5294 0.5159
0.0000 0.5603 0.5220
0.0000 0.5665 0.4959
0.0622 0.5726 0.4669
0.3785 0.6040 0.4641
0.6628 0.6305 0.4687
0.8495 0.6168 0.4645
0.9397 0.5915 0.4225
0.0000 0.6095 0.5102
0.0000 0.6316 0.4949
0.0095 0.6443 0.4516
0.0432 0.6601 0.4031
0.3222 0.6978 0.4024
0.6190 0.7454 0.4241
0.8492 0.7552 0.4125
0.9727 0.7356 0.4000
0.0000 0.6522 0.5026
0.0115 0.6686 0.4672
0.0315 0.6773 0.3905
0.0931 0.7014 0.3239
0.3637 0.7450 0.3257
0.6126 0.7967 0.3676
0.8369 0.8389 0.4117
0.9772 0.8293 0.3653
0.0000 0.1024 0.5169
0.2689 0.0000 0.5624
0.4189 0.0000 0.5923
0.5295 0.0000 0.6054
0.6240 0.0000 0.6160
0.6934 0.0000 0.6081
0.7413 0.0000 0.6081
0.7840 0.0085 0.6275
0.0000 0.2659 0.5341
0.0239 0.1279 0.5665
0.2575 0.1091 0.6063
0.4093 0.1118 0.6226
0.5620 0.1042 0.6259
0.7006 0.0999 0.6229
0.7736 0.1123 0.6085
0.8099 0.1733 0.5993
0.0000 0.3266 0.5449
0.0000 0.2854 0.5811
0.0953 0.2241 0.6140
0.3328 0.2342 0.6359
0.5047 0.2430 0.6464
0.6921 0.2444 0.6448
0.7890 0.2471 0.6068
0.8254 0.2706 0.5744
0.0000 0.3882 0.5649
0.0000 0.3841 0.5994
0.0001 0.3416 0.6225
0.2432 0.3353 0.6469
0.4604 0.3507 0.6597
0.6824 0.3599 0.6626
0.7967 0.3568 0.6043
0.8359 0.3585 0.5541
0.0000 0.4524 0.5828
0.0000 0.4749 0.6173
0.0000 0.4681 0.6351
0.0938 0.4551 0.6479
0.4058 0.4685 0.6626
0.6620 0.4843 0.6658
0.7910 0.4713 0.5916
0.8427 0.4546 0.5335
0.0000 0.5417 0.6042
0.0000 0.5794 0.6339
0.0000 0.5991 0.6455
0.0037 0.5983 0.6389
0.3097 0.6223 0.6483
0.6206 0.6447 0.6468
0.7943 0.6407 0.6124
0.8854 0.6200 0.5697
0.0000 0.6334 0.6116
0.0000 0.6611 0.6164
0.0000 0.6801 0.6064
0.0000 0.6922 0.5822
0.1949 0.7180 0.5745
0.5467 0.7599 0.5865
0.8205 0.7843 0.5932
0.9632 0.7626 0.5742
0.0000 0.6780 0.5948
0.0000 0.6979 0.5773
0.0029 0.7126 0.5437
0.0209 0.7247 0.4865
0.1988 0.7527 0.4566
0.5365 0.8067 0.4881
0.7925 0.8566 0.5447
0.9657 0.8583 0.5237
0.0000 0.0721 0.5606
0.3035 0.0000 0.6154
0.4446 0.0000 0.6428
0.5377 0.0000 0.6609
0.6167 0.0000 0.6714
0.6960 0.0000 0.6850
0.7431 0.0000 0.6871
0.7855 0.0000 0.7115
0.0000 0.2942 0.5985
0.0525 0.1165 0.6356
0.2677 0.0968 0.6768
0.3986 0.1006 0.6979
0.5328 0.0937 0.7098
0.6761 0.0889 0.7139
0.7696 0.0934 0.7126
0.8147 0.1601 0.7173
0.0000 0.3478 0.6132
0.0000 0.2916 0.6511
0.0856 0.2115 0.6919
0.3116 0.2189 0.7183
0.4660 0.2276 0.7333
0.6522 0.2294 0.7411
0.7851 0.2276 0.7351
0.8388 0.2645 0.7239
0.0000 0.4030 0.6360
0.0000 0.3947 0.6718
0.0000 0.3393 0.7039
0.2072 0.3120 0.7343
0.4224 0.3270 0.7527
0.6212 0.3344 0.7631
0.7955 0.3310 0.7568
0.8592 0.3530 0.7300
0.0000 0.4642 0.6598
0.0000 0.4755 0.6930
0.0000 0.4577 0.7186
0.0763 0.4337 0.7496
0.3601 0.4383 0.7715
0.5979 0.4510 0.7815
0.8061 0.4484 0.7780
0.8786 0.4548 0.7384
0.0000 0.5470 0.6860
0.0000 0.5732 0.7162
0.0000 0.5890 0.7420
0.0000 0.5850 0.7621
0.2443 0.5981 0.7821
0.5634 0.6140 0.7966
0.8116 0.6230 0.7994
0.8893 0.6034 0.7302
0.0000 0.6447 0.7126
0.0000 0.6778 0.7365
0.0000 0.7055 0.7527
0.0000 0.7218 0.7606
0.1201 0.7422 0.7675
0.4851 0.7801 0.7866
0.7821 0.8059 0.7905
0.9239 0.7894 0.7546
0.0000 0.7074 0.7099
0.0000 0.7324 0.7169
0.0000 0.7512 0.7155
0.0000 0.7661 0.6988
0.0518 0.7859 0.6790
0.4073 0.8283 0.6868
0.7155 0.8765 0.7159
0.9421 0.8991 0.7277
0.0000 0.1990 0.6086
0.3431 0.0000 0.6776
0.4931 0.0000 0.6996
0.5743 0.0000 0.7178
0.6396 0.0000 0.7323
0.7036 0.0000 0.7427
0.7595 0.0000 0.7591
0.7928 0.0000 0.7733
0.0000 0.3204 0.6415
0.0850 0.1086 0.6915
0.3129 0.1007 0.7261
0.4294 0.1080 0.7442
0.5385 0.1133 0.7615
0.6619 0.1139 0.7742
0.7600 0.1036 0.7776
0.8151 0.1541 0.7912
0.0000 0.3715 0.6636
0.0000 0.3019 0.6905
0.1370 0.2065 0.7382
0.3323 0.2097 0.7649
0.4587 0.2207 0.7834
0.6193 0.2307 0.8001
0.7629 0.2219 0.8043
0.8346 0.2489 0.8096
0.0000 0.4218 0.6903
0.0000 0.3915 0.7043
0.0000 0.3237 0.7454
0.2083 0.2882 0.7816
0.4023 0.3025 0.8025
0.5802 0.3161 0.8206
0.7614 0.3122 0.8268
0.8515 0.3272 0.8248
0.0000 0.4780 0.7202
0.0000 0.4633 0.7307
0.0000 0.4325 0.7534
0.0482 0.3900 0.7998
0.3235 0.3922 0.8211
0.5534 0.4096 0.8414
0.7544 0.4086 0.8487
0.8700 0.4172 0.8467
0.0000 0.5528 0.7459
0.0000 0.5568 0.7634
0.0000 0.5571 0.7870
0.0000 0.5431 0.8209
0.2021 0.5392 0.8491
0.5119 0.5512 0.8679
0.7458 0.5618 0.8780
0.8966 0.5615 0.8770
0.0000 0.6450 0.7803
0.0000 0.6578 0.7955
0.0000 0.6821 0.8194
0.0000 0.6966 0.8399
0.0735 0.7145 0.8683
0.4327 0.7437 0.8924
0.7312 0.7652 0.9059
0.9237 0.7686 0.9080
0.0000 0.7163 0.7992
0.0000 0.7390 0.8184
0.0000 0.7635 0.8349
0.0000 0.7857 0.8492
0.0000 0.8116 0.8636
0.2471 0.8494 0.8823
0.6522 0.8978 0.9017
0.9126 0.9245 0.9097
