Data/LUTs/Vision 4 - Rec.709_32.cube
TITLE "Vision 4 - Rec.709_32"
LUT_3D_SIZE 32
0.0267 0.0002 0.0024
0.0267 0.0002 0.0023
0.0269 0.0000 0.0000
0.0582 0.0019 0.0011
0.1000 0.0093 0.0070
0.1439 0.0226 0.0092
0.1859 0.0321 0.0033
0.2235 0.0361 0.0000
0.2576 0.0354 0.0000
0.2910 0.0332 0.0000
0.3260 0.0367 0.0000
0.3647 0.0434 0.0000
0.4064 0.0504 0.0000
0.4501 0.0572 0.0000
0.4945 0.0643 0.0000
0.5382 0.0712 0.0000
0.5807 0.0783 0.0000
0.6205 0.0858 0.0000
0.6596 0.0928 0.0000
0.6967 0.1003 0.0000
0.7319 0.1077 0.0000
0.7655 0.1149 0.0000
0.7970 0.1221 0.0000
0.8278 0.1290 0.0000
0.8568 0.1354 0.0000
0.8844 0.1421 0.0000
0.9115 0.1482 0.0000
0.9378 0.1541 0.0000
0.9640 0.1605 0.0000
0.9775 0.1665 0.0000
0.9773 0.1730 0.0000
0.9770 0.1793 0.0000
0.0273 0.0011 0.0055
0.0269 0.0005 0.0032
0.0273 0.0003 0.0016
0.0586 0.0021 0.0017
0.0998 0.0113 0.0062
0.1439 0.0248 0.0080
0.1859 0.0347 0.0030
0.2235 0.0392 0.0000
0.2577 0.0391 0.0000
0.2912 0.0376 0.0000
0.3262 0.0420 0.0000
0.3649 0.0494 0.0000
0.4065 0.0568 0.0000
0.4503 0.0643 0.0000
0.4947 0.0721 0.0000
0.5386 0.0794 0.0000
0.5810 0.0870 0.0000
0.6209 0.0948 0.0000
0.6597 0.1024 0.0000
0.6968 0.1100 0.0000
0.7320 0.1173 0.0000
0.7657 0.1248 0.0000
0.7974 0.1317 0.0000
0.8282 0.1387 0.0000
0.8568 0.1452 0.0000
0.8848 0.1519 0.0000
0.9116 0.1577 0.0000
0.9382 0.1640 0.0000
0.9642 0.1699 0.0000
0.9771 0.1759 0.0000
0.9770 0.1824 0.0000
0.9767 0.1890 0.0000
0.0252 0.0194 0.0005
0.0252 0.0194 0.0001
0.0275 0.0116 0.0020
0.0557 0.0156 0.0000
0.0989 0.0284 0.0000
0.1446 0.0365 0.0002
0.1862 0.0430 0.0019
0.2238 0.0447 0.0000
0.2579 0.0425 0.0000
0.2912 0.0396 0.0000
0.3262 0.0431 0.0000
0.3650 0.0505 0.0000
0.4066 0.0584 0.0000
0.4505 0.0662 0.0000
0.4949 0.0741 0.0000
0.5388 0.0823 0.0000
0.5810 0.0904 0.0000
0.6210 0.0983 0.0000
0.6600 0.1065 0.0000
0.6970 0.1145 0.0000
0.7322 0.1220 0.0000
0.7660 0.1298 0.0000
0.7976 0.1371 0.0000
0.8281 0.1438 0.0000
0.8569 0.1508 0.0000
0.8849 0.1573 0.0000
0.9117 0.1639 0.0000
0.9384 0.1700 0.0000
0.9647 0.1758 0.0000
0.9770 0.1822 0.0000
0.9767 0.1886 0.0000
0.9766 0.1946 0.0000
0.0278 0.0502 0.0007
0.0279 0.0508 0.0006
0.0372 0.0508 0.0082
0.0590 0.0334 0.0000
0.0975 0.0394 0.0000
0.1425 0.0607 0.0000
0.1859 0.0658 0.0000
0.2244 0.0638 0.0000
0.2591 0.0599 0.0000
0.2921 0.0562 0.0000
0.3268 0.0570 0.0000
0.3655 0.0608 0.0000
0.4070 0.0654 0.0000
0.4507 0.0709 0.0000
0.4950 0.0766 0.0000
0.5387 0.0836 0.0000
0.5810 0.0912 0.0000
0.6210 0.0993 0.0000
0.6600 0.1075 0.0000
0.6969 0.1157 0.0000
0.7321 0.1235 0.0000
0.7659 0.1314 0.0000
0.7975 0.1390 0.0000
0.8282 0.1465 0.0000
0.8572 0.1534 0.0000
0.8850 0.1600 0.0000
0.9120 0.1666 0.0000
0.9387 0.1727 0.0000
0.9646 0.1792 0.0000
0.9768 0.1857 0.0000
0.9766 0.1917 0.0000
0.9764 0.1982 0.0000
0.0303 0.0847 0.0044
0.0306 0.0855 0.0061
0.0465 0.0854 0.0161
0.0737 0.0857 0.0148
0.0929 0.0546 0.0000
0.1418 0.0659 0.0000
0.1839 0.0848 0.0000
0.2220 0.0991 0.0000
0.2585 0.0963 0.0000
0.2929 0.0886 0.0000
0.3284 0.0858 0.0000
0.3671 0.0861 0.0000
0.4085 0.0878 0.0000
0.4520 0.0901 0.0000
0.4960 0.0933 0.0000
0.5393 0.0969 0.0000
0.5814 0.1014 0.0000
0.6212 0.1066 0.0000
0.6603 0.1124 0.0000
0.6971 0.1185 0.0000
0.7321 0.1251 0.0000
0.7659 0.1322 0.0000
0.7975 0.1393 0.0000
0.8282 0.1469 0.0000
0.8572 0.1539 0.0000
0.8852 0.1605 0.0000
0.9119 0.1674 0.0000
0.9386 0.1739 0.0000
0.9649 0.1803 0.0000
0.9768 0.1869 0.0000
0.9766 0.1935 0.0000
0.9763 0.2002 0.0000
0.0301 0.1197 0.0109
0.0309 0.1204 0.0151
0.0553 0.1197 0.0241
0.0793 0.1201 0.0243
0.1170 0.1238 0.0114
0.1367 0.0860 0.0000
0.1827 0.0931 0.0000
0.2212 0.1071 0.0000
0.2555 0.1269 0.0000
0.2896 0.1336 0.0000
0.3272 0.1300 0.0000
0.3679 0.1248 0.0000
0.4102 0.1214 0.0000
0.4541 0.1204 0.0000
0.4979 0.1206 0.0000
0.5412 0.1215 0.0000
0.5831 0.1236 0.0000
0.6224 0.1261 0.0000
0.6610 0.1293 0.0000
0.6977 0.1329 0.0000
0.7327 0.1368 0.0000
0.7663 0.1413 0.0000
0.7978 0.1461 0.0000
0.8285 0.1512 0.0000
0.8572 0.1566 0.0000
0.8853 0.1624 0.0000
0.9120 0.1682 0.0000
0.9386 0.1742 0.0000
0.9649 0.1807 0.0000
0.9768 0.1870 0.0000
0.9766 0.1938 0.0000
0.9763 0.2005 0.0000
0.0253 0.1549 0.0159
0.0352 0.1541 0.0215
0.0623 0.1525 0.0298
0.0846 0.1517 0.0299
0.1136 0.1527 0.0265
0.1652 0.1612 0.0002
0.1771 0.1167 0.0000
0.2193 0.1207 0.0000
0.2550 0.1303 0.0000
0.2881 0.1475 0.0000
0.3234 0.1645 0.0000
0.3643 0.1686 0.0000
0.4086 0.1650 0.0000
0.4544 0.1597 0.0000
0.4994 0.1559 0.0000
0.5431 0.1534 0.0000
0.5848 0.1526 0.0000
0.6244 0.1527 0.0000
0.6626 0.1537 0.0000
0.6992 0.1553 0.0000
0.7338 0.1573 0.0000
0.7672 0.1594 0.0000
0.7987 0.1621 0.0000
0.8291 0.1653 0.0000
0.8579 0.1685 0.0000
0.8857 0.1725 0.0000
0.9124 0.1763 0.0000
0.9389 0.1803 0.0000
0.9650 0.1849 0.0000
0.9767 0.1900 0.0000
0.9766 0.1955 0.0000
0.9763 0.2015 0.0000
0.0248 0.1861 0.0177
0.0380 0.1852 0.0238
0.0656 0.1836 0.0327
0.0895 0.1830 0.0330
0.1185 0.1826 0.0316
0.1522 0.1858 0.0156
0.2104 0.1955 0.0000
0.2133 0.1455 0.0000
0.2524 0.1468 0.0000
0.2874 0.1534 0.0000
0.3230 0.1684 0.0000
0.3622 0.1870 0.0000
0.4049 0.1989 0.0000
0.4511 0.2008 0.0000
0.4977 0.1967 0.0000
0.5430 0.1915 0.0000
0.5858 0.1872 0.0000
0.6256 0.1841 0.0000
0.6643 0.1823 0.0000
0.7008 0.1817 0.0000
0.7354 0.1821 0.0000
0.7687 0.1827 0.0000
0.8000 0.1837 0.0000
0.8304 0.1852 0.0000
0.8588 0.1867 0.0000
0.8867 0.1889 0.0000
0.9134 0.1909 0.0000
0.9397 0.1937 0.0000
0.9656 0.1967 0.0000
0.9763 0.2000 0.0000
0.9762 0.2041 0.0000
0.9761 0.2084 0.0000
0.0226 0.2147 0.0173
0.0381 0.2138 0.0242
0.0674 0.2122 0.0339
0.0924 0.2117 0.0342
0.1223 0.2112 0.0333
0.1548 0.2123 0.0242
0.1926 0.2179 0.0000
0.2450 0.2201 0.0000
0.2458 0.1709 0.0000
0.2842 0.1710 0.0000
0.3218 0.1766 0.0000
0.3618 0.1891 0.0000
0.4040 0.2058 0.0000
0.4483 0.2222 0.0000
0.4941 0.2303 0.0000
0.5396 0.2307 0.0000
0.5839 0.2265 0.0000
0.6251 0.2210 0.0000
0.6648 0.2163 0.0000
0.7017 0.2126 0.0000
0.7368 0.2105 0.0000
0.7701 0.2094 0.0000
0.8015 0.2089 0.0000
0.8318 0.2084 0.0000
0.8602 0.2091 0.0000
0.8880 0.2096 0.0000
0.9147 0.2106 0.0000
0.9409 0.2119 0.0000
0.9670 0.2137 0.0000
0.9758 0.2156 0.0000
0.9757 0.2181 0.0000
0.9756 0.2210 0.0000
0.0205 0.2423 0.0164
0.0362 0.2415 0.0240
0.0697 0.2397 0.0349
0.0955 0.2394 0.0349
0.1256 0.2389 0.0339
0.1577 0.2388 0.0299
0.1893 0.2423 0.0063
0.2315 0.2504 0.0000
0.2766 0.2405 0.0000
0.2773 0.1946 0.0000
0.3180 0.1945 0.0000
0.3603 0.1993 0.0000
0.4035 0.2096 0.0000
0.4481 0.2242 0.0000
0.4927 0.2417 0.0000
0.5368 0.2550 0.0000
0.5802 0.2611 0.0000
0.6220 0.2605 0.0000
0.6624 0.2558 0.0000
0.7008 0.2498 0.0000
0.7368 0.2453 0.0000
0.7707 0.2414 0.0000
0.8025 0.2381 0.0000
0.8331 0.2360 0.0000
0.8617 0.2352 0.0000
0.8896 0.2341 0.0000
0.9163 0.2338 0.0000
0.9425 0.2334 0.0000
0.9685 0.2341 0.0000
0.9751 0.2351 0.0000
0.9751 0.2365 0.0000
0.9750 0.2387 0.0000
0.0201 0.2706 0.0182
0.0370 0.2697 0.0265
0.0733 0.2680 0.0380
0.0993 0.2677 0.0376
0.1298 0.2673 0.0367
0.1613 0.2668 0.0352
0.1917 0.2688 0.0190
0.2231 0.2742 0.0000
0.2715 0.2848 0.0000
0.3070 0.2594 0.0000
0.3108 0.2174 0.0000
0.3560 0.2176 0.0000
0.4015 0.2213 0.0000
0.4474 0.2299 0.0000
0.4926 0.2431 0.0000
0.5364 0.2597 0.0000
0.5784 0.2777 0.0000
0.6189 0.2897 0.0000
0.6590 0.2939 0.0000
0.6974 0.2928 0.0000
0.7343 0.2876 0.0000
0.7694 0.2808 0.0000
0.8022 0.2758 0.0000
0.8332 0.2707 0.0000
0.8625 0.2672 0.0000
0.8905 0.2643 0.0000
0.9177 0.2619 0.0000
0.9441 0.2604 0.0000
0.9701 0.2586 0.0000
0.9742 0.2589 0.0000
0.9742 0.2595 0.0000
0.9742 0.2605 0.0000
0.0196 0.3017 0.0250
0.0426 0.3007 0.0333
0.0805 0.2991 0.0441
0.1057 0.2989 0.0438
0.1351 0.2986 0.0429
0.1658 0.2981 0.0418
0.1947 0.2989 0.0342
0.2238 0.3030 0.0049
0.2571 0.3102 0.0000
0.3148 0.3210 0.0000
0.3396 0.2778 0.0000
0.3482 0.2404 0.0000
0.3968 0.2404 0.0000
0.4449 0.2436 0.0000
0.4914 0.2507 0.0000
0.5359 0.2627 0.0000
0.5782 0.2794 0.0000
0.6179 0.2989 0.0000
0.6565 0.3169 0.0000
0.6942 0.3269 0.0000
0.7308 0.3297 0.0000
0.7659 0.3280 0.0000
0.7991 0.3225 0.0000
0.8316 0.3149 0.0000
0.8615 0.3084 0.0000
0.8903 0.3030 0.0000
0.9178 0.2983 0.0000
0.9447 0.2943 0.0000
0.9711 0.2905 0.0000
0.9730 0.2896 0.0000
0.9731 0.2877 0.0000
0.9731 0.2866 0.0000
0.0212 0.3348 0.0312
0.0495 0.3339 0.0398
0.0865 0.3328 0.0497
0.1115 0.3325 0.0495
0.1395 0.3322 0.0488
0.1693 0.3317 0.0477
0.1978 0.3317 0.0448
0.2259 0.3348 0.0231
0.2555 0.3404 0.0000
0.2961 0.3496 0.0000
0.3642 0.3592 0.0000
0.3795 0.3011 0.0000
0.3886 0.2636 0.0000
0.4398 0.2632 0.0000
0.4886 0.2660 0.0000
0.5346 0.2723 0.0000
0.5778 0.2841 0.0000
0.6176 0.3003 0.0000
0.6563 0.3205 0.0000
0.6927 0.3421 0.0000
0.7279 0.3584 0.0000
0.7625 0.3666 0.0000
0.7954 0.3692 0.0000
0.8276 0.3670 0.0000
0.8584 0.3599 0.0000
0.8881 0.3531 0.0000
0.9165 0.3456 0.0000
0.9440 0.3388 0.0000
0.9700 0.3327 0.0000
0.9713 0.3287 0.0000
0.9715 0.3250 0.0000
0.9716 0.3217 0.0000
0.0235 0.3708 0.0363
0.0554 0.3699 0.0450
0.0919 0.3689 0.0543
0.1161 0.3686 0.0541
0.1435 0.3684 0.0533
0.1725 0.3680 0.0524
0.2008 0.3676 0.0511
0.2281 0.3693 0.0388
0.2567 0.3739 0.0037
0.2889 0.3809 0.0000
0.3414 0.3919 0.0000
0.4104 0.3920 0.0000
0.4216 0.3271 0.0000
0.4311 0.2884 0.0000
0.4829 0.2879 0.0000
0.5314 0.2901 0.0000
0.5759 0.2963 0.0000
0.6168 0.3074 0.0000
0.6561 0.3233 0.0000
0.6926 0.3431 0.0000
0.7272 0.3656 0.0000
0.7605 0.3871 0.0000
0.7924 0.4014 0.0000
0.8242 0.4086 0.0000
0.8544 0.4101 0.0000
0.8842 0.4074 0.0000
0.9130 0.4013 0.0000
0.9414 0.3934 0.0000
0.9677 0.3847 0.0000
0.9691 0.3771 0.0000
0.9694 0.3709 0.0000
0.9696 0.3653 0.0000
0.0251 0.4084 0.0399
0.0607 0.4074 0.0490
0.0961 0.4066 0.0577
0.1193 0.4065 0.0576
0.1468 0.4062 0.0569
0.1751 0.4060 0.0558
0.2029 0.4056 0.0549
0.2297 0.4061 0.0490
0.2578 0.4095 0.0213
0.2898 0.4155 0.0000
0.3286 0.4234 0.0000
0.3912 0.4345 0.0000
0.4534 0.4222 0.0000
0.4642 0.3546 0.0000
0.4742 0.3150 0.0000
0.5254 0.3139 0.0000
0.5725 0.3167 0.0000
0.6150 0.3220 0.0000
0.6550 0.3322 0.0000
0.6921 0.3478 0.0000
0.7270 0.3671 0.0000
0.7602 0.3900 0.0000
0.7913 0.4139 0.0000
0.8218 0.4337 0.0000
0.8513 0.4460 0.0000
0.8804 0.4517 0.0000
0.9089 0.4531 0.0000
0.9373 0.4488 0.0000
0.9645 0.4428 0.0000
0.9662 0.4348 0.0000
0.9666 0.4269 0.0000
0.9670 0.4182 0.0000
0.0263 0.4470 0.0422
0.0641 0.4463 0.0516
0.0989 0.4455 0.0597
0.1223 0.4455 0.0597
0.1490 0.4453 0.0591
0.1766 0.4450 0.0580
0.2043 0.4447 0.0568
0.2317 0.4445 0.0544
0.2596 0.4468 0.0365
0.2913 0.4515 0.0008
0.3269 0.4583 0.0000
0.3739 0.4672 0.0000
0.4440 0.4775 0.0000
0.4958 0.4515 0.0000
0.5066 0.3838 0.0000
0.5167 0.3431 0.0000
0.5662 0.3422 0.0000
0.6112 0.3443 0.0000
0.6527 0.3496 0.0000
0.6908 0.3593 0.0000
0.7264 0.3736 0.0000
0.7599 0.3926 0.0000
0.7912 0.4149 0.0000
0.8215 0.4388 0.0000
0.8497 0.4628 0.0000
0.8779 0.4801 0.0000
0.9058 0.4907 0.0000
0.9336 0.4951 0.0000
0.9613 0.4952 0.0000
0.9629 0.4928 0.0000
0.9632 0.4873 0.0000
0.9636 0.4793 0.0000
0.0267 0.4865 0.0431
0.0668 0.4857 0.0530
0.1010 0.4853 0.0604
0.1240 0.4852 0.0605
0.1504 0.4849 0.0598
0.1779 0.4848 0.0587
0.2057 0.4845 0.0574
0.2334 0.4843 0.0559
0.2617 0.4853 0.0452
0.2932 0.4889 0.0103
0.3290 0.4944 0.0000
0.3689 0.5015 0.0000
0.4239 0.5113 0.0000
0.4983 0.5203 0.0000
0.5363 0.4795 0.0000
0.5477 0.4135 0.0000
0.5576 0.3728 0.0000
0.6048 0.3719 0.0000
0.6486 0.3737 0.0000
0.6884 0.3782 0.0000
0.7249 0.3872 0.0000
0.7591 0.4005 0.0000
0.7907 0.4192 0.0000
0.8211 0.4405 0.0000
0.8496 0.4646 0.0000
0.8768 0.4901 0.0000
0.9039 0.5111 0.0000
0.9308 0.5256 0.0000
0.9581 0.5341 0.0000
0.9601 0.5391 0.0000
0.9601 0.5384 0.0000
0.9603 0.5360 0.0000
0.0264 0.5252 0.0428
0.0682 0.5245 0.0530
0.1017 0.5241 0.0597
0.1251 0.5239 0.0600
0.1513 0.5239 0.0592
0.1788 0.5237 0.0581
0.2067 0.5234 0.0569
0.2347 0.5233 0.0550
0.2641 0.5233 0.0493
0.2957 0.5258 0.0223
0.3310 0.5302 0.0000
0.3705 0.5367 0.0000
0.4146 0.5441 0.0000
0.4752 0.5540 0.0000
0.5493 0.5620 0.0000
0.5747 0.5066 0.0000
0.5863 0.4444 0.0000
0.5957 0.4037 0.0000
0.6419 0.4027 0.0000
0.6841 0.4037 0.0000
0.7220 0.4083 0.0000
0.7572 0.4159 0.0000
0.7896 0.4291 0.0000
0.8206 0.4465 0.0000
0.8494 0.4669 0.0000
0.8768 0.4905 0.0000
0.9032 0.5155 0.0000
0.9296 0.5391 0.0000
0.9561 0.5579 0.0000
0.9579 0.5712 0.0000
0.9574 0.5786 0.0000
0.9573 0.5811 0.0000
0.0249 0.5640 0.0409
0.0688 0.5635 0.0519
0.1020 0.5632 0.0578
0.1257 0.5633 0.0581
0.1519 0.5631 0.0573
0.1790 0.5629 0.0561
0.2073 0.5629 0.0545
0.2358 0.5625 0.0526
0.2663 0.5623 0.0491
0.2985 0.5637 0.0300
0.3339 0.5670 0.0000
0.3724 0.5723 0.0000
0.4136 0.5789 0.0000
0.4618 0.5866 0.0000
0.5268 0.5966 0.0000
0.5941 0.5985 0.0000
0.6118 0.5346 0.0000
0.6240 0.4750 0.0000
0.6335 0.4352 0.0000
0.6774 0.4337 0.0000
0.7172 0.4347 0.0000
0.7542 0.4383 0.0000
0.7879 0.4459 0.0000
0.8194 0.4582 0.0000
0.8484 0.4742 0.0000
0.8766 0.4940 0.0000
0.9031 0.5165 0.0000
0.9294 0.5401 0.0000
0.9553 0.5648 0.0000
0.9568 0.5879 0.0000
0.9556 0.6043 0.0000
0.9548 0.6155 0.0000
0.0223 0.6023 0.0374
0.0682 0.6018 0.0492
0.1012 0.6019 0.0539
0.1251 0.6018 0.0546
0.1512 0.6016 0.0539
0.1791 0.6015 0.0524
0.2079 0.6014 0.0505
0.2369 0.6011 0.0483
0.2683 0.6008 0.0450
0.3017 0.6011 0.0325
0.3378 0.6038 0.0016
0.3756 0.6081 0.0000
0.4156 0.6137 0.0000
0.4583 0.6205 0.0000
0.5102 0.6291 0.0000
0.5761 0.6383 0.0000
0.6313 0.6279 0.0000
0.6490 0.5651 0.0000
0.6596 0.5058 0.0000
0.6688 0.4669 0.0000
0.7107 0.4648 0.0000
0.7495 0.4658 0.0000
0.7845 0.4688 0.0000
0.8170 0.4762 0.0000
0.8472 0.4872 0.0000
0.8756 0.5026 0.0000
0.9028 0.5209 0.0000
0.9292 0.5424 0.0000
0.9552 0.5654 0.0000
0.9567 0.5898 0.0000
0.9550 0.6130 0.0000
0.9533 0.6338 0.0000
0.0188 0.6395 0.0316
0.0658 0.6391 0.0442
0.0996 0.6390 0.0489
0.1241 0.6389 0.0497
0.1504 0.6388 0.0486
0.1788 0.6389 0.0469
0.2082 0.6387 0.0447
0.2383 0.6384 0.0422
0.2707 0.6380 0.0382
0.3051 0.6382 0.0288
0.3412 0.6396 0.0044
0.3788 0.6430 0.0000
0.4177 0.6478 0.0000
0.4598 0.6541 0.0000
0.5032 0.6609 0.0000
0.5573 0.6700 0.0000
0.6218 0.6779 0.0000
0.6671 0.6547 0.0000
0.6838 0.5924 0.0000
0.6934 0.5372 0.0000
0.7024 0.4981 0.0000
0.7427 0.4960 0.0000
0.7795 0.4967 0.0000
0.8135 0.4995 0.0000
0.8447 0.5061 0.0000
0.8739 0.5161 0.0000
0.9018 0.5301 0.0000
0.9285 0.5488 0.0000
0.9549 0.5686 0.0000
0.9566 0.5911 0.0000
0.9549 0.6139 0.0000
0.9531 0.6369 0.0000
0.0141 0.6758 0.0244
0.0620 0.6755 0.0370
0.0971 0.6755 0.0420
0.1224 0.6757 0.0424
0.1496 0.6756 0.0411
0.1787 0.6755 0.0396
0.2084 0.6752 0.0371
0.2397 0.6750 0.0333
0.2734 0.6747 0.0283
0.3086 0.6744 0.0212
0.3447 0.6753 0.0035
0.3831 0.6778 0.0000
0.4219 0.6819 0.0000
0.4623 0.6872 0.0000
0.5026 0.6933 0.0000
0.5469 0.7004 0.0000
0.6039 0.7094 0.0000
0.6677 0.7166 0.0000
0.7002 0.6804 0.0000
0.7164 0.6193 0.0000
0.7259 0.5675 0.0000
0.7345 0.5291 0.0000
0.7729 0.5263 0.0000
0.8086 0.5268 0.0000
0.8410 0.5295 0.0000
0.8715 0.5350 0.0000
0.8997 0.5457 0.0000
0.9274 0.5581 0.0000
0.9542 0.5752 0.0000
0.9563 0.5947 0.0000
0.9547 0.6161 0.0000
0.9529 0.6385 0.0000
0.0116 0.7108 0.0151
0.0573 0.7106 0.0272
0.0948 0.7106 0.0323
0.1207 0.7105 0.0333
0.1483 0.7104 0.0322
0.1788 0.7103 0.0299
0.2090 0.7102 0.0270
0.2416 0.7100 0.0225
0.2761 0.7098 0.0172
0.3117 0.7093 0.0105
0.3494 0.7096 0.0004
0.3870 0.7111 0.0000
0.4249 0.7146 0.0000
0.4645 0.7193 0.0000
0.5048 0.7249 0.0000
0.5450 0.7311 0.0000
0.5901 0.7383 0.0000
0.6480 0.7470 0.0000
0.7109 0.7534 0.0000
0.7311 0.7045 0.0000
0.7473 0.6464 0.0000
0.7561 0.5975 0.0000
0.7647 0.5595 0.0000
0.8020 0.5566 0.0000
0.8357 0.5574 0.0000
0.8675 0.5596 0.0000
0.8971 0.5645 0.0000
0.9256 0.5735 0.0000
0.9526 0.5867 0.0000
0.9557 0.6027 0.0000
0.9544 0.6206 0.0000
0.9528 0.6409 0.0000
0.0110 0.7444 0.0052
0.0508 0.7442 0.0162
0.0908 0.7442 0.0215
0.1187 0.7441 0.0229
0.1475 0.7441 0.0210
0.1778 0.7440 0.0188
0.2101 0.7441 0.0150
0.2437 0.7438 0.0106
0.2785 0.7434 0.0051
0.3160 0.7431 0.0009
0.3533 0.7429 0.0000
0.3909 0.7439 0.0000
0.4295 0.7467 0.0000
0.4685 0.7506 0.0000
0.5067 0.7554 0.0000
0.5462 0.7611 0.0000
0.5862 0.7675 0.0000
0.6338 0.7753 0.0000
0.6911 0.7827 0.0000
0.7472 0.7822 0.0000
0.7614 0.7272 0.0000
0.7771 0.6739 0.0000
0.7857 0.6262 0.0000
0.7939 0.5894 0.0000
0.8292 0.5867 0.0000
0.8620 0.5867 0.0000
0.8931 0.5887 0.0000
0.9222 0.5943 0.0000
0.9504 0.6024 0.0000
0.9549 0.6146 0.0000
0.9537 0.6289 0.0000
0.9524 0.6464 0.0000
0.0106 0.7759 0.0000
0.0449 0.7757 0.0042
0.0875 0.7757 0.0096
0.1162 0.7757 0.0110
0.1460 0.7756 0.0094
0.1778 0.7754 0.0069
0.2113 0.7752 0.0034
0.2460 0.7749 0.0010
0.2824 0.7748 0.0000
0.3197 0.7746 0.0000
0.3579 0.7741 0.0000
0.3948 0.7747 0.0000
0.4333 0.7766 0.0000
0.4719 0.7799 0.0000
0.5096 0.7845 0.0000
0.5485 0.7897 0.0000
0.5865 0.7953 0.0000
0.6257 0.8015 0.0000
0.6760 0.8092 0.0000
0.7335 0.8159 0.0000
0.7774 0.8020 0.0000
0.7895 0.7466 0.0000
0.8057 0.6986 0.0000
0.8135 0.6540 0.0000
0.8216 0.6186 0.0000
0.8556 0.6156 0.0000
0.8875 0.6153 0.0000
0.9181 0.6178 0.0000
0.9471 0.6228 0.0000
0.9537 0.6302 0.0000
0.9528 0.6415 0.0000
0.9516 0.6553 0.0000
0.0100 0.8059 0.0000
0.0402 0.8057 0.0000
0.0847 0.8058 0.0005
0.1148 0.8058 0.0008
0.1460 0.8058 0.0005
0.1785 0.8057 0.0000
0.2127 0.8058 0.0000
0.2482 0.8055 0.0000
0.2850 0.8051 0.0000
0.3232 0.8047 0.0000
0.3619 0.8045 0.0000
0.3993 0.8045 0.0000
0.4380 0.8058 0.0000
0.4752 0.8085 0.0000
0.5130 0.8123 0.0000
0.5503 0.8170 0.0000
0.5878 0.8224 0.0000
0.6250 0.8281 0.0000
0.6666 0.8346 0.0000
0.7183 0.8421 0.0000
0.7743 0.8481 0.0000
0.8057 0.8223 0.0000
0.8166 0.7677 0.0000
0.8326 0.7239 0.0000
0.8404 0.6807 0.0000
0.8481 0.6468 0.0000
0.8812 0.6435 0.0000
0.9126 0.6435 0.0000
0.9428 0.6462 0.0000
0.9521 0.6500 0.0000
0.9514 0.6585 0.0000
0.9505 0.6680 0.0000
0.0093 0.8347 0.0000
0.0330 0.8346 0.0000
0.0801 0.8346 0.0000
0.1129 0.8346 0.0000
0.1453 0.8346 0.0000
0.1798 0.8345 0.0000
0.2146 0.8343 0.0000
0.2512 0.8342 0.0000
0.2884 0.8341 0.0000
0.3271 0.8336 0.0000
0.3662 0.8330 0.0000
0.4040 0.8330 0.0000
0.4421 0.8338 0.0000
0.4799 0.8359 0.0000
0.5160 0.8394 0.0000
0.5522 0.8434 0.0000
0.5895 0.8484 0.0000
0.6264 0.8536 0.0000
0.6635 0.8595 0.0000
0.7061 0.8663 0.0000
0.7584 0.8730 0.0000
0.8130 0.8786 0.0000
0.8323 0.8395 0.0000
0.8426 0.7872 0.0000
0.8586 0.7471 0.0000
0.8661 0.7064 0.0000
0.8737 0.6734 0.0000
0.9060 0.6706 0.0000
0.9373 0.6710 0.0000
0.9502 0.6726 0.0000
0.9497 0.6771 0.0000
0.9491 0.6841 0.0000
0.0087 0.8627 0.0000
0.0258 0.8626 0.0000
0.0770 0.8627 0.0000
0.1107 0.8626 0.0000
0.1446 0.8626 0.0000
0.1804 0.8625 0.0000
0.2173 0.8622 0.0000
0.2547 0.8620 0.0000
0.2922 0.8618 0.0000
0.3303 0.8617 0.0000
0.3704 0.8611 0.0000
0.4086 0.8606 0.0000
0.4459 0.8610 0.0000
0.4837 0.8626 0.0000
0.5192 0.8655 0.0000
0.5556 0.8694 0.0000
0.5909 0.8739 0.0000
0.6272 0.8790 0.0000
0.6638 0.8847 0.0000
0.7016 0.8906 0.0000
0.7455 0.8971 0.0000
0.7967 0.9033 0.0000
0.8460 0.9034 0.0000
0.8585 0.8571 0.0000
0.8714 0.8098 0.0000
0.8846 0.7700 0.0000
0.8918 0.7311 0.0000
0.8989 0.6999 0.0000
0.9307 0.6972 0.0000
0.9481 0.6968 0.0000
0.9478 0.6988 0.0000
0.9474 0.7037 0.0000
0.0081 0.8894 0.0000
0.0190 0.8893 0.0000
0.0744 0.8894 0.0000
0.1106 0.8898 0.0000
